(1001)
(Machine)
(  vendor: Autodesk)
(  description: Generic 3-axis)
(T2  D=12 CR=0 - ZMIN=-10.498 - flat end mill)
G90 G94
G17
G21

(Adaptive1)
T2 M6
S5000 M3
G54
M8
G0 X133.736 Y-1.216
Z5
Z-0.597
G1 Z-1.797 F1000
X133.728 Y-1.214 Z-1.931
X133.707 Y-1.209 Z-2.064
X133.67 Y-1.199 Z-2.193
X133.621 Y-1.187 Z-2.318
X133.558 Y-1.17 Z-2.436
X133.482 Y-1.151 Z-2.545
X133.395 Y-1.129 Z-2.646
X133.298 Y-1.104 Z-2.735
X133.192 Y-1.077 Z-2.813
X133.078 Y-1.048 Z-2.878
X132.957 Y-1.017 Z-2.93
X132.832 Y-0.985 Z-2.967
X132.703 Y-0.952 Z-2.99
X132.573 Y-0.918 Z-2.997
G3 X126.04 Y0.021 I-7.602 J-29.678
G1 X125.959
X125.236 Y-1.068
X124.328 Y-2.008
X123.279 Y-2.789
X122.13 Y-3.413
X120.914 Y-3.893
X119.656 Y-4.247
X118.373 Y-4.499
X117.077 Y-4.671
X115.775 Y-4.785
X114.47 Y-4.858
X113.163 Y-4.904
X111.856 Y-4.933
X110.549 Y-4.951
X109.242 Y-4.962
X107.935 Y-4.969
X106.627 Y-4.973
X104.013 Y-4.977
X98.784 Y-4.979
X76.56
X25.576
X2.044
X0.775 Y-4.666
X-0.396 Y-4.085
X-1.433 Y-3.289
X-2.314 Y-2.323
X-3.036 Y-1.234
X-3.605 Y-0.057
X-4.036 Y1.178
X-4.35 Y2.447
X-4.569 Y3.736
X-4.717 Y5.034
X-4.815 Y6.338
X-4.877 Y7.644
X-4.916 Y8.951
X-4.94 Y10.258
X-4.955 Y11.565
X-4.964 Y12.872
X-4.969 Y14.179
X-4.973 Y15.487
X-4.976 Y18.101
X-4.977 Y19.408
X-4.978 Y29.867
Y70.393
Y121.377
Y172.361
Y207.658
X-4.733 Y208.942
X-4.209 Y210.14
X-3.458 Y211.209
X-2.527 Y212.127
X-1.462 Y212.886
X-0.302 Y213.489
X0.921 Y213.95
X2.184 Y214.288
X3.469 Y214.527
X4.766 Y214.69
X6.069 Y214.797
X7.374 Y214.866
X8.681 Y214.909
X9.988 Y214.936
X11.295 Y214.953
X12.602 Y214.963
X13.91 Y214.969
X15.217 Y214.973
X17.832 Y214.977
X23.061 Y214.979
X58.357
X109.342
X117.185
X118.486 Y214.846
X119.721 Y214.417
X120.84 Y213.742
X121.814 Y212.87
X122.63 Y211.849
X123.288 Y210.719
X123.798 Y209.515
X124.178 Y208.264
X124.45 Y206.986
X124.638 Y205.692
X124.763 Y204.391
X124.844 Y203.086
X124.895 Y201.78
X124.927 Y200.473
X124.947 Y199.166
X124.959 Y197.858
X124.966 Y196.551
X124.971 Y195.244
X124.973 Y193.937
X124.976 Y191.322
X124.978 Y183.478
Y175.635
Y124.651
Y73.666
Y22.682
Y4.38
X124.749 Y3.093
X124.284 Y1.871
X123.611 Y0.751
X122.762 Y-0.244
X121.773 Y-1.099
X120.678 Y-1.812
X119.504 Y-2.388
X118.277 Y-2.839
X117.015 Y-3.18
X115.732 Y-3.432
X114.438 Y-3.611
X113.136 Y-3.735
X111.832 Y-3.82
X110.526 Y-3.876
X109.219 Y-3.913
X107.912 Y-3.937
X106.604 Y-3.952
X105.297 Y-3.962
X103.99 Y-3.968
X102.683 Y-3.972
X100.068 Y-3.976
X96.146 Y-3.978
X54.313 Y-3.979
X45.162
X5.944
X4.637 Y-3.954
X3.352 Y-3.712
X2.128 Y-3.253
X0.998 Y-2.596
X-0.013 Y-1.767
X-0.891 Y-0.799
X-1.632 Y0.279
X-2.237 Y1.438
X-2.716 Y2.654
X-3.084 Y3.909
X-3.358 Y5.187
X-3.556 Y6.479
X-3.696 Y7.779
X-3.792 Y9.082
X-3.857 Y10.388
X-3.899 Y11.695
X-3.927 Y13.002
X-3.946 Y14.309
X-3.957 Y15.616
X-3.965 Y16.923
X-3.969 Y18.231
X-3.973 Y19.538
X-3.976 Y22.152
X-3.977 Y27.382
X-3.978 Y41.69
X-3.979 Y41.752
X-3.982 Y41.814
X-3.988 Y41.875
X-3.993 Y42.235
X-3.996 Y42.595
Y42.954
X-3.994 Y43.314
X-4.05 Y44.62
X-4.021 Y45.927
X-4.004 Y47.234
X-3.993 Y48.541
X-3.987 Y49.849
X-3.983 Y51.156
X-3.98 Y53.771
X-3.978 Y59
Y94.296
Y145.281
Y196.265
Y204.108
X-3.94 Y205.415
X-3.688 Y206.698
X-3.221 Y207.919
X-2.556 Y209.045
X-1.722 Y210.051
X-0.748 Y210.923
X0.334 Y211.657
X1.496 Y212.257
X2.714 Y212.732
X3.969 Y213.096
X5.248 Y213.367
X6.541 Y213.563
X7.84 Y213.701
X9.144 Y213.796
X10.45 Y213.859
X11.757 Y213.902
X13.064 Y213.929
X14.371 Y213.947
X15.678 Y213.959
X16.985 Y213.966
X18.293 Y213.971
X19.6 Y213.974
X22.214 Y213.977
X28.751 Y213.979
X33.98
X84.964
X113.724
X115.032 Y213.973
X116.325 Y213.784
X117.568 Y213.378
X118.724 Y212.767
X119.767 Y211.98
X120.68 Y211.044
X121.454 Y209.99
X122.092 Y208.849
X122.603 Y207.646
X122.998 Y206.4
X123.294 Y205.127
X123.511 Y203.837
X123.664 Y202.539
X123.77 Y201.236
X123.842 Y199.931
X123.89 Y198.624
X123.921 Y197.317
X123.942 Y196.01
X123.955 Y194.703
X123.963 Y193.396
X123.968 Y192.089
X123.972 Y190.781
X123.975 Y188.167
X123.976 Y187.628
X123.978 Y187.541
X123.987 Y187.182
X123.978 Y186.822
X123.962 Y186.172
X123.968 Y184.865
X123.972 Y183.558
X123.976 Y180.943
X123.977 Y175.714
X123.978 Y136.495
Y85.511
Y34.527
Y7.074
X123.857 Y5.772
X123.544 Y4.503
X123.037 Y3.298
X122.351 Y2.185
X121.51 Y1.185
X120.538 Y0.31
X119.464 Y-0.434
X118.311 Y-1.051
X117.102 Y-1.548
X115.854 Y-1.939
X114.582 Y-2.238
X113.293 Y-2.459
X111.996 Y-2.62
X110.694 Y-2.734
X109.389 Y-2.814
X108.083 Y-2.869
X106.776 Y-2.906
X105.469 Y-2.931
X104.162 Y-2.947
X102.854 Y-2.958
X101.547 Y-2.965
X100.24 Y-2.97
X98.933 Y-2.973
X96.318 Y-2.976
X91.089 Y-2.978
X54.485 Y-2.979
X8.73
X7.423 Y-2.974
X6.12 Y-2.865
X4.845 Y-2.575
X3.628 Y-2.099
X2.495 Y-1.446
X1.469 Y-0.635
X0.565 Y0.309
X-0.212 Y1.36
X-0.862 Y2.494
X-1.392 Y3.689
X-1.814 Y4.927
X-2.14 Y6.193
X-2.384 Y7.477
X-2.564 Y8.772
X-2.694 Y10.073
X-2.785 Y11.377
X-2.848 Y12.682
X-2.891 Y13.989
X-2.92 Y15.296
X-2.94 Y16.603
X-2.953 Y17.91
X-2.961 Y19.218
X-2.967 Y20.525
X-2.971 Y21.832
X-2.975 Y24.447
X-2.977 Y29.676
X-2.978 Y37.84
X-3.011 Y38.309
X-3.111 Y38.769
X-3.275 Y39.21
X-3.343 Y39.358
X-3.629 Y40.077
X-3.74 Y40.437
X-3.83 Y40.796
X-3.906 Y41.156
X-3.988 Y41.875
X-3.991 Y41.885
X-4.02 Y41.985
X-4.044 Y42.085
G2 X-4.073 Y42.341 I1.171 J0.26
G1 X-4.074 Y42.537
X-4.075 Y42.842
G2 X-4.049 Y43.097 I1.2 J0.005
G1 X-4.025 Y43.198
X-3.997 Y43.298
X-3.994 Y43.314
X-3.988 Y44.033
X-3.929 Y49.788
X-3.92 Y50.507
X-3.909 Y50.867
X-3.889 Y51.227
X-3.862 Y51.586
X-3.826 Y51.946
X-3.797 Y52.195
X-3.782 Y52.306
X-3.73 Y52.665
X-3.67 Y53.025
X-3.598 Y53.385
X-3.551 Y53.583
X-3.428 Y54.247
X-3.352 Y54.736
X-3.272 Y55.378
X-3.187 Y56.265
X-3.1 Y57.57
X-3.05 Y58.876
X-3.021 Y60.183
X-3.004 Y61.49
X-2.994 Y62.798
X-2.987 Y64.105
X-2.984 Y65.412
X-2.98 Y68.027
X-2.978 Y73.256
Y104.631
Y155.615
Y201.37
X-2.971 Y202.677
X-2.847 Y203.978
X-2.541 Y205.25
X-2.05 Y206.461
X-1.384 Y207.586
X-0.562 Y208.603
X0.39 Y209.498
X1.449 Y210.265
X2.589 Y210.906
X3.787 Y211.427
X5.027 Y211.841
X6.295 Y212.16
X7.58 Y212.4
X8.876 Y212.576
X10.177 Y212.702
X11.481 Y212.791
X12.787 Y212.853
X14.093 Y212.895
X15.4 Y212.923
X16.708 Y212.942
X18.015 Y212.955
X19.322 Y212.963
X20.629 Y212.969
X21.937 Y212.972
X24.551 Y212.976
X29.78 Y212.978
X46.775 Y212.979
X97.759
X110.832
X112.139 Y212.978
X113.445 Y212.918
X114.732 Y212.69
X115.972 Y212.273
X117.134 Y211.676
X118.197 Y210.915
X119.143 Y210.012
X119.963 Y208.994
X120.655 Y207.885
X121.225 Y206.708
X121.682 Y205.484
X122.038 Y204.226
X122.308 Y202.947
X122.509 Y201.655
X122.654 Y200.356
X122.757 Y199.053
X122.829 Y197.747
X122.878 Y196.441
X122.912 Y195.134
X122.934 Y193.827
X122.949 Y192.52
X122.957 Y191.524
X122.982 Y191.144
X123.054 Y190.769
X123.169 Y190.406
X123.328 Y190.059
X123.437 Y189.813
X123.442 Y189.804
G2 X123.611 Y189.539 I-2.949 J-2.069
X123.754 Y189.152 I-1.039 J-0.601
G1 X123.762 Y189.106
X124.034 Y187.597
X124.043 Y187.549
G2 X124.046 Y187.137 I-1.181 J-0.213
X123.98 Y186.829 I-3.553 J0.599
G1 X123.978 Y186.822
X123.942 Y186.462
X123.901 Y186.103
X123.731 Y185.383
X123.719 Y185.35
X123.653 Y185.126
X123.595 Y184.905
X123.532 Y184.635
X123.464 Y184.299
X123.391 Y183.876
X123.314 Y183.332
X123.232 Y182.602
X123.146 Y181.556
X123.077 Y180.251
X123.036 Y178.944
X123.013 Y177.637
X122.999 Y176.33
X122.99 Y175.023
X122.985 Y173.715
X122.982 Y172.408
X122.979 Y169.794
X122.978 Y163.257
Y134.497
Y83.513
Y32.529
Y10.305
X122.966 Y8.998
X122.858 Y7.695
X122.589 Y6.416
X122.145 Y5.186
X121.53 Y4.032
X120.761 Y2.975
X119.857 Y2.031
X118.842 Y1.206
X117.74 Y0.504
X116.57 Y-0.079
X115.351 Y-0.551
X114.098 Y-0.925
X112.823 Y-1.213
X111.534 Y-1.432
X110.237 Y-1.593
X108.935 Y-1.71
X107.63 Y-1.794
X106.324 Y-1.852
X105.018 Y-1.893
X103.711 Y-1.921
X102.403 Y-1.94
X101.096 Y-1.953
X99.789 Y-1.962
X98.482 Y-1.967
X97.174 Y-1.971
X94.56 Y-1.976
X90.638 Y-1.978
X72.336 Y-1.979
X50.112
X10.894
X9.586 Y-1.974
X8.281 Y-1.902
X6.991 Y-1.689
X5.741 Y-1.308
X4.555 Y-0.757
X3.457 Y-0.048
X2.464 Y0.803
X1.587 Y1.772
X0.832 Y2.84
X0.197 Y3.982
X-0.324 Y5.181
X-0.743 Y6.419
X-1.071 Y7.685
X-1.323 Y8.968
X-1.511 Y10.261
X-1.65 Y11.561
X-1.75 Y12.865
X-1.821 Y14.17
X-1.87 Y15.476
X-1.905 Y16.783
X-1.928 Y18.09
X-1.945 Y19.397
X-1.956 Y20.705
X-1.963 Y22.012
X-1.968 Y23.319
X-1.971 Y24.627
X-1.975 Y27.241
X-1.977 Y32.47
Y35.085
X-1.983 Y35.7
X-2.019 Y36.162
X-2.12 Y36.615
X-2.284 Y37.05
X-3.256 Y39.167
X-3.275 Y39.21
X-3.294 Y39.232
G2 X-5.862 Y42.184 I5.373 J7.266
X-6.007 Y42.733 I1.054 J0.573
G1 X-6.147 Y49.946
G2 X-6.023 Y50.501 I1.2 J0.023
X-3.572 Y53.55 I8.102 J-4.003
G1 X-3.559 Y53.565
X-3.551 Y53.583
X-3.513 Y53.744
X-3.437 Y54.023
X-3.414 Y54.104
X-3.3 Y54.464
X-3.171 Y54.823
X-3.078 Y55.049
X-3.06 Y55.09
X-2.975 Y55.304
X-2.907 Y55.49
X-2.839 Y55.697
X-2.77 Y55.928
X-2.695 Y56.211
X-2.614 Y56.555
X-2.533 Y56.949
X-2.446 Y57.451
X-2.358 Y58.062
X-2.265 Y58.874
X-2.169 Y60.001
X-2.096 Y61.307
X-2.052 Y62.613
X-2.024 Y63.92
X-2.007 Y65.227
X-1.996 Y66.535
X-1.989 Y67.842
X-1.985 Y69.149
X-1.982 Y70.456
X-1.979 Y73.071
X-1.978 Y79.607
Y105.753
Y156.737
Y198.57
X-1.977 Y199.878
X-1.944 Y201.185
X-1.792 Y202.483
X-1.482 Y203.753
X-0.999 Y204.968
X-0.351 Y206.103
X0.445 Y207.14
X1.37 Y208.064
X2.4 Y208.869
X3.514 Y209.554
X4.691 Y210.122
X5.914 Y210.583
X7.17 Y210.947
X8.447 Y211.228
X9.736 Y211.441
X11.034 Y211.598
X12.336 Y211.713
X13.641 Y211.795
X14.947 Y211.853
X16.254 Y211.893
X17.581 Y211.921
X17.75 Y211.928
X17.919 Y211.943
X18.086 Y211.967
X18.487 Y212.036
X18.847 Y212.078
X19.565 Y212.145
X20.284 Y212.196
X20.644 Y212.209
X21.363 Y212.212
X22.081 Y212.204
X22.441 Y212.195
X22.8 Y212.17
X24.107 Y212.144
X25.413 Y212.076
X26.719 Y212.036
X28.026 Y212.013
X29.334 Y211.999
X30.641 Y211.991
X31.948 Y211.986
X33.256 Y211.983
X35.87 Y211.98
X42.407 Y211.979
X73.781
X109.078
X110.385 Y211.972
X111.691 Y211.901
X112.981 Y211.689
X114.232 Y211.312
X115.419 Y210.764
X116.518 Y210.056
X117.512 Y209.207
X118.391 Y208.239
X119.149 Y207.174
X119.788 Y206.034
X120.313 Y204.836
X120.734 Y203.598
X121.064 Y202.333
X121.316 Y201.051
X121.506 Y199.757
X121.646 Y198.458
X121.747 Y197.154
X121.819 Y195.849
X121.869 Y194.543
X121.9 Y193.528
X121.932 Y193.007
X121.938 Y192.938
X122.015 Y192.463
X122.161 Y192.004
X122.372 Y191.572
X122.644 Y191.175
X122.674 Y191.138
X123.137 Y190.419
X123.328 Y190.059
X123.333 Y190.051
G2 X123.741 Y189.446 I-3.254 J-2.633
X123.887 Y188.964 I-1.05 J-0.581
G1 X124.09 Y186.522
G2 X124.025 Y186.022 I-1.196 J-0.099
X123.723 Y185.358 I-3.946 J1.396
G1 X123.719 Y185.35
X123.605 Y185.024
X123.437 Y184.588
X123.313 Y184.304
X123.28 Y184.244
X123.181 Y184.045
X123.119 Y183.908
X123.057 Y183.76
X122.987 Y183.578
X122.918 Y183.381
X122.846 Y183.157
X122.767 Y182.881
X122.683 Y182.549
X122.602 Y182.187
X122.513 Y181.729
X122.423 Y181.182
X122.329 Y180.474
X122.234 Y179.558
X122.137 Y178.254
X122.077 Y176.949
X122.04 Y175.642
X122.017 Y174.335
X122.003 Y173.027
X121.993 Y171.72
X121.988 Y170.413
X121.984 Y169.106
X121.98 Y166.491
X121.978 Y161.262
Y133.809
Y82.825
Y31.841
X121.977 Y12.231
X121.964 Y10.924
X121.879 Y9.62
X121.662 Y8.33
X121.286 Y7.079
X120.748 Y5.887
X120.057 Y4.778
X119.226 Y3.768
X118.276 Y2.87
X117.228 Y2.089
X116.101 Y1.426
X114.916 Y0.874
X113.688 Y0.426
X112.43 Y0.07
X111.153 Y-0.208
X109.863 Y-0.42
X108.565 Y-0.579
X107.263 Y-0.696
X105.959 Y-0.781
X104.653 Y-0.841
X103.346 Y-0.884
X102.039 Y-0.914
X100.732 Y-0.934
X99.425 Y-0.948
X98.118 Y-0.958
X96.81 Y-0.965
X95.503 Y-0.969
X92.889 Y-0.975
X88.967 Y-0.978
X77.201 Y-0.979
X47.134
X13.144
X11.837 Y-0.977
X10.53 Y-0.94
X9.23 Y-0.805
X7.952 Y-0.529
X6.72 Y-0.093
X5.555 Y0.502
X4.479 Y1.243
X3.506 Y2.116
X2.646 Y3.101
X1.902 Y4.176
X1.273 Y5.322
X0.752 Y6.521
X0.331 Y7.759
X-0.004 Y9.022
X-0.264 Y10.304
X-0.461 Y11.596
X-0.608 Y12.895
X-0.715 Y14.198
X-0.794 Y15.503
X-0.849 Y16.809
X-0.889 Y18.115
X-0.916 Y19.422
X-0.936 Y20.73
X-0.949 Y22.037
X-0.958 Y23.344
X-0.965 Y24.651
X-0.969 Y25.959
X-0.974 Y28.573
X-0.977 Y32.495
X-0.979 Y33.588
X-1.022 Y34.024
X-1.122 Y34.451
X-1.279 Y34.861
X-2.284 Y37.05
X-2.295 Y37.066
X-2.311 Y37.077
G2 X-5.759 Y39.953 I4.762 J9.214
X-6.008 Y40.635 I0.95 J0.733
G1 X-6.461 Y51.203
G2 X-6.272 Y51.904 I1.199 J0.051
X-3.082 Y55.065 I8.722 J-5.613
G1 X-3.069 Y55.076
X-3.06 Y55.09
X-3.017 Y55.183
X-2.637 Y55.902
X-2.569 Y56.011
X-2.425 Y56.272
X-2.356 Y56.405
X-2.291 Y56.54
X-2.221 Y56.698
X-2.143 Y56.891
X-2.068 Y57.091
X-1.986 Y57.331
X-1.895 Y57.627
X-1.809 Y57.938
X-1.717 Y58.311
X-1.618 Y58.772
X-1.524 Y59.282
X-1.422 Y59.939
X-1.321 Y60.748
X-1.218 Y61.835
X-1.133 Y63.139
X-1.078 Y64.445
X-1.043 Y65.752
X-1.02 Y67.059
X-1.005 Y68.366
X-0.995 Y69.674
X-0.989 Y70.981
X-0.985 Y72.288
X-0.981 Y74.903
X-0.979 Y78.824
X-0.978 Y102.356
Y106.277
Y157.262
Y169.824
X-0.979 Y169.9
X-0.981 Y169.976
X-0.986 Y170.051
X-1.001 Y170.277
X-1.046 Y170.996
Y171.356
X-1.032 Y171.716
X-1.021 Y173.023
X-1.004 Y174.33
X-0.994 Y175.637
X-0.987 Y176.945
X-0.984 Y178.252
X-0.98 Y180.867
X-0.978 Y186.096
Y196.554
X-0.977 Y197.861
X-0.952 Y199.168
X-0.845 Y200.471
X-0.603 Y201.756
X-0.203 Y203
X0.356 Y204.182
X1.065 Y205.281
X1.909 Y206.279
X2.869 Y207.166
X3.925 Y207.937
X5.056 Y208.593
X6.245 Y209.137
X7.474 Y209.58
X8.733 Y209.933
X10.011 Y210.209
X11.301 Y210.419
X12.599 Y210.578
X13.328 Y210.643
X13.676 Y210.693
X14.017 Y210.78
X14.347 Y210.902
X14.893 Y211.139
X15.318 Y211.279
X15.612 Y211.375
X15.971 Y211.486
X16.69 Y211.695
X17.049 Y211.772
X17.409 Y211.844
X17.768 Y211.913
X18.086 Y211.967
X18.096 Y211.97
G2 X18.72 Y212.175 I2.654 J-7.039
X18.992 Y212.218 I0.324 J-1.155
G1 X21.876 Y212.342
G2 X22.151 Y212.322 I0.052 J-1.199
X22.79 Y212.172 I-1.401 J-7.391
G1 X22.8 Y212.17
X23.16 Y212.145
X23.519 Y212.117
X24.238 Y212.057
X24.957 Y211.959
X25.316 Y211.909
X26.035 Y211.805
X27.155 Y211.639
X27.832 Y211.514
X29.127 Y211.337
X29.777 Y211.261
X30.755 Y211.173
X32.06 Y211.095
X33.367 Y211.049
X34.674 Y211.021
X35.981 Y211.005
X37.288 Y210.995
X38.596 Y210.988
X39.903 Y210.985
X42.517 Y210.981
X47.747 Y210.979
X77.814
X106.574
X107.882 Y210.977
X109.189 Y210.953
X110.492 Y210.844
X111.775 Y210.598
X113.019 Y210.196
X114.199 Y209.633
X115.295 Y208.921
X116.291 Y208.074
X117.176 Y207.112
X117.945 Y206.054
X118.599 Y204.922
X119.143 Y203.733
X119.586 Y202.503
X119.938 Y201.245
X120.212 Y199.966
X120.421 Y198.676
X120.578 Y197.378
X120.695 Y196.076
X120.777 Y195
X120.826 Y194.539
X120.882 Y194.132
X120.934 Y193.813
X120.952 Y193.722
X121.06 Y193.313
X121.22 Y192.921
X121.428 Y192.552
X121.682 Y192.213
X121.977 Y191.91
X121.999 Y191.898
X122.023 Y191.895
G2 X122.361 Y191.909 I0.329 J-3.865
X123.542 Y190.91 I-0.003 J-1.2
G1 X124.426 Y185.704
G2 X123.642 Y184.371 I-1.183 J-0.201
X123.318 Y184.273 I-1.289 J3.659
G1 X123.296 Y184.262
X123.28 Y184.244
X123.112 Y183.945
X122.901 Y183.585
X122.609 Y183.116
X122.485 Y182.895
X122.416 Y182.762
X122.347 Y182.619
X122.27 Y182.445
X122.193 Y182.259
X122.111 Y182.042
X122.02 Y181.778
X121.935 Y181.506
X121.842 Y181.173
X121.739 Y180.76
X121.646 Y180.334
X121.543 Y179.787
X121.443 Y179.155
X121.338 Y178.337
X121.233 Y177.266
X121.143 Y175.962
X121.085 Y174.656
X121.048 Y173.349
X121.023 Y172.042
X121.007 Y170.735
X120.997 Y169.428
X120.99 Y168.12
X120.986 Y166.813
X120.983 Y165.506
X120.98 Y162.891
X120.978 Y157.662
Y132.824
Y81.84
Y30.855
Y15.168
X120.976 Y13.861
X120.958 Y12.554
X120.878 Y11.249
X120.683 Y9.956
X120.341 Y8.694
X119.846 Y7.484
X119.201 Y6.347
X118.416 Y5.302
X117.508 Y4.361
X116.498 Y3.531
X115.405 Y2.815
X114.246 Y2.21
X113.038 Y1.711
X111.795 Y1.306
X110.528 Y0.984
X109.245 Y0.733
X107.951 Y0.541
X106.652 Y0.397
X105.349 Y0.29
X104.044 Y0.212
X102.738 Y0.155
X101.432 Y0.115
X100.125 Y0.086
X98.817 Y0.066
X97.51 Y0.052
X96.203 Y0.043
X94.896 Y0.036
X93.588 Y0.031
X92.281 Y0.028
X89.667 Y0.024
X84.437 Y0.022
X43.912 Y0.021
X15.151
X13.844 Y0.023
X12.537 Y0.047
X11.233 Y0.136
X9.942 Y0.346
X8.684 Y0.699
X7.478 Y1.205
X6.347 Y1.859
X5.306 Y2.65
X4.369 Y3.562
X3.542 Y4.575
X2.829 Y5.67
X2.225 Y6.83
X1.725 Y8.038
X1.319 Y9.28
X0.996 Y10.547
X0.743 Y11.83
X0.55 Y13.123
X0.404 Y14.422
X0.296 Y15.725
X0.217 Y17.029
X0.16 Y18.335
X0.119 Y19.642
X0.09 Y20.949
X0.069 Y22.256
X0.055 Y23.563
X0.045 Y24.871
X0.038 Y26.178
X0.033 Y27.485
X0.03 Y28.792
X0.025 Y31.401
X-0.018 Y31.838
X-0.119 Y32.266
X-0.275 Y32.676
X-1.279 Y34.861
X-1.294 Y34.881
X-1.315 Y34.893
G2 X-5.546 Y37.418 I3.579 J10.804
X-5.92 Y38.218 I0.823 J0.873
G1 X-6.764 Y52.132
G2 X-6.489 Y52.972 I1.198 J0.073
X-2.595 Y55.989 I8.753 J-7.275
G1 X-2.58 Y55.999
X-2.569 Y56.011
X-2.413 Y56.262
X-2.359 Y56.343
X-2 Y56.802
X-1.907 Y56.919
X-1.822 Y57.043
X-1.742 Y57.17
X-1.666 Y57.299
X-1.59 Y57.44
X-1.512 Y57.594
X-1.43 Y57.77
X-1.341 Y57.975
X-1.254 Y58.193
X-1.156 Y58.46
X-1.063 Y58.739
X-0.962 Y59.076
X-0.856 Y59.469
X-0.755 Y59.897
X-0.641 Y60.445
X-0.537 Y61.033
X-0.426 Y61.792
X-0.314 Y62.744
X-0.204 Y64.009
X-0.128 Y65.314
X-0.078 Y66.62
X-0.044 Y67.927
X-0.022 Y69.234
X-0.007 Y70.541
X0.003 Y71.849
X0.009 Y73.156
X0.014 Y74.463
X0.019 Y77.078
X0.021 Y81
X0.022 Y95.38
Y107.145
Y158.129
Y163.879
X-0.006 Y164.314
X-0.092 Y164.741
X-0.234 Y165.153
X-0.271 Y165.242
X-0.409 Y165.601
X-0.522 Y165.961
X-0.562 Y166.106
X-0.616 Y166.321
X-0.692 Y166.68
X-0.752 Y167.04
X-0.795 Y167.4
X-0.849 Y168.119
X-0.901 Y168.838
X-0.986 Y170.051
X-0.987 Y170.061
G2 X-1.054 Y170.365 I3.445 J0.919
G1 X-1.066 Y170.451
X-1.072 Y170.539
X-1.08 Y170.828
X-1.083 Y170.935
X-1.091 Y171.227
X-1.09 Y171.314
X-1.083 Y171.402
G2 X-1.033 Y171.709 I3.541 J-0.422
G1 X-1.032 Y171.716
X-1.011 Y172.076
X-0.912 Y172.795
X-0.81 Y173.514
X-0.349 Y176.751
X-0.225 Y178.053
X-0.174 Y178.704
X-0.093 Y180.009
X-0.047 Y181.315
X-0.019 Y182.622
X-0.003 Y183.93
X0.007 Y185.237
X0.013 Y186.544
X0.017 Y187.851
X0.02 Y190.466
X0.022 Y195.695
X0.034 Y197.002
X0.096 Y198.308
X0.261 Y199.605
X0.56 Y200.878
X1.013 Y202.104
X1.616 Y203.264
X2.361 Y204.338
X3.232 Y205.313
X4.212 Y206.179
X5.28 Y206.932
X6.419 Y207.573
X7.612 Y208.109
X8.843 Y208.547
X10.103 Y208.899
X10.662 Y209.024
X11.054 Y209.136
X11.428 Y209.297
X11.781 Y209.502
X12.018 Y209.661
X12.306 Y209.841
X13.096 Y210.322
X13.455 Y210.503
X13.578 Y210.56
X13.815 Y210.668
X14.174 Y210.827
X14.347 Y210.902
X14.363 Y210.913
X14.375 Y210.929
G2 X17.774 Y214.205 I6.894 J-3.752
X18.254 Y214.329 I0.534 J-1.074
G1 X23.622 Y214.573
G2 X24.111 Y214.493 I0.055 J-1.199
X27.793 Y211.54 I-2.842 J-7.317
G1 X27.81 Y211.523
X27.832 Y211.514
X28.191 Y211.446
X29.989 Y211.09
X30.814 Y210.92
X31.067 Y210.867
X32.504 Y210.563
X33.588 Y210.389
X34.246 Y210.303
X35.136 Y210.214
X36.44 Y210.121
X37.747 Y210.066
X39.053 Y210.033
X40.36 Y210.012
X41.668 Y209.999
X42.975 Y209.992
X44.282 Y209.987
X45.59 Y209.984
X48.204 Y209.981
X54.741 Y209.979
X83.501
X104.417
X105.725 Y209.978
X107.032 Y209.966
X108.338 Y209.902
X109.634 Y209.735
X110.906 Y209.431
X112.131 Y208.974
X113.288 Y208.367
X114.36 Y207.618
X115.332 Y206.744
X116.195 Y205.763
X116.946 Y204.692
X117.585 Y203.552
X118.119 Y202.359
X118.555 Y201.126
X118.905 Y199.867
X119.18 Y198.589
X119.397 Y197.299
X119.59 Y196.007
X119.693 Y195.416
X119.771 Y195.031
X119.851 Y194.691
X119.918 Y194.441
X119.999 Y194.17
X120.158 Y193.775
X120.366 Y193.404
X120.621 Y193.063
X120.917 Y192.758
X121.25 Y192.493
G3 X121.999 Y192.306 I0.65 J1.009
G1 X122.133 Y192.317 Z-2.99
X122.265 Y192.328 Z-2.967
X122.394 Y192.338 Z-2.93
X122.518 Y192.348 Z-2.878
X122.635 Y192.358 Z-2.813
X122.744 Y192.367 Z-2.735
X122.844 Y192.375 Z-2.646
X122.934 Y192.383 Z-2.545
X123.011 Y192.389 Z-2.436
X123.076 Y192.394 Z-2.318
X123.127 Y192.399 Z-2.193
X123.165 Y192.402 Z-2.064
X123.187 Y192.404 Z-1.931
X123.195 Z-1.797
G0 Z5
X124.262 Y184.188
Z-0.597
G1 Z-1.797 F1000
X124.255 Y184.185 Z-1.931
X124.235 Y184.175 Z-2.064
X124.202 Y184.158 Z-2.193
X124.156 Y184.134 Z-2.318
X124.098 Y184.104 Z-2.436
X124.029 Y184.068 Z-2.545
X123.95 Y184.027 Z-2.646
X123.86 Y183.981 Z-2.735
X123.763 Y183.931 Z-2.813
X123.658 Y183.877 Z-2.878
X123.548 Y183.82 Z-2.93
X123.433 Y183.761 Z-2.967
X123.315 Y183.7 Z-2.99
X123.195 Y183.638 Z-2.997
G3 X122.609 Y183.116 I0.725 J-1.407
G1 X121.778 Y181.787
X121.599 Y181.465
X121.528 Y181.328
X121.448 Y181.163
X121.366 Y180.979
X121.281 Y180.774
X121.187 Y180.523
X121.097 Y180.265
X120.998 Y179.949
X120.895 Y179.583
X120.795 Y179.183
X120.683 Y178.671
X120.58 Y178.126
X120.469 Y177.422
X120.36 Y176.58
X120.249 Y175.461
X120.158 Y174.157
X120.098 Y172.851
X120.058 Y171.545
X120.031 Y170.238
X120.013 Y168.93
X120.002 Y167.623
X119.994 Y166.316
X119.988 Y165.009
X119.985 Y163.701
X119.981 Y161.087
X119.978 Y155.858
Y131.019
Y80.035
Y29.051
Y17.285
X119.977 Y15.978
X119.968 Y14.671
X119.922 Y13.364
X119.793 Y12.063
X119.541 Y10.781
X119.146 Y9.535
X118.601 Y8.346
X117.914 Y7.234
X117.096 Y6.214
X116.164 Y5.298
X115.136 Y4.491
X114.029 Y3.794
X112.862 Y3.205
X111.65 Y2.716
X110.405 Y2.318
X109.137 Y2
X107.853 Y1.75
X106.56 Y1.559
X105.261 Y1.414
X103.958 Y1.305
X102.653 Y1.225
X101.347 Y1.166
X100.041 Y1.124
X98.734 Y1.094
X97.427 Y1.072
X96.12 Y1.057
X94.812 Y1.046
X93.505 Y1.038
X92.198 Y1.033
X90.89 Y1.029
X88.276 Y1.025
X84.354 Y1.022
X71.281 Y1.021
X39.906
X16.375 Y1.022
X15.068 Y1.028
X13.761 Y1.061
X12.458 Y1.169
X11.17 Y1.39
X9.913 Y1.749
X8.707 Y2.254
X7.573 Y2.904
X6.526 Y3.687
X5.58 Y4.589
X4.741 Y5.592
X4.011 Y6.676
X3.389 Y7.826
X2.869 Y9.025
X2.443 Y10.262
X2.102 Y11.523
X1.832 Y12.803
X1.623 Y14.093
X1.463 Y15.391
X1.343 Y16.692
X1.254 Y17.997
X1.188 Y19.302
X1.14 Y20.609
X1.106 Y21.915
X1.081 Y23.223
X1.064 Y24.53
X1.051 Y25.837
X1.042 Y27.144
X1.036 Y28.451
X1.031 Y29.136
X0.995 Y29.6
X0.894 Y30.053
X0.73 Y30.488
X-0.275 Y32.676
X-0.294 Y32.699
X-0.321 Y32.71
G2 X-5.306 Y34.707 I2.011 J12.24
X-5.826 Y35.613 I0.677 J0.991
G1 X-7.067 Y53.137
G2 X-6.679 Y54.107 I1.197 J0.085
X-2.025 Y56.786 I8.369 J-9.156
G1 X-2 Y56.802
X-1.832 Y56.981
X-1.64 Y57.181
X-1.481 Y57.341
X-1.375 Y57.448
X-1.277 Y57.561
X-1.184 Y57.679
X-1.097 Y57.801
X-1.013 Y57.925
X-0.934 Y58.053
X-0.849 Y58.199
X-0.762 Y58.359
X-0.667 Y58.545
X-0.574 Y58.743
X-0.473 Y58.975
X-0.373 Y59.223
X-0.263 Y59.52
X-0.159 Y59.831
X-0.042 Y60.218
X0.066 Y60.617
X0.187 Y61.12
X0.303 Y61.672
X0.423 Y62.344
X0.538 Y63.116
X0.657 Y64.108
X0.773 Y65.41
X0.853 Y66.715
X0.906 Y68.021
X0.943 Y69.328
X0.969 Y70.635
X0.986 Y71.942
X0.998 Y73.25
X1.006 Y74.557
X1.011 Y75.864
X1.015 Y77.171
X1.019 Y79.786
X1.021 Y83.708
X1.022 Y99.395
Y107.239
Y158.223
Y160.838
X1.02 Y161.815
X1.009 Y162.166
X0.964 Y162.617
X0.858 Y163.057
X0.692 Y163.478
X0.471 Y163.872
X0.366 Y164.032
G3 X-0.258 Y164.486 I-0.98 J-0.693
G1 X-0.386 Y164.525 Z-2.99
X-0.513 Y164.565 Z-2.967
X-0.637 Y164.603 Z-2.93
X-0.755 Y164.64 Z-2.878
X-0.868 Y164.675 Z-2.813
X-0.973 Y164.707 Z-2.735
X-1.068 Y164.737 Z-2.646
X-1.154 Y164.764 Z-2.545
X-1.228 Y164.787 Z-2.436
X-1.291 Y164.806 Z-2.318
X-1.34 Y164.822 Z-2.193
X-1.375 Y164.833 Z-2.064
X-1.397 Y164.839 Z-1.931
X-1.404 Y164.841 Z-1.797
G0 Z5
X-3.379 Y56.812
Z-0.597
G1 Z-1.797 F1000
X-3.372 Y56.813 Z-1.931
X-3.349 Y56.817 Z-2.064
X-3.313 Y56.824 Z-2.193
X-3.262 Y56.832 Z-2.318
X-3.198 Y56.844 Z-2.436
X-3.121 Y56.857 Z-2.545
X-3.033 Y56.872 Z-2.646
X-2.934 Y56.89 Z-2.735
X-2.826 Y56.909 Z-2.813
X-2.71 Y56.929 Z-2.878
X-2.587 Y56.95 Z-2.93
X-2.46 Y56.972 Z-2.967
X-2.329 Y56.995 Z-2.99
X-2.197 Y57.018 Z-2.997
G3 X-1.481 Y57.341 I-0.272 J1.559
G1 X-1.281 Y57.513
X-1.053 Y57.701
X-1.013 Y57.73
X-0.896 Y57.823
X-0.784 Y57.923
X-0.679 Y58.03
X-0.578 Y58.141
X-0.483 Y58.256
X-0.391 Y58.375
X-0.304 Y58.497
X-0.216 Y58.628
X-0.121 Y58.779
X-0.028 Y58.937
X0.075 Y59.125
X0.176 Y59.32
X0.286 Y59.552
X0.393 Y59.794
X0.51 Y60.082
X0.623 Y60.384
X0.745 Y60.743
X0.863 Y61.125
X0.991 Y61.589
X1.112 Y62.081
X1.246 Y62.708
X1.367 Y63.365
X1.494 Y64.188
X1.62 Y65.204
X1.742 Y66.506
X1.827 Y67.81
X1.887 Y69.116
X1.928 Y70.423
X1.957 Y71.73
X1.977 Y73.037
X1.991 Y74.344
X2.001 Y75.651
X2.007 Y76.958
X2.012 Y78.266
X2.015 Y79.573
X2.019 Y82.188
X2.022 Y87.417
Y108.333
Y159.317
X2.013 Y160.119
X1.997 Y160.538
X1.969 Y160.939
X1.955 Y161.083
X1.885 Y161.518
X1.764 Y161.942
X1.592 Y162.348
X1.373 Y162.73
X1.11 Y163.084
X0.806 Y163.443
X0.516 Y163.803
X0.471 Y163.872
G3 X-0.153 Y164.326 I-0.98 J-0.693
G1 X-0.282 Y164.366 Z-2.99
X-0.408 Y164.405 Z-2.967
X-0.532 Y164.443 Z-2.93
X-0.651 Y164.48 Z-2.878
X-0.763 Y164.515 Z-2.813
X-0.868 Y164.548 Z-2.735
X-0.964 Y164.577 Z-2.646
X-1.049 Y164.604 Z-2.545
X-1.124 Y164.627 Z-2.436
X-1.186 Y164.646 Z-2.318
X-1.235 Y164.662 Z-2.193
X-1.271 Y164.673 Z-2.064
X-1.292 Y164.679 Z-1.931
X-1.299 Y164.682 Z-1.797
G0 Z5
X-2.95 Y57.363
Z-0.597
G1 Z-1.797 F1000
X-2.942 Y57.364 Z-1.931
X-2.92 Y57.366 Z-2.064
X-2.883 Y57.369 Z-2.193
X-2.831 Y57.374 Z-2.318
X-2.766 Y57.379 Z-2.436
X-2.689 Y57.386 Z-2.545
X-2.599 Y57.394 Z-2.646
X-2.5 Y57.403 Z-2.735
X-2.39 Y57.413 Z-2.813
X-2.273 Y57.423 Z-2.878
X-2.149 Y57.434 Z-2.93
X-2.02 Y57.445 Z-2.967
X-1.888 Y57.457 Z-2.99
X-1.754 Y57.469 Z-2.997
G3 X-1.013 Y57.73 I-0.139 J1.576
G1 X-0.921 Y57.796
X-0.562 Y58.032
X-0.533 Y58.047
X-0.406 Y58.127
X-0.284 Y58.214
X-0.168 Y58.31
X-0.058 Y58.411
X0.047 Y58.518
X0.149 Y58.629
X0.246 Y58.743
X0.339 Y58.86
X0.436 Y58.99
X0.532 Y59.127
X0.637 Y59.286
X0.74 Y59.453
X0.851 Y59.646
X0.963 Y59.854
X1.078 Y60.083
X1.2 Y60.344
X1.321 Y60.624
X1.451 Y60.951
X1.573 Y61.288
X1.708 Y61.697
X1.835 Y62.123
X1.973 Y62.641
X2.105 Y63.198
X2.245 Y63.882
X2.377 Y64.64
X2.508 Y65.544
X2.64 Y66.687
X2.751 Y67.989
X2.83 Y69.294
X2.886 Y70.6
X2.926 Y71.907
X2.954 Y73.214
X2.975 Y74.521
X2.989 Y75.828
X2.999 Y77.136
X3.006 Y78.443
X3.011 Y79.75
X3.014 Y81.057
X3.019 Y83.672
X3.021 Y87.594
X3.022 Y100.667
Y108.51
Y156.88
X3.018 Y158.187
X3 Y158.887
X2.974 Y159.366
X2.943 Y159.726
X2.905 Y160.056
X2.869 Y160.306
X2.822 Y160.576
X2.798 Y160.692
X2.676 Y161.131
X2.495 Y161.55
X2.257 Y161.939
X1.968 Y162.292
X1.634 Y162.602
G3 X0.9 Y162.841 I-0.719 J-0.961
G1 X0.766 Y162.84 Z-2.99
X0.633 Y162.838 Z-2.967
X0.504 Y162.836 Z-2.93
X0.38 Y162.835 Z-2.878
X0.262 Y162.834 Z-2.813
X0.152 Y162.832 Z-2.735
X0.052 Y162.831 Z-2.646
X-0.038 Y162.83 Z-2.545
X-0.116 Y162.829 Z-2.436
X-0.181 Y162.828 Z-2.318
X-0.232 Z-2.193
X-0.27 Y162.827 Z-2.064
X-0.292 Z-1.931
X-0.3 Z-1.797
G0 Z5
X-2.499 Y57.913
Z-0.597
G1 Z-1.797 F1000
X-2.492 Z-1.931
X-2.469 Y57.912 Z-2.064
X-2.432 Y57.911 Z-2.193
X-2.38 Y57.909 Z-2.318
X-2.315 Y57.907 Z-2.436
X-2.238 Y57.905 Z-2.545
X-2.148 Y57.902 Z-2.646
X-2.048 Y57.899 Z-2.735
X-1.938 Y57.896 Z-2.813
X-1.82 Y57.892 Z-2.878
X-1.696 Y57.888 Z-2.93
X-1.567 Y57.884 Z-2.967
X-1.434 Y57.88 Z-2.99
X-1.3 Y57.876 Z-2.997
G3 X-0.533 Y58.047 I0.049 J1.582
G1 X0.109 Y58.403
X0.236 Y58.482
X0.36 Y58.566
X0.479 Y58.658
X0.593 Y58.756
X0.702 Y58.858
X0.808 Y58.965
X0.909 Y59.075
X1.007 Y59.189
X1.109 Y59.315
X1.213 Y59.451
X1.319 Y59.599
X1.434 Y59.769
X1.546 Y59.947
X1.666 Y60.149
X1.788 Y60.369
X1.912 Y60.61
X2.045 Y60.886
X2.171 Y61.172
X2.31 Y61.51
X2.444 Y61.867
X2.583 Y62.275
X2.726 Y62.734
X2.864 Y63.231
X3.015 Y63.839
X3.15 Y64.467
X3.297 Y65.257
X3.437 Y66.151
X3.573 Y67.234
X3.698 Y68.535
X3.789 Y69.84
X3.855 Y71.145
X3.902 Y72.452
X3.936 Y73.759
X3.961 Y75.066
X3.979 Y76.373
X3.991 Y77.68
X4 Y78.987
X4.007 Y80.295
X4.011 Y81.602
X4.017 Y84.216
X4.021 Y88.138
X4.022 Y97.289
Y107.747
Y154.81
X4.021 Y156.117
X4.005 Y157.276
X3.974 Y157.998
X3.938 Y158.503
X3.895 Y158.926
X3.851 Y159.259
X3.81 Y159.514
X3.756 Y159.793
X3.706 Y160.021
X3.659 Y160.208
X3.646 Y160.252
X3.481 Y160.704
X3.252 Y161.127
X2.964 Y161.513
X2.623 Y161.852
X2.237 Y162.138
G3 X1.481 Y162.293 I-0.606 J-1.036
G1 X1.348 Y162.277 Z-2.99
X1.216 Y162.26 Z-2.967
X1.088 Y162.244 Z-2.93
X0.964 Y162.228 Z-2.878
X0.847 Y162.214 Z-2.813
X0.739 Y162.2 Z-2.735
X0.639 Y162.187 Z-2.646
X0.55 Y162.176 Z-2.545
X0.473 Y162.166 Z-2.436
X0.408 Y162.158 Z-2.318
X0.357 Y162.152 Z-2.193
X0.32 Y162.147 Z-2.064
X0.298 Y162.144 Z-1.931
X0.29 Z-1.797
G0 Z5
X-1.857 Y58.268
Z-0.597
G1 Z-1.797 F1000
X-1.85 Z-1.931
X-1.827 Z-2.064
X-1.79 Y58.266 Z-2.193
X-1.738 Y58.265 Z-2.318
X-1.673 Y58.263 Z-2.436
X-1.596 Y58.26 Z-2.545
X-1.506 Y58.258 Z-2.646
X-1.406 Y58.255 Z-2.735
X-1.296 Y58.251 Z-2.813
X-1.178 Y58.248 Z-2.878
X-1.054 Y58.244 Z-2.93
X-0.925 Y58.24 Z-2.967
X-0.792 Y58.236 Z-2.99
X-0.658 Y58.231 Z-2.997
G3 X0.109 Y58.403 I0.049 J1.582
G1 X0.157 Y58.429
X0.516 Y58.569
X0.655 Y58.627
X0.788 Y58.695
X0.917 Y58.772
X1.041 Y58.857
X1.16 Y58.948
X1.275 Y59.044
X1.387 Y59.145
X1.494 Y59.249
X1.598 Y59.357
X1.703 Y59.472
X1.809 Y59.596
X1.923 Y59.739
X2.037 Y59.889
X2.156 Y60.055
X2.282 Y60.243
X2.405 Y60.439
X2.537 Y60.664
X2.67 Y60.906
X2.804 Y61.167
X2.948 Y61.47
X3.086 Y61.784
X3.231 Y62.141
X3.379 Y62.538
X3.525 Y62.968
X3.681 Y63.477
X3.826 Y64.001
X3.98 Y64.635
X4.131 Y65.339
X4.278 Y66.146
X4.427 Y67.117
X4.571 Y68.285
X4.692 Y69.587
X4.781 Y70.891
X4.847 Y72.197
X4.895 Y73.503
X4.93 Y74.81
X4.955 Y76.117
X4.974 Y77.424
X4.988 Y78.731
X4.998 Y80.039
X5.005 Y81.346
X5.01 Y82.653
X5.013 Y83.961
X5.018 Y86.575
X5.021 Y90.497
X5.022 Y100.955
Y107.492
Y153.247
X5.019 Y154.554
X5.005 Y155.861
X4.972 Y156.76
X4.93 Y157.407
X4.88 Y157.932
X4.834 Y158.304
X4.78 Y158.651
X4.725 Y158.952
X4.676 Y159.178
X4.62 Y159.407
X4.556 Y159.64
X4.498 Y159.826
X4.444 Y159.986
X4.433 Y160.014
X4.238 Y160.44
X3.985 Y160.834
X3.679 Y161.188
X3.325 Y161.496
X2.932 Y161.75
X2.313 Y162.09
X2.237 Y162.138
G3 X1.481 Y162.293 I-0.606 J-1.036
G1 X1.348 Y162.277 Z-2.99
X1.216 Y162.26 Z-2.967
X1.088 Y162.244 Z-2.93
X0.964 Y162.228 Z-2.878
X0.847 Y162.214 Z-2.813
X0.739 Y162.2 Z-2.735
X0.639 Y162.187 Z-2.646
X0.55 Y162.176 Z-2.545
X0.473 Y162.166 Z-2.436
X0.408 Y162.158 Z-2.318
X0.357 Y162.152 Z-2.193
X0.32 Y162.147 Z-2.064
X0.298 Y162.144 Z-1.931
X0.29 Z-1.797
G0 Z5
X-1.446 Y58.754
Z-0.597
G1 Z-1.797 F1000
X-1.438 Y58.752 Z-1.931
X-1.416 Y58.748 Z-2.064
X-1.38 Y58.741 Z-2.193
X-1.329 Y58.731 Z-2.318
X-1.265 Y58.718 Z-2.436
X-1.189 Y58.703 Z-2.545
X-1.101 Y58.686 Z-2.646
X-1.002 Y58.667 Z-2.735
X-0.894 Y58.646 Z-2.813
X-0.779 Y58.624 Z-2.878
X-0.657 Y58.6 Z-2.93
X-0.53 Y58.575 Z-2.967
X-0.4 Y58.55 Z-2.99
X-0.268 Y58.524 Z-2.997
G3 X0.516 Y58.569 I0.303 J1.553
G1 X0.876 Y58.698
X0.971 Y58.723
X1.115 Y58.768
X1.255 Y58.821
X1.39 Y58.885
X1.521 Y58.958
X1.648 Y59.039
X1.77 Y59.125
X1.889 Y59.217
X2.004 Y59.313
X2.116 Y59.413
X2.224 Y59.517
X2.333 Y59.627
X2.449 Y59.752
X2.564 Y59.883
X2.685 Y60.03
X2.812 Y60.193
X2.937 Y60.365
X3.071 Y60.56
X3.207 Y60.771
X3.343 Y60.996
X3.49 Y61.255
X3.632 Y61.527
X3.779 Y61.826
X3.935 Y62.168
X4.083 Y62.521
X4.24 Y62.928
X4.398 Y63.379
X4.552 Y63.86
X4.717 Y64.434
X4.872 Y65.036
X5.032 Y65.748
X5.195 Y66.583
X5.343 Y67.481
X5.494 Y68.598
X5.63 Y69.898
X5.732 Y71.201
X5.808 Y72.507
X5.864 Y73.813
X5.906 Y75.119
X5.937 Y76.426
X5.96 Y77.733
X5.977 Y79.04
X5.99 Y80.348
X5.999 Y81.655
X6.005 Y82.962
X6.01 Y84.269
X6.016 Y86.884
X6.02 Y90.806
X6.022 Y98.65
Y107.801
Y150.941
X6.021 Y152.248
X6.016 Y153.556
X5.998 Y154.863
X5.96 Y155.832
X5.912 Y156.541
X5.858 Y157.099
X5.797 Y157.572
X5.735 Y157.973
X5.678 Y158.273
X5.613 Y158.574
X5.547 Y158.839
X5.49 Y159.044
X5.426 Y159.249
X5.352 Y159.464
X5.286 Y159.639
X5.218 Y159.802
X5.019 Y160.181
X4.773 Y160.53
X4.484 Y160.845
X4.156 Y161.12
X3.795 Y161.35
X3.408 Y161.532
G3 X2.636 Y161.541 I-0.399 J-1.132
G1 X2.509 Y161.499 Z-2.99
X2.383 Y161.458 Z-2.967
X2.26 Y161.418 Z-2.93
X2.142 Y161.379 Z-2.878
X2.03 Y161.342 Z-2.813
X1.925 Y161.308 Z-2.735
X1.83 Y161.277 Z-2.646
X1.745 Y161.249 Z-2.545
X1.671 Y161.225 Z-2.436
X1.609 Y161.205 Z-2.318
X1.56 Y161.189 Z-2.193
X1.524 Y161.177 Z-2.064
X1.503 Y161.17 Z-1.931
X1.496 Y161.168 Z-1.797
G0 Z5
X-0.966 Y59.085
Z-0.597
G1 Z-1.797 F1000
X-0.958 Y59.082 Z-1.931
X-0.937 Y59.076 Z-2.064
X-0.901 Y59.066 Z-2.193
X-0.852 Y59.051 Z-2.318
X-0.789 Y59.033 Z-2.436
X-0.714 Y59.011 Z-2.545
X-0.628 Y58.986 Z-2.646
X-0.532 Y58.958 Z-2.735
X-0.427 Y58.927 Z-2.813
X-0.313 Y58.894 Z-2.878
X-0.194 Y58.86 Z-2.93
X-0.07 Y58.823 Z-2.967
X0.057 Y58.786 Z-2.99
X0.186 Y58.749 Z-2.997
G3 X0.971 Y58.723 I0.443 J1.519
G1 X1.192 Y58.78
X1.522 Y58.852
X1.666 Y58.891
X1.809 Y58.939
X1.946 Y58.998
X2.08 Y59.066
X2.211 Y59.14
X2.337 Y59.221
X2.46 Y59.307
X2.58 Y59.397
X2.696 Y59.492
X2.809 Y59.59
X2.924 Y59.697
X3.042 Y59.812
X3.161 Y59.936
X3.288 Y60.076
X3.417 Y60.228
X3.549 Y60.391
X3.688 Y60.574
X3.827 Y60.77
X3.969 Y60.981
X4.12 Y61.221
X4.269 Y61.474
X4.42 Y61.749
X4.581 Y62.064
X4.737 Y62.391
X4.897 Y62.754
X5.065 Y63.17
X5.225 Y63.598
X5.394 Y64.096
X5.566 Y64.657
X5.726 Y65.237
X5.897 Y65.938
X6.062 Y66.713
X6.221 Y67.585
X6.381 Y68.631
X6.536 Y69.892
X6.658 Y71.194
X6.75 Y72.498
X6.819 Y73.803
X6.871 Y75.109
X6.91 Y76.416
X6.939 Y77.723
X6.961 Y79.03
X6.977 Y80.337
X6.989 Y81.645
X6.998 Y82.952
X7.005 Y84.259
X7.01 Y85.566
X7.016 Y88.181
X7.02 Y92.103
X7.022 Y99.947
Y107.79
Y149.623
X7.021 Y150.931
X7.015 Y152.238
X6.999 Y153.545
X6.964 Y154.678
X6.913 Y155.519
X6.854 Y156.177
X6.788 Y156.724
X6.721 Y157.176
X6.648 Y157.584
X6.575 Y157.934
X6.51 Y158.203
X6.434 Y158.484
X6.363 Y158.718
X6.298 Y158.91
X6.221 Y159.119
X6.145 Y159.308
X6.078 Y159.463
X6.004 Y159.619
X5.98 Y159.666
X5.743 Y160.063
X5.452 Y160.423
X5.113 Y160.738
X4.734 Y161.003
X4.322 Y161.212
X3.884 Y161.362
G3 X3.117 Y161.283 I-0.267 J-1.17
G1 X2.995 Y161.227 Z-2.99
X2.874 Y161.172 Z-2.967
X2.757 Y161.118 Z-2.93
X2.644 Y161.066 Z-2.878
X2.537 Y161.017 Z-2.813
X2.437 Y160.971 Z-2.735
X2.346 Y160.929 Z-2.646
X2.264 Y160.892 Z-2.545
X2.193 Y160.859 Z-2.436
X2.134 Y160.832 Z-2.318
X2.087 Y160.811 Z-2.193
X2.053 Y160.795 Z-2.064
X2.033 Y160.786 Z-1.931
X2.026 Y160.783 Z-1.797
G0 Z5
X-0.4 Y59.286
Z-0.597
G1 Z-1.797 F1000
X-0.393 Y59.284 Z-1.931
X-0.372 Y59.276 Z-2.064
X-0.336 Y59.265 Z-2.193
X-0.288 Y59.248 Z-2.318
X-0.226 Y59.228 Z-2.436
X-0.152 Y59.203 Z-2.545
X-0.067 Y59.175 Z-2.646
X0.028 Y59.143 Z-2.735
X0.132 Y59.109 Z-2.813
X0.244 Y59.071 Z-2.878
X0.362 Y59.032 Z-2.93
X0.485 Y58.991 Z-2.967
X0.611 Y58.95 Z-2.99
X0.738 Y58.907 Z-2.997
G3 X1.522 Y58.852 I0.5 J1.502
G1 X1.594 Y58.868
X1.954 Y58.925
X1.987 Y58.927
X2.136 Y58.946
X2.281 Y58.984
X2.423 Y59.032
X2.561 Y59.09
X2.696 Y59.156
X2.828 Y59.228
X2.956 Y59.306
X3.081 Y59.388
X3.203 Y59.476
X3.322 Y59.567
X3.438 Y59.662
X3.556 Y59.764
X3.68 Y59.878
X3.809 Y60.005
X3.938 Y60.138
X4.074 Y60.288
X4.216 Y60.453
X4.356 Y60.626
X4.503 Y60.819
X4.657 Y61.034
X4.808 Y61.258
X4.964 Y61.506
X5.129 Y61.784
X5.288 Y62.073
X5.455 Y62.397
X5.627 Y62.758
X5.793 Y63.131
X5.966 Y63.554
X6.146 Y64.035
X6.314 Y64.529
X6.49 Y65.096
X6.672 Y65.752
X6.838 Y66.426
X7.015 Y67.247
X7.188 Y68.184
X7.348 Y69.216
X7.509 Y70.502
X7.634 Y71.803
X7.729 Y73.107
X7.801 Y74.412
X7.856 Y75.718
X7.898 Y77.025
X7.929 Y78.332
X7.953 Y79.639
X7.971 Y80.946
X7.984 Y82.253
X7.994 Y83.56
X8.002 Y84.868
X8.007 Y86.175
X8.011 Y87.482
X8.016 Y90.097
X8.02 Y94.019
X8.022 Y101.862
Y107.092
Y147.617
Y148.925
X8.019 Y150.232
X8.011 Y151.539
X7.991 Y152.846
X7.946 Y154.027
X7.888 Y154.9
X7.821 Y155.59
X7.748 Y156.168
X7.672 Y156.658
X7.594 Y157.08
X7.512 Y157.459
X7.429 Y157.796
X7.352 Y158.071
X7.274 Y158.321
X7.186 Y158.579
X7.111 Y158.778
X7.039 Y158.954
X6.951 Y159.153
X6.868 Y159.326
X6.794 Y159.47
X6.717 Y159.609
X6.685 Y159.663
X6.424 Y160.041
X6.113 Y160.38
X5.757 Y160.671
X5.365 Y160.911
X4.943 Y161.094
X4.499 Y161.216
G3 X3.738 Y161.091 I-0.197 J-1.184
G1 X3.62 Y161.028 Z-2.99
X3.503 Y160.965 Z-2.967
X3.388 Y160.904 Z-2.93
X3.279 Y160.846 Z-2.878
X3.175 Y160.791 Z-2.813
X3.078 Y160.739 Z-2.735
X2.99 Y160.692 Z-2.646
X2.91 Y160.649 Z-2.545
X2.842 Y160.613 Z-2.436
X2.784 Y160.582 Z-2.318
X2.739 Y160.558 Z-2.193
X2.706 Y160.54 Z-2.064
X2.686 Y160.53 Z-1.931
X2.679 Y160.526 Z-1.797
G0 Z5
X0.142 Y59.62
Z-0.597
G1 Z-1.797 F1000
X0.149 Y59.617 Z-1.931
X0.169 Y59.607 Z-2.064
X0.203 Y59.59 Z-2.193
X0.249 Y59.568 Z-2.318
X0.307 Y59.539 Z-2.436
X0.377 Y59.504 Z-2.545
X0.457 Y59.465 Z-2.646
X0.547 Y59.42 Z-2.735
X0.646 Y59.372 Z-2.813
X0.751 Y59.32 Z-2.878
X0.863 Y59.265 Z-2.93
X0.979 Y59.207 Z-2.967
X1.098 Y59.149 Z-2.99
X1.218 Y59.089 Z-2.997
G3 X1.987 Y58.927 I0.7 J1.419
G1 X2.313 Y58.953
X2.464 Y58.962
X2.613 Y58.978
X2.76 Y59.005
X2.905 Y59.044
X3.047 Y59.093
X3.186 Y59.149
X3.322 Y59.213
X3.455 Y59.283
X3.584 Y59.358
X3.711 Y59.438
X3.835 Y59.522
X3.956 Y59.611
X4.079 Y59.706
X4.202 Y59.808
X4.332 Y59.921
X4.469 Y60.048
X4.605 Y60.182
X4.746 Y60.329
X4.895 Y60.494
X5.043 Y60.668
X5.196 Y60.858
X5.356 Y61.069
X5.517 Y61.296
X5.678 Y61.537
X5.848 Y61.809
X6.021 Y62.103
X6.189 Y62.411
X6.366 Y62.758
X6.549 Y63.142
X6.724 Y63.543
X6.906 Y63.992
X7.094 Y64.501
X7.271 Y65.024
X7.458 Y65.634
X7.648 Y66.329
X7.82 Y67.04
X8.003 Y67.901
X8.181 Y68.883
X8.35 Y70
X8.508 Y71.298
X8.629 Y72.6
X8.723 Y73.903
X8.795 Y75.209
X8.85 Y76.515
X8.892 Y77.822
X8.924 Y79.128
X8.948 Y80.435
X8.967 Y81.743
X8.981 Y83.05
X8.992 Y84.357
X9 Y85.664
X9.006 Y86.972
X9.01 Y88.279
X9.016 Y90.893
X9.02 Y94.815
X9.022 Y102.659
Y107.888
Y147.107
X9.02 Y148.414
X9.016 Y149.721
X9.004 Y151.029
X8.976 Y152.336
X8.924 Y153.496
X8.858 Y154.383
X8.784 Y155.091
X8.703 Y155.704
X8.62 Y156.212
X8.531 Y156.67
X8.443 Y157.062
X8.351 Y157.424
X8.259 Y157.745
X8.166 Y158.036
X8.085 Y158.268
X7.991 Y158.514
X7.898 Y158.735
X7.819 Y158.911
X7.736 Y159.08
X7.638 Y159.266
X7.551 Y159.421
X7.472 Y159.552
X7.385 Y159.688
X7.364 Y159.718
X7.061 Y160.098
X6.705 Y160.429
X6.304 Y160.704
X5.867 Y160.917
X5.403 Y161.064
X4.923 Y161.141
G0 Z5
X0.632 Y59.688
Z-0.597
G1 Z-1.797 F1000
X0.639 Y59.684 Z-1.931
X0.659 Y59.674 Z-2.064
X0.692 Y59.657 Z-2.193
X0.738 Y59.633 Z-2.318
X0.795 Y59.604 Z-2.436
X0.865 Y59.568 Z-2.545
X0.944 Y59.527 Z-2.646
X1.033 Y59.481 Z-2.735
X1.131 Y59.43 Z-2.813
X1.236 Y59.376 Z-2.878
X1.346 Y59.319 Z-2.93
X1.461 Y59.26 Z-2.967
X1.579 Y59.199 Z-2.99
X1.698 Y59.137 Z-2.997
G3 X2.464 Y58.962 I0.726 J1.406
G1 X2.673 Y58.974
X2.87 Y58.963
X3.02 Y58.962
X3.17 Y58.974
X3.318 Y59
X3.463 Y59.037
X3.606 Y59.083
X3.746 Y59.136
X3.884 Y59.196
X4.018 Y59.262
X4.151 Y59.333
X4.28 Y59.409
X4.407 Y59.489
X4.531 Y59.573
X4.656 Y59.663
X4.788 Y59.764
X4.924 Y59.875
X5.061 Y59.992
X5.204 Y60.124
X5.355 Y60.27
X5.505 Y60.424
X5.658 Y60.592
X5.82 Y60.78
X5.984 Y60.981
X6.148 Y61.195
X6.32 Y61.433
X6.497 Y61.694
X6.669 Y61.965
X6.85 Y62.269
X7.036 Y62.604
X7.218 Y62.954
X7.403 Y63.338
X7.598 Y63.774
X7.788 Y64.236
X7.974 Y64.729
X8.17 Y65.295
X8.365 Y65.919
X8.55 Y66.58
X8.743 Y67.354
X8.936 Y68.237
X9.111 Y69.164
X9.287 Y70.278
X9.454 Y71.575
X9.583 Y72.875
X9.684 Y74.179
X9.763 Y75.484
X9.824 Y76.79
X9.871 Y78.096
X9.907 Y79.403
X9.935 Y80.71
X9.956 Y82.017
X9.973 Y83.324
X9.985 Y84.631
X9.994 Y85.939
X10.002 Y87.246
X10.007 Y88.553
X10.011 Y89.86
X10.016 Y92.475
X10.02 Y96.397
X10.022 Y104.241
Y106.855
Y144.766
Y146.074
X10.02 Y147.381
X10.015 Y148.688
X10.002 Y149.995
X9.976 Y151.302
X9.927 Y152.555
X9.858 Y153.557
X9.781 Y154.345
X9.695 Y155.024
X9.604 Y155.599
X9.509 Y156.109
X9.412 Y156.552
X9.312 Y156.955
X9.213 Y157.307
X9.111 Y157.637
X9.009 Y157.933
X8.907 Y158.203
X8.818 Y158.419
X8.722 Y158.634
X8.616 Y158.855
X8.525 Y159.03
X8.443 Y159.179
X8.345 Y159.344
X8.241 Y159.507
X8.151 Y159.641
X8.063 Y159.763
X7.966 Y159.889
X7.858 Y160.022
X7.76 Y160.135
X7.734 Y160.163
X7.438 Y160.443
X7.104 Y160.678
X6.741 Y160.863
X6.356 Y160.994
X5.955 Y161.07
X5.548 Y161.088
X4.923 Y161.141
G0 Z5
X1.137 Y59.899
Z-0.597
G1 Z-1.797 F1000
X1.143 Y59.895 Z-1.931
X1.162 Y59.882 Z-2.064
X1.193 Y59.862 Z-2.193
X1.235 Y59.833 Z-2.318
X1.289 Y59.796 Z-2.436
X1.354 Y59.753 Z-2.545
X1.428 Y59.702 Z-2.646
X1.511 Y59.646 Z-2.735
X1.602 Y59.585 Z-2.813
X1.7 Y59.519 Z-2.878
X1.803 Y59.449 Z-2.93
X1.91 Y59.377 Z-2.967
X2.02 Y59.303 Z-2.99
X2.131 Y59.227 Z-2.997
G3 X2.87 Y58.963 I0.886 J1.311
G1 X3.392 Y58.933
X3.541 Y58.924
X3.691 Y58.934
X3.839 Y58.956
X3.986 Y58.989
X4.13 Y59.029
X4.272 Y59.078
X4.412 Y59.132
X4.549 Y59.193
X4.684 Y59.259
X4.816 Y59.33
X4.946 Y59.405
X5.073 Y59.484
X5.204 Y59.57
X5.34 Y59.666
X5.479 Y59.77
X5.62 Y59.883
X5.77 Y60.009
X5.924 Y60.148
X6.077 Y60.294
X6.237 Y60.455
X6.405 Y60.634
X6.573 Y60.825
X6.742 Y61.029
X6.919 Y61.255
X7.102 Y61.503
X7.281 Y61.761
X7.467 Y62.047
X7.659 Y62.363
X7.849 Y62.696
X8.04 Y63.055
X8.239 Y63.458
X8.441 Y63.897
X8.633 Y64.351
X8.834 Y64.867
X9.043 Y65.453
X9.238 Y66.055
X9.434 Y66.729
X9.637 Y67.508
X9.831 Y68.351
X10.017 Y69.287
X10.201 Y70.383
X10.381 Y71.675
X10.522 Y72.975
X10.634 Y74.277
X10.721 Y75.581
X10.79 Y76.887
X10.843 Y78.193
X10.885 Y79.5
X10.917 Y80.807
X10.942 Y82.114
X10.961 Y83.421
X10.976 Y84.728
X10.987 Y86.035
X10.996 Y87.342
X11.003 Y88.65
X11.008 Y89.957
X11.014 Y92.572
X11.019 Y96.493
X11.022 Y103.03
Y106.952
Y143.556
X11.021 Y144.863
X11.02 Y146.17
X11.015 Y147.478
X11.004 Y148.785
X10.981 Y150.092
X10.939 Y151.399
X10.877 Y152.507
X10.797 Y153.448
X10.711 Y154.202
X10.613 Y154.874
X10.514 Y155.443
X10.409 Y155.96
X10.302 Y156.411
X10.194 Y156.816
X10.084 Y157.188
X9.975 Y157.516
X9.864 Y157.823
X9.752 Y158.105
X9.642 Y158.362
X9.529 Y158.603
X9.415 Y158.831
X9.307 Y159.031
X9.209 Y159.2
X9.095 Y159.386
X8.989 Y159.547
X8.896 Y159.679
X8.802 Y159.806
X8.763 Y159.855
X8.462 Y160.186
X8.12 Y160.473
X7.742 Y160.711
X7.335 Y160.896
X6.907 Y161.025
X6.465 Y161.094
X6.018 Y161.103
G3 X5.311 Y160.795 I0.099 J-1.196
G1 X5.211 Y160.705 Z-2.99
X5.113 Y160.616 Z-2.967
X5.017 Y160.529 Z-2.93
X4.925 Y160.445 Z-2.878
X4.838 Y160.366 Z-2.813
X4.757 Y160.293 Z-2.735
X4.682 Y160.225 Z-2.646
X4.616 Y160.165 Z-2.545
X4.558 Y160.112 Z-2.436
X4.51 Y160.069 Z-2.318
X4.472 Y160.034 Z-2.193
X4.444 Y160.009 Z-2.064
X4.428 Y159.994 Z-1.931
X4.422 Y159.989 Z-1.797
G0 Z5
X1.777 Y60.062
Z-0.597
G1 Z-1.797 F1000
X1.782 Y60.057 Z-1.931
X1.799 Y60.042 Z-2.064
X1.828 Y60.018 Z-2.193
X1.867 Y59.984 Z-2.318
X1.916 Y59.942 Z-2.436
X1.975 Y59.891 Z-2.545
X2.043 Y59.833 Z-2.646
X2.119 Y59.767 Z-2.735
X2.203 Y59.696 Z-2.813
X2.292 Y59.619 Z-2.878
X2.387 Y59.538 Z-2.93
X2.485 Y59.454 Z-2.967
X2.585 Y59.368 Z-2.99
X2.687 Y59.28 Z-2.997
G3 X3.392 Y58.933 I1.031 J1.201
G1 X3.751 Y58.87
X3.899 Y58.848
X4.049 Y58.843
X4.199 Y58.851
X4.348 Y58.87
X4.495 Y58.899
X4.641 Y58.936
X4.784 Y58.979
X4.925 Y59.029
X5.065 Y59.085
X5.202 Y59.146
X5.337 Y59.212
X5.469 Y59.282
X5.6 Y59.356
X5.734 Y59.438
X5.875 Y59.53
X6.019 Y59.629
X6.165 Y59.737
X6.318 Y59.857
X6.478 Y59.989
X6.637 Y60.129
X6.801 Y60.283
X6.973 Y60.454
X7.149 Y60.638
X7.323 Y60.832
X7.504 Y61.046
X7.693 Y61.283
X7.88 Y61.533
X8.07 Y61.802
X8.267 Y62.098
X8.468 Y62.423
X8.664 Y62.76
X8.868 Y63.135
X9.077 Y63.547
X9.284 Y63.99
X9.487 Y64.455
X9.698 Y64.983
X9.913 Y65.572
X10.116 Y66.179
X10.32 Y66.856
X10.531 Y67.636
X10.735 Y68.49
X10.927 Y69.415
X11.119 Y70.496
X11.306 Y71.758
X11.459 Y73.056
X11.58 Y74.358
X11.677 Y75.661
X11.753 Y76.967
X11.813 Y78.272
X11.86 Y79.579
X11.897 Y80.886
X11.926 Y82.193
X11.949 Y83.5
X11.966 Y84.807
X11.979 Y86.114
X11.99 Y87.421
X11.998 Y88.729
X12.004 Y90.036
X12.008 Y91.343
X12.014 Y93.958
X12.019 Y97.88
X12.022 Y104.416
Y105.723
Y142.327
X12.021 Y143.635
X12.02 Y144.942
X12.015 Y146.249
X12.005 Y147.556
X11.986 Y148.863
X11.952 Y150.17
X11.893 Y151.476
X11.816 Y152.524
X11.725 Y153.406
X11.627 Y154.144
X11.52 Y154.803
X11.411 Y155.367
X11.296 Y155.884
X11.179 Y156.343
X11.06 Y156.759
X10.937 Y157.147
X10.816 Y157.493
X10.693 Y157.814
X10.568 Y158.112
X10.447 Y158.38
X10.337 Y158.607
X10.227 Y158.816
X10.105 Y159.033
X10.002 Y159.205
X9.906 Y159.355
X9.791 Y159.523
X9.682 Y159.672
X9.587 Y159.796
X9.489 Y159.914
X9.373 Y160.047
X9.267 Y160.163
X9.253 Y160.176
X8.875 Y160.508
X8.45 Y160.778
X7.989 Y160.98
X7.503 Y161.11
X7.003 Y161.165
X6.5 Y161.143
G3 X5.817 Y160.785 I0.186 J-1.186
G1 X5.724 Y160.688 Z-2.99
X5.633 Y160.592 Z-2.967
X5.543 Y160.498 Z-2.93
X5.458 Y160.408 Z-2.878
X5.376 Y160.323 Z-2.813
X5.301 Y160.243 Z-2.735
X5.232 Y160.171 Z-2.646
X5.17 Y160.106 Z-2.545
X5.116 Y160.049 Z-2.436
X5.071 Y160.002 Z-2.318
X5.036 Y159.965 Z-2.193
X5.01 Y159.938 Z-2.064
X4.994 Y159.922 Z-1.931
X4.989 Y159.916 Z-1.797
G0 Z5
X2.161 Y60.034
Z-0.597
G1 Z-1.797 F1000
X2.167 Y60.029 Z-1.931
X2.184 Y60.014 Z-2.064
X2.212 Y59.989 Z-2.193
X2.25 Y59.955 Z-2.318
X2.298 Y59.911 Z-2.436
X2.356 Y59.859 Z-2.545
X2.423 Y59.8 Z-2.646
X2.498 Y59.733 Z-2.735
X2.579 Y59.659 Z-2.813
X2.667 Y59.581 Z-2.878
X2.76 Y59.498 Z-2.93
X2.856 Y59.411 Z-2.967
X2.955 Y59.323 Z-2.99
X3.055 Y59.233 Z-2.997
G3 X3.751 Y58.87 I1.057 J1.178
G1 X4.207 Y58.78
X4.251 Y58.766
X4.396 Y58.73
X4.546 Y58.725
X4.696 Y58.731
X4.845 Y58.748
X4.993 Y58.773
X5.139 Y58.806
X5.284 Y58.845
X5.427 Y58.891
X5.568 Y58.942
X5.707 Y58.998
X5.844 Y59.06
X5.979 Y59.125
X6.112 Y59.194
X6.251 Y59.272
X6.397 Y59.36
X6.546 Y59.455
X6.696 Y59.558
X6.855 Y59.673
X7.02 Y59.8
X7.185 Y59.935
X7.354 Y60.082
X7.53 Y60.244
X7.713 Y60.423
X7.894 Y60.611
X8.08 Y60.815
X8.273 Y61.04
X8.471 Y61.285
X8.666 Y61.54
X8.867 Y61.822
X9.075 Y62.13
X9.284 Y62.461
X9.489 Y62.809
X9.703 Y63.196
X9.922 Y63.622
X10.136 Y64.07
X10.348 Y64.548
X10.568 Y65.087
X10.793 Y65.688
X11.004 Y66.305
X11.216 Y66.992
X11.434 Y67.776
X11.649 Y68.648
X11.846 Y69.566
X12.045 Y70.643
X12.239 Y71.893
X12.401 Y73.19
X12.531 Y74.491
X12.635 Y75.794
X12.718 Y77.099
X12.784 Y78.404
X12.836 Y79.71
X12.878 Y81.017
X12.91 Y82.324
X12.936 Y83.631
X12.956 Y84.938
X12.971 Y86.245
X12.983 Y87.552
X12.992 Y88.86
X13 Y90.167
X13.005 Y91.474
X13.012 Y94.089
X13.017 Y96.703
X13.02 Y100.625
X13.022 Y105.854
Y139.844
X13.021 Y142.458
X13.019 Y143.766
X13.015 Y145.073
X13.007 Y146.38
X12.99 Y147.687
X12.961 Y148.994
X12.912 Y150.301
X12.84 Y151.512
X12.75 Y152.513
X12.649 Y153.364
X12.541 Y154.089
X12.423 Y154.748
X12.303 Y155.319
X12.178 Y155.84
X12.048 Y156.319
X11.921 Y156.741
X11.791 Y157.129
X11.66 Y157.484
X11.533 Y157.802
X11.403 Y158.1
X11.275 Y158.371
X11.149 Y158.62
X11.02 Y158.856
X10.898 Y159.065
X10.793 Y159.234
X10.671 Y159.418
X10.544 Y159.597
X10.435 Y159.742
X10.338 Y159.863
X10.225 Y159.997
X10.101 Y160.135
X9.991 Y160.25
X9.885 Y160.355
X9.77 Y160.461
X9.371 Y160.759
X8.933 Y160.994
X8.465 Y161.161
X7.977 Y161.256
X7.48 Y161.277
X6.986 Y161.224
X6.626 Y161.158
X6.5 Y161.143
G3 X5.817 Y160.785 I0.186 J-1.186
G1 X5.724 Y160.688 Z-2.99
X5.633 Y160.592 Z-2.967
X5.543 Y160.498 Z-2.93
X5.458 Y160.408 Z-2.878
X5.376 Y160.323 Z-2.813
X5.301 Y160.243 Z-2.735
X5.232 Y160.171 Z-2.646
X5.17 Y160.106 Z-2.545
X5.116 Y160.049 Z-2.436
X5.071 Y160.002 Z-2.318
X5.036 Y159.965 Z-2.193
X5.01 Y159.938 Z-2.064
X4.994 Y159.922 Z-1.931
X4.989 Y159.916 Z-1.797
G0 Z5
X2.789 Y60.087
Z-0.597
G1 Z-1.797 F1000
X2.794 Y60.082 Z-1.931
X2.809 Y60.065 Z-2.064
X2.834 Y60.038 Z-2.193
X2.869 Y59.999 Z-2.318
X2.912 Y59.951 Z-2.436
X2.965 Y59.894 Z-2.545
X3.025 Y59.827 Z-2.646
X3.092 Y59.753 Z-2.735
X3.166 Y59.672 Z-2.813
X3.245 Y59.584 Z-2.878
X3.329 Y59.492 Z-2.93
X3.416 Y59.397 Z-2.967
X3.505 Y59.298 Z-2.99
X3.595 Y59.199 Z-2.997
G3 X4.251 Y58.766 I1.172 J1.064
G1 X4.47 Y58.699
X4.557 Y58.669
X4.701 Y58.627
X4.849 Y58.601
X4.998 Y58.589
X5.148 Y58.59
X5.298 Y58.6
X5.447 Y58.619
X5.594 Y58.645
X5.741 Y58.679
X5.885 Y58.718
X6.028 Y58.763
X6.17 Y58.814
X6.309 Y58.869
X6.447 Y58.928
X6.583 Y58.992
X6.727 Y59.065
X6.875 Y59.145
X7.024 Y59.232
X7.18 Y59.329
X7.343 Y59.437
X7.51 Y59.555
X7.678 Y59.681
X7.852 Y59.82
X8.034 Y59.974
X8.219 Y60.139
X8.404 Y60.315
X8.596 Y60.51
X8.796 Y60.723
X8.996 Y60.95
X9.196 Y61.191
X9.404 Y61.457
X9.619 Y61.749
X9.832 Y62.057
X10.044 Y62.383
X10.264 Y62.744
X10.491 Y63.143
X10.713 Y63.56
X10.933 Y64.006
X11.16 Y64.499
X11.392 Y65.048
X11.615 Y65.619
X11.839 Y66.247
X12.064 Y66.945
X12.294 Y67.732
X12.504 Y68.54
X12.717 Y69.469
X12.928 Y70.528
X13.13 Y71.727
X13.309 Y73.022
X13.454 Y74.321
X13.57 Y75.623
X13.664 Y76.927
X13.74 Y78.232
X13.8 Y79.538
X13.848 Y80.845
X13.886 Y82.151
X13.916 Y83.458
X13.94 Y84.765
X13.958 Y86.072
X13.973 Y87.38
X13.984 Y88.687
X13.993 Y89.994
X14 Y91.301
X14.005 Y92.609
X14.013 Y95.223
X14.017 Y97.838
X14.02 Y101.76
X14.021 Y105.681
X14.022 Y129.213
Y139.671
X14.02 Y142.285
X14.017 Y143.593
X14.01 Y144.9
X13.998 Y146.207
X13.977 Y147.514
X13.94 Y148.821
X13.882 Y150.127
X13.798 Y151.348
X13.702 Y152.321
X13.59 Y153.191
X13.473 Y153.933
X13.348 Y154.594
X13.216 Y155.198
X13.085 Y155.726
X12.948 Y156.211
X12.809 Y156.657
X12.671 Y157.057
X12.531 Y157.427
X12.392 Y157.764
X12.254 Y158.073
X12.116 Y158.361
X11.979 Y158.624
X11.843 Y158.868
X11.707 Y159.096
X11.572 Y159.309
X11.444 Y159.498
X11.334 Y159.651
X11.209 Y159.814
X11.075 Y159.979
X10.96 Y160.112
X10.858 Y160.223
X10.742 Y160.343
X10.611 Y160.47
X10.496 Y160.575
X10.382 Y160.673
X10.348 Y160.701
X9.976 Y160.961
X9.571 Y161.168
X9.142 Y161.317
X8.696 Y161.406
X8.242 Y161.432
X7.789 Y161.396
X7.345 Y161.297
G3 X6.731 Y160.831 I0.38 J-1.138
G1 X6.656 Y160.72 Z-2.99
X6.581 Y160.61 Z-2.967
X6.509 Y160.503 Z-2.93
X6.439 Y160.4 Z-2.878
X6.373 Y160.302 Z-2.813
X6.312 Y160.211 Z-2.735
X6.256 Y160.128 Z-2.646
X6.205 Y160.054 Z-2.545
X6.162 Y159.989 Z-2.436
X6.125 Y159.935 Z-2.318
X6.097 Y159.892 Z-2.193
X6.076 Y159.862 Z-2.064
X6.063 Y159.843 Z-1.931
X6.059 Y159.837 Z-1.797
G0 Z5
X3.144 Y60.042
Z-0.597
G1 Z-1.797 F1000
X3.149 Y60.036 Z-1.931
X3.163 Y60.019 Z-2.064
X3.187 Y59.991 Z-2.193
X3.22 Y59.951 Z-2.318
X3.262 Y59.901 Z-2.436
X3.313 Y59.842 Z-2.545
X3.37 Y59.773 Z-2.646
X3.435 Y59.697 Z-2.735
X3.506 Y59.613 Z-2.813
X3.582 Y59.523 Z-2.878
X3.662 Y59.428 Z-2.93
X3.745 Y59.329 Z-2.967
X3.831 Y59.228 Z-2.99
X3.917 Y59.125 Z-2.997
G3 X4.557 Y58.669 I1.21 J1.02
G1 X4.829 Y58.575
X4.938 Y58.532
X5.08 Y58.484
X5.226 Y58.448
X5.374 Y58.427
X5.524 Y58.418
X5.674 Y58.419
X5.824 Y58.429
X5.973 Y58.447
X6.121 Y58.471
X6.267 Y58.502
X6.413 Y58.539
X6.557 Y58.582
X6.699 Y58.629
X6.84 Y58.681
X6.979 Y58.738
X7.123 Y58.801
X7.268 Y58.87
X7.421 Y58.948
X7.58 Y59.035
X7.743 Y59.131
X7.909 Y59.235
X8.081 Y59.35
X8.26 Y59.478
X8.442 Y59.616
X8.625 Y59.763
X8.816 Y59.926
X9.014 Y60.106
X9.215 Y60.299
X9.415 Y60.502
X9.621 Y60.725
X9.836 Y60.971
X10.054 Y61.235
X10.268 Y61.512
X10.488 Y61.814
X10.715 Y62.145
X10.946 Y62.505
X11.171 Y62.878
X11.401 Y63.286
X11.637 Y63.734
X11.877 Y64.225
X12.106 Y64.73
X12.341 Y65.293
X12.578 Y65.91
X12.818 Y66.594
X13.042 Y67.296
X13.269 Y68.088
X13.5 Y68.991
X13.726 Y70
X13.933 Y71.067
X14.138 Y72.32
X14.311 Y73.616
X14.452 Y74.915
X14.567 Y76.218
X14.659 Y77.522
X14.734 Y78.827
X14.794 Y80.133
X14.842 Y81.439
X14.881 Y82.746
X14.911 Y84.053
X14.936 Y85.36
X14.955 Y86.667
X14.97 Y87.974
X14.982 Y89.281
X14.991 Y90.589
X14.998 Y91.896
X15.004 Y93.203
X15.012 Y95.818
X15.016 Y98.432
X15.02 Y102.354
X15.021 Y104.969
X15.022 Y118.042
Y138.958
X15.019 Y141.573
X15.016 Y142.88
X15.009 Y144.187
X14.996 Y145.494
X14.975 Y146.802
X14.939 Y148.108
X14.883 Y149.414
X14.802 Y150.661
X14.699 Y151.755
X14.585 Y152.672
X14.463 Y153.469
X14.329 Y154.196
X14.194 Y154.826
X14.053 Y155.4
X13.907 Y155.93
X13.762 Y156.402
X13.614 Y156.836
X13.463 Y157.24
X13.313 Y157.609
X13.164 Y157.947
X13.015 Y158.259
X12.867 Y158.547
X12.721 Y158.812
X12.576 Y159.058
X12.431 Y159.288
X12.288 Y159.502
X12.146 Y159.701
X12.018 Y159.868
X11.894 Y160.023
X11.75 Y160.191
X11.624 Y160.329
X11.514 Y160.443
X11.391 Y160.564
X11.257 Y160.688
X11.14 Y160.79
X11.024 Y160.885
X10.902 Y160.979
X10.857 Y161.011
X10.466 Y161.254
X10.044 Y161.44
X9.601 Y161.566
X9.144 Y161.629
X8.683 Y161.627
X8.227 Y161.562
X7.784 Y161.433
G3 X7.202 Y160.927 I0.454 J-1.111
G1 X7.134 Y160.811 Z-2.99
X7.067 Y160.697 Z-2.967
X7.002 Y160.585 Z-2.93
X6.939 Y160.478 Z-2.878
X6.88 Y160.376 Z-2.813
X6.825 Y160.281 Z-2.735
X6.774 Y160.194 Z-2.646
X6.729 Y160.117 Z-2.545
X6.689 Y160.05 Z-2.436
X6.657 Y159.994 Z-2.318
X6.631 Y159.949 Z-2.193
X6.612 Y159.917 Z-2.064
X6.6 Y159.897 Z-1.931
X6.597 Y159.891 Z-1.797
G0 Z5
X3.585 Y59.964
Z-0.597
G1 Z-1.797 F1000
X3.59 Y59.958 Z-1.931
X3.603 Y59.94 Z-2.064
X3.626 Y59.911 Z-2.193
X3.658 Y59.87 Z-2.318
X3.697 Y59.819 Z-2.436
X3.745 Y59.757 Z-2.545
X3.8 Y59.686 Z-2.646
X3.861 Y59.607 Z-2.735
X3.928 Y59.52 Z-2.813
X4 Y59.427 Z-2.878
X4.076 Y59.328 Z-2.93
X4.155 Y59.226 Z-2.967
X4.236 Y59.121 Z-2.99
X4.319 Y59.015 Z-2.997
G3 X4.938 Y58.532 I1.252 J0.967
G1 X5.189 Y58.433
X5.294 Y58.377
X5.43 Y58.314
X5.573 Y58.27
X5.72 Y58.24
X5.869 Y58.221
X6.019 Y58.213
X6.169 Y58.214
X6.318 Y58.223
X6.468 Y58.239
X6.616 Y58.261
X6.763 Y58.29
X6.909 Y58.324
X7.054 Y58.363
X7.198 Y58.407
X7.339 Y58.455
X7.484 Y58.509
X7.631 Y58.569
X7.783 Y58.637
X7.943 Y58.714
X8.109 Y58.799
X8.276 Y58.892
X8.448 Y58.994
X8.627 Y59.107
X8.814 Y59.233
X9 Y59.366
X9.192 Y59.513
X9.39 Y59.673
X9.595 Y59.85
X9.8 Y60.037
X10.008 Y60.238
X10.225 Y60.459
X10.447 Y60.701
X10.67 Y60.958
X10.891 Y61.229
X11.121 Y61.527
X11.358 Y61.854
X11.596 Y62.204
X11.828 Y62.568
X12.066 Y62.966
X12.311 Y63.404
X12.561 Y63.882
X12.8 Y64.376
X13.041 Y64.912
X13.287 Y65.505
X13.538 Y66.164
X13.775 Y66.848
X14.013 Y67.604
X14.252 Y68.445
X14.492 Y69.399
X14.713 Y70.4
X14.927 Y71.523
X15.134 Y72.814
X15.304 Y74.11
X15.443 Y75.41
X15.557 Y76.712
X15.649 Y78.016
X15.725 Y79.321
X15.785 Y80.627
X15.834 Y81.934
X15.874 Y83.24
X15.905 Y84.547
X15.93 Y85.854
X15.95 Y87.161
X15.966 Y88.469
X15.979 Y89.776
X15.988 Y91.083
X15.996 Y92.39
X16.002 Y93.698
X16.007 Y95.005
X16.013 Y97.62
X16.018 Y101.541
X16.02 Y104.156
X16.022 Y113.307
Y138.145
X16.021 Y139.453
X16.019 Y140.76
X16.015 Y142.067
X16.008 Y143.374
X15.996 Y144.682
X15.975 Y145.989
X15.941 Y147.296
X15.889 Y148.602
X15.811 Y149.907
X15.712 Y151.049
X15.594 Y152.072
X15.468 Y152.934
X15.333 Y153.701
X15.188 Y154.404
X15.041 Y155.024
X14.89 Y155.587
X14.734 Y156.11
X14.576 Y156.586
X14.419 Y157.017
X14.258 Y157.42
X14.096 Y157.794
X13.937 Y158.135
X13.778 Y158.451
X13.619 Y158.745
X13.462 Y159.017
X13.308 Y159.265
X13.154 Y159.498
X13.001 Y159.717
X12.85 Y159.918
X12.702 Y160.104
X12.567 Y160.265
X12.437 Y160.41
X12.285 Y160.57
X12.152 Y160.703
X12.036 Y160.811
X11.911 Y160.922
X11.77 Y161.04
X11.645 Y161.138
X11.524 Y161.227
X11.401 Y161.312
X11.255 Y161.406
X10.844 Y161.618
X10.407 Y161.769
X9.954 Y161.859
X9.493 Y161.884
X9.032 Y161.845
X8.582 Y161.741
X8.151 Y161.576
G3 X7.612 Y161.024 I0.544 J-1.07
G1 X7.554 Y160.903 Z-2.99
X7.497 Y160.783 Z-2.967
X7.441 Y160.666 Z-2.93
X7.388 Y160.554 Z-2.878
X7.337 Y160.448 Z-2.813
X7.289 Y160.349 Z-2.735
X7.246 Y160.258 Z-2.646
X7.208 Y160.177 Z-2.545
X7.174 Y160.107 Z-2.436
X7.146 Y160.048 Z-2.318
X7.124 Y160.002 Z-2.193
X7.108 Y159.968 Z-2.064
X7.098 Y159.948 Z-1.931
X7.095 Y159.941 Z-1.797
G0 Z5
X4.101 Y59.946
Z-0.597
G1 Z-1.797 F1000
X4.105 Y59.94 Z-1.931
X4.117 Y59.921 Z-2.064
X4.137 Y59.889 Z-2.193
X4.164 Y59.845 Z-2.318
X4.198 Y59.789 Z-2.436
X4.239 Y59.723 Z-2.545
X4.285 Y59.647 Z-2.646
X4.338 Y59.561 Z-2.735
X4.395 Y59.468 Z-2.813
X4.457 Y59.367 Z-2.878
X4.522 Y59.261 Z-2.93
X4.59 Y59.151 Z-2.967
X4.659 Y59.038 Z-2.99
X4.73 Y58.924 Z-2.997
G3 X5.294 Y58.377 I1.349 J0.828
G1 X5.694 Y58.167
X5.83 Y58.104
X5.973 Y58.056
X6.119 Y58.022
X6.267 Y57.999
X6.416 Y57.986
X6.566 Y57.981
X6.716 Y57.985
X6.866 Y57.995
X7.015 Y58.011
X7.163 Y58.034
X7.311 Y58.062
X7.457 Y58.095
X7.602 Y58.133
X7.746 Y58.176
X7.891 Y58.224
X8.044 Y58.279
X8.202 Y58.341
X8.361 Y58.41
X8.528 Y58.487
X8.701 Y58.574
X8.88 Y58.671
X9.061 Y58.775
X9.246 Y58.889
X9.44 Y59.016
X9.64 Y59.156
X9.842 Y59.306
X10.045 Y59.467
X10.257 Y59.644
X10.476 Y59.84
X10.698 Y60.049
X10.919 Y60.27
X11.146 Y60.511
X11.38 Y60.775
X11.619 Y61.061
X11.855 Y61.36
X12.096 Y61.684
X12.342 Y62.036
X12.593 Y62.42
X12.843 Y62.826
X13.088 Y63.254
X13.342 Y63.727
X13.6 Y64.242
X13.859 Y64.801
X14.105 Y65.377
X14.356 Y66.013
X14.613 Y66.725
X14.87 Y67.508
X15.11 Y68.321
X15.345 Y69.21
X15.583 Y70.226
X15.811 Y71.352
X16.03 Y72.62
X16.214 Y73.914
X16.366 Y75.213
X16.491 Y76.514
X16.594 Y77.817
X16.678 Y79.122
X16.746 Y80.427
X16.802 Y81.733
X16.846 Y83.04
X16.883 Y84.347
X16.912 Y85.654
X16.935 Y86.961
X16.954 Y88.268
X16.969 Y89.575
X16.98 Y90.882
X16.99 Y92.189
X16.997 Y93.497
X17.003 Y94.804
X17.011 Y97.419
X17.015 Y100.033
X17.019 Y103.955
X17.022 Y111.799
Y136.637
X17.02 Y139.252
X17.017 Y140.559
X17.012 Y141.866
X17.002 Y143.174
X16.987 Y144.481
X16.962 Y145.788
X16.923 Y147.094
X16.865 Y148.4
X16.78 Y149.705
X16.669 Y150.908
X16.548 Y151.893
X16.414 Y152.78
X16.267 Y153.587
X16.118 Y154.29
X15.963 Y154.93
X15.8 Y155.525
X15.634 Y156.065
X15.469 Y156.553
X15.3 Y157.01
X15.127 Y157.436
X14.958 Y157.821
X14.788 Y158.18
X14.616 Y158.517
X14.445 Y158.829
X14.279 Y159.111
X14.112 Y159.378
X13.945 Y159.627
X13.784 Y159.854
X13.624 Y160.066
X13.464 Y160.265
X13.306 Y160.45
X13.15 Y160.622
X13.006 Y160.773
X12.877 Y160.9
X12.724 Y161.041
X12.579 Y161.168
X12.454 Y161.271
X12.335 Y161.364
X12.191 Y161.469
X12.056 Y161.562
X11.929 Y161.643
X11.801 Y161.72
X11.662 Y161.797
X11.265 Y161.971
X10.849 Y162.092
X10.421 Y162.156
X9.987 Y162.164
X9.557 Y162.115
X9.137 Y162.01
X8.734 Y161.851
X8.217 Y161.607
X8.151 Y161.576
G3 X7.612 Y161.024 I0.544 J-1.07
G1 X7.554 Y160.903 Z-2.99
X7.497 Y160.783 Z-2.967
X7.441 Y160.666 Z-2.93
X7.388 Y160.554 Z-2.878
X7.337 Y160.448 Z-2.813
X7.289 Y160.349 Z-2.735
X7.246 Y160.258 Z-2.646
X7.208 Y160.177 Z-2.545
X7.174 Y160.107 Z-2.436
X7.146 Y160.048 Z-2.318
X7.124 Y160.002 Z-2.193
X7.108 Y159.968 Z-2.064
X7.098 Y159.948 Z-1.931
X7.095 Y159.941 Z-1.797
G0 Z5
X4.502 Y59.736
Z-0.597
G1 Z-1.797 F1000
X4.506 Y59.729 Z-1.931
X4.518 Y59.71 Z-2.064
X4.537 Y59.679 Z-2.193
X4.564 Y59.635 Z-2.318
X4.598 Y59.579 Z-2.436
X4.639 Y59.513 Z-2.545
X4.686 Y59.436 Z-2.646
X4.738 Y59.351 Z-2.735
X4.796 Y59.257 Z-2.813
X4.857 Y59.157 Z-2.878
X4.923 Y59.051 Z-2.93
X4.99 Y58.941 Z-2.967
X5.06 Y58.828 Z-2.99
X5.13 Y58.713 Z-2.997
G3 X5.694 Y58.167 I1.349 J0.828
G1 X5.908 Y58.055
X5.995 Y57.995
X6.122 Y57.917
X6.259 Y57.855
X6.402 Y57.808
X6.548 Y57.773
X6.696 Y57.749
X6.845 Y57.733
X6.995 Y57.725
X7.145
X7.295 Y57.732
X7.444 Y57.744
X7.593 Y57.763
X7.741 Y57.787
X7.888 Y57.816
X8.034 Y57.849
X8.179 Y57.887
X8.327 Y57.931
X8.483 Y57.982
X8.645 Y58.04
X8.813 Y58.106
X8.982 Y58.178
X9.157 Y58.259
X9.341 Y58.35
X9.531 Y58.451
X9.722 Y58.561
X9.918 Y58.681
X10.121 Y58.813
X10.331 Y58.96
X10.545 Y59.118
X10.759 Y59.286
X10.981 Y59.471
X11.209 Y59.673
X11.443 Y59.893
X11.676 Y60.124
X11.913 Y60.374
X12.157 Y60.648
X12.406 Y60.944
X12.658 Y61.261
X12.905 Y61.592
X13.16 Y61.955
X13.422 Y62.352
X13.687 Y62.78
X13.945 Y63.226
X14.202 Y63.703
X14.467 Y64.229
X14.738 Y64.809
X15.006 Y65.43
X15.261 Y66.071
X15.517 Y66.776
X15.777 Y67.562
X16.039 Y68.436
X16.283 Y69.35
X16.521 Y70.354
X16.755 Y71.49
X16.981 Y72.778
X17.169 Y74.072
X17.325 Y75.37
X17.455 Y76.67
X17.562 Y77.973
X17.65 Y79.278
X17.722 Y80.583
X17.781 Y81.889
X17.829 Y83.195
X17.868 Y84.502
X17.899 Y85.809
X17.925 Y87.116
X17.945 Y88.423
X17.961 Y89.73
X17.975 Y91.037
X17.985 Y92.345
X17.993 Y93.652
X18 Y94.959
X18.005 Y96.267
X18.012 Y98.881
X18.016 Y101.496
X18.018 Y102.803
X18.021 Y108.032
X18.022 Y121.105
Y135.485
X18.02 Y138.1
X18.017 Y139.407
X18.013 Y140.714
X18.005 Y142.021
X17.991 Y143.329
X17.97 Y144.636
X17.937 Y145.943
X17.888 Y147.249
X17.817 Y148.554
X17.718 Y149.858
X17.601 Y150.975
X17.47 Y151.959
X17.323 Y152.854
X17.168 Y153.649
X17.01 Y154.353
X16.843 Y155.008
X16.669 Y155.615
X16.496 Y156.156
X16.32 Y156.659
X16.139 Y157.13
X15.956 Y157.566
X15.776 Y157.962
X15.595 Y158.333
X15.412 Y158.681
X15.23 Y159.004
X15.051 Y159.301
X14.872 Y159.579
X14.696 Y159.836
X14.521 Y160.076
X14.35 Y160.296
X14.182 Y160.501
X14.013 Y160.694
X13.847 Y160.873
X13.684 Y161.039
X13.524 Y161.193
X13.383 Y161.321
X13.243 Y161.44
X13.084 Y161.568
X12.946 Y161.673
X12.823 Y161.76
X12.685 Y161.852
X12.539 Y161.944
X12.41 Y162.02
X12.279 Y162.092
X12.24 Y162.111
X11.832 Y162.284
X11.405 Y162.401
X10.966 Y162.459
X10.523 Y162.458
X10.084 Y162.398
X9.657 Y162.279
X9.25 Y162.105
X9.055 Y162.005
X8.734 Y161.851
G3 X8.198 Y161.295 I0.551 J-1.066
G1 X8.141 Y161.174 Z-2.99
X8.085 Y161.054 Z-2.967
X8.03 Y160.937 Z-2.93
X7.977 Y160.824 Z-2.878
X7.927 Y160.717 Z-2.813
X7.88 Y160.618 Z-2.735
X7.838 Y160.527 Z-2.646
X7.8 Y160.446 Z-2.545
X7.766 Y160.376 Z-2.436
X7.739 Y160.317 Z-2.318
X7.717 Y160.27 Z-2.193
X7.701 Y160.236 Z-2.064
X7.691 Y160.216 Z-1.931
X7.688 Y160.209 Z-1.797
G0 Z5
X4.995 Y59.693
Z-0.597
G1 Z-1.797 F1000
X4.998 Y59.686 Z-1.931
X5.008 Y59.666 Z-2.064
X5.023 Y59.632 Z-2.193
X5.045 Y59.585 Z-2.318
X5.072 Y59.526 Z-2.436
X5.105 Y59.456 Z-2.545
X5.143 Y59.374 Z-2.646
X5.185 Y59.283 Z-2.735
X5.231 Y59.184 Z-2.813
X5.28 Y59.077 Z-2.878
X5.332 Y58.964 Z-2.93
X5.387 Y58.846 Z-2.967
X5.442 Y58.726 Z-2.99
X5.499 Y58.604 Z-2.997
G3 X5.995 Y57.995 I1.437 J0.664
G1 X6.267 Y57.808
X6.345 Y57.753
X6.472 Y57.673
X6.607 Y57.608
X6.748 Y57.556
X6.892 Y57.515
X7.039 Y57.485
X7.188 Y57.463
X7.337 Y57.449
X7.487 Y57.442
X7.637
X7.787 Y57.448
X7.936 Y57.46
X8.085 Y57.477
X8.234 Y57.5
X8.381 Y57.527
X8.528 Y57.558
X8.68 Y57.596
X8.839 Y57.64
X9.001 Y57.691
X9.168 Y57.748
X9.342 Y57.813
X9.524 Y57.887
X9.709 Y57.97
X9.896 Y58.059
X10.091 Y58.16
X10.294 Y58.272
X10.503 Y58.396
X10.712 Y58.528
X10.926 Y58.673
X11.148 Y58.832
X11.378 Y59.007
X11.611 Y59.196
X11.843 Y59.396
X12.082 Y59.613
X12.328 Y59.851
X12.581 Y60.11
X12.832 Y60.383
X13.085 Y60.675
X13.344 Y60.992
X13.609 Y61.336
X13.878 Y61.708
X14.142 Y62.095
X14.409 Y62.514
X14.683 Y62.972
X14.96 Y63.467
X15.237 Y63.999
X15.503 Y64.548
X15.774 Y65.149
X16.05 Y65.816
X16.326 Y66.542
X16.596 Y67.317
X16.849 Y68.123
X17.106 Y69.03
X17.364 Y70.052
X17.61 Y71.166
X17.844 Y72.397
X18.051 Y73.688
X18.224 Y74.984
X18.368 Y76.283
X18.488 Y77.585
X18.587 Y78.889
X18.669 Y80.193
X18.736 Y81.499
X18.791 Y82.805
X18.837 Y84.111
X18.873 Y85.418
X18.903 Y86.725
X18.928 Y88.032
X18.947 Y89.339
X18.963 Y90.647
X18.975 Y91.954
X18.985 Y93.261
X18.993 Y94.568
X19 Y95.876
X19.005 Y97.183
X19.012 Y99.797
X19.016 Y102.412
X19.019 Y106.334
X19.022 Y114.177
Y133.787
X19.021 Y136.401
X19.019 Y137.709
X19.016 Y139.016
X19.01 Y140.323
X19.001 Y141.63
X18.986 Y142.938
X18.963 Y144.245
X18.928 Y145.552
X18.878 Y146.858
X18.806 Y148.163
X18.706 Y149.467
X18.58 Y150.666
X18.438 Y151.719
X18.29 Y152.614
X18.129 Y153.442
X17.957 Y154.203
X17.783 Y154.882
X17.605 Y155.501
X17.42 Y156.079
X17.231 Y156.618
X17.042 Y157.108
X16.852 Y157.56
X16.659 Y157.986
X16.463 Y158.384
X16.271 Y158.75
X16.08 Y159.088
X15.887 Y159.406
X15.694 Y159.706
X15.504 Y159.982
X15.319 Y160.236
X15.135 Y160.473
X14.951 Y160.696
X14.773 Y160.899
X14.599 Y161.087
X14.424 Y161.264
X14.252 Y161.43
X14.089 Y161.577
X13.946 Y161.699
X13.786 Y161.827
X13.626 Y161.948
X13.49 Y162.045
X13.361 Y162.131
X13.209 Y162.226
X13.066 Y162.31
X12.935 Y162.382
X12.801 Y162.45
X12.763 Y162.468
X12.293 Y162.646
X11.8 Y162.75
X11.297 Y162.779
X10.796 Y162.73
X10.308 Y162.606
X9.845 Y162.41
X9.25 Y162.105
G3 X8.732 Y161.533 I0.583 J-1.049
G1 X8.679 Y161.41 Z-2.99
X8.626 Y161.288 Z-2.967
X8.574 Y161.169 Z-2.93
X8.525 Y161.055 Z-2.878
X8.478 Y160.947 Z-2.813
X8.434 Y160.846 Z-2.735
X8.394 Y160.754 Z-2.646
X8.359 Y160.672 Z-2.545
X8.328 Y160.601 Z-2.436
X8.302 Y160.541 Z-2.318
X8.281 Y160.494 Z-2.193
X8.267 Y160.46 Z-2.064
X8.258 Y160.439 Z-1.931
X8.255 Y160.432 Z-1.797
G0 Z5
X5.366 Y59.463
Z-0.597
G1 Z-1.797 F1000
X5.369 Y59.456 Z-1.931
X5.379 Y59.436 Z-2.064
X5.394 Y59.402 Z-2.193
X5.415 Y59.355 Z-2.318
X5.442 Y59.295 Z-2.436
X5.473 Y59.224 Z-2.545
X5.51 Y59.142 Z-2.646
X5.551 Y59.051 Z-2.735
X5.596 Y58.951 Z-2.813
X5.644 Y58.843 Z-2.878
X5.695 Y58.73 Z-2.93
X5.748 Y58.612 Z-2.967
X5.802 Y58.491 Z-2.99
X5.857 Y58.368 Z-2.997
G3 X6.345 Y57.753 I1.444 J0.647
G1 X6.42 Y57.701
X6.626 Y57.536
X6.662 Y57.504
X6.777 Y57.408
X6.91 Y57.339
X7.049 Y57.282
X7.192 Y57.236
X7.337 Y57.199
X7.485 Y57.171
X7.633 Y57.15
X7.783 Y57.137
X7.932 Y57.13
X8.082 Y57.129
X8.232 Y57.133
X8.382 Y57.144
X8.531 Y57.159
X8.68 Y57.179
X8.828 Y57.204
X8.983 Y57.234
X9.142 Y57.27
X9.304 Y57.312
X9.474 Y57.361
X9.65 Y57.418
X9.833 Y57.483
X10.019 Y57.555
X10.21 Y57.636
X10.408 Y57.726
X10.614 Y57.828
X10.824 Y57.939
X11.036 Y58.059
X11.254 Y58.192
X11.481 Y58.338
X11.714 Y58.499
X11.95 Y58.672
X12.186 Y58.856
X12.429 Y59.058
X12.681 Y59.279
X12.939 Y59.519
X13.195 Y59.773
X13.453 Y60.043
X13.718 Y60.337
X13.989 Y60.657
X14.266 Y61.004
X14.539 Y61.366
X14.814 Y61.754
X15.093 Y62.173
X15.376 Y62.628
X15.664 Y63.122
X15.944 Y63.634
X16.224 Y64.187
X16.51 Y64.792
X16.794 Y65.445
X17.081 Y66.157
X17.352 Y66.894
X17.622 Y67.699
X17.894 Y68.595
X18.164 Y69.59
X18.424 Y70.674
X18.668 Y71.838
X18.899 Y73.125
X19.093 Y74.418
X19.256 Y75.715
X19.392 Y77.015
X19.505 Y78.317
X19.599 Y79.621
X19.678 Y80.926
X19.742 Y82.232
X19.796 Y83.538
X19.839 Y84.845
X19.875 Y86.152
X19.904 Y87.459
X19.928 Y88.766
X19.947 Y90.073
X19.962 Y91.38
X19.975 Y92.687
X19.985 Y93.994
X19.993 Y95.302
X19.999 Y96.609
X20.004 Y97.916
X20.011 Y100.531
X20.014 Y101.838
X20.018 Y105.76
X20.021 Y112.296
X20.022 Y130.598
X20.021 Y134.52
X20.018 Y137.135
X20.015 Y138.442
X20.009 Y139.749
X19.999 Y141.057
X19.984 Y142.364
X19.961 Y143.671
X19.926 Y144.978
X19.877 Y146.284
X19.808 Y147.589
X19.711 Y148.893
X19.59 Y150.112
X19.448 Y151.217
X19.289 Y152.221
X19.125 Y153.085
X18.952 Y153.873
X18.769 Y154.607
X18.578 Y155.285
X18.388 Y155.892
X18.193 Y156.456
X17.992 Y156.986
X17.788 Y157.481
X17.585 Y157.934
X17.383 Y158.353
X17.177 Y158.749
X16.971 Y159.12
X16.766 Y159.463
X16.565 Y159.779
X16.363 Y160.076
X16.161 Y160.356
X15.963 Y160.614
X15.771 Y160.85
X15.58 Y161.071
X15.391 Y161.277
X15.207 Y161.466
X15.026 Y161.642
X14.848 Y161.805
X14.674 Y161.955
X14.523 Y162.077
X14.375 Y162.191
X14.2 Y162.316
X14.045 Y162.421
X13.912 Y162.506
X13.783 Y162.582
X13.628 Y162.668
X13.479 Y162.745
X13.344 Y162.81
X13.204 Y162.872
X12.737 Y163.021
X12.254 Y163.1
X11.764 Y163.105
X11.278 Y163.038
X10.808 Y162.9
X10.364 Y162.694
X10.221 Y162.614
X9.845 Y162.41
G3 X9.33 Y161.835 I0.589 J-1.046
G1 X9.277 Y161.711 Z-2.99
X9.225 Y161.589 Z-2.967
X9.174 Y161.47 Z-2.93
X9.126 Y161.356 Z-2.878
X9.079 Y161.248 Z-2.813
X9.036 Y161.147 Z-2.735
X8.997 Y161.055 Z-2.646
X8.962 Y160.972 Z-2.545
X8.931 Y160.9 Z-2.436
X8.906 Y160.841 Z-2.318
X8.885 Y160.793 Z-2.193
X8.871 Y160.759 Z-2.064
X8.862 Y160.738 Z-1.931
X8.859 Y160.731 Z-1.797
G0 Z5
X5.91 Y59.326
Z-0.597
G1 Z-1.797 F1000
X5.912 Y59.318 Z-1.931
X5.919 Y59.297 Z-2.064
X5.93 Y59.261 Z-2.193
X5.944 Y59.212 Z-2.318
X5.963 Y59.149 Z-2.436
X5.986 Y59.075 Z-2.545
X6.012 Y58.989 Z-2.646
X6.04 Y58.893 Z-2.735
X6.072 Y58.788 Z-2.813
X6.106 Y58.675 Z-2.878
X6.142 Y58.556 Z-2.93
X6.179 Y58.432 Z-2.967
X6.217 Y58.305 Z-2.99
X6.256 Y58.176 Z-2.997
G3 X6.662 Y57.504 I1.515 J0.456
G1 X6.839 Y57.341
X6.884 Y57.296
X6.994 Y57.194
X7.118 Y57.109
X7.25 Y57.038
X7.388 Y56.979
X7.53 Y56.929
X7.674 Y56.889
X7.82 Y56.856
X7.968 Y56.831
X8.117 Y56.812
X8.267 Y56.8
X8.416 Y56.794
X8.566
X8.716 Y56.799
X8.866 Y56.809
X9.015 Y56.824
X9.164 Y56.843
X9.319 Y56.867
X9.482 Y56.898
X9.651 Y56.935
X9.823 Y56.978
X10 Y57.028
X10.185 Y57.086
X10.378 Y57.153
X10.575 Y57.227
X10.775 Y57.31
X10.981 Y57.402
X11.195 Y57.506
X11.417 Y57.621
X11.642 Y57.746
X11.869 Y57.882
X12.104 Y58.031
X12.346 Y58.195
X12.594 Y58.375
X12.844 Y58.567
X13.096 Y58.772
X13.356 Y58.997
X13.623 Y59.242
X13.895 Y59.507
X14.167 Y59.787
X14.439 Y60.084
X14.718 Y60.408
X15.004 Y60.76
X15.295 Y61.14
X15.583 Y61.541
X15.867 Y61.961
X16.157 Y62.419
X16.453 Y62.917
X16.754 Y63.458
X17.05 Y64.031
X17.336 Y64.625
X17.624 Y65.272
X17.916 Y65.983
X18.211 Y66.765
X18.501 Y67.606
X18.772 Y68.477
X19.043 Y69.446
X19.311 Y70.523
X19.567 Y71.698
X19.808 Y72.983
X20.012 Y74.274
X20.184 Y75.57
X20.329 Y76.87
X20.45 Y78.171
X20.552 Y79.475
X20.637 Y80.779
X20.707 Y82.084
X20.766 Y83.39
X20.814 Y84.697
X20.854 Y86.003
X20.886 Y87.31
X20.913 Y88.617
X20.935 Y89.924
X20.952 Y91.232
X20.966 Y92.539
X20.978 Y93.846
X20.987 Y95.153
X20.995 Y96.461
X21 Y97.768
X21.009 Y100.382
X21.014 Y102.997
X21.018 Y106.919
X21.021 Y113.455
X21.022 Y130.45
X21.021 Y134.372
X21.019 Y135.679
X21.016 Y136.986
X21.012 Y138.294
X21.004 Y139.601
X20.993 Y140.908
X20.975 Y142.215
X20.948 Y143.522
X20.91 Y144.829
X20.855 Y146.135
X20.781 Y147.44
X20.679 Y148.744
X20.546 Y150.025
X20.395 Y151.162
X20.236 Y152.131
X20.063 Y153.025
X19.878 Y153.85
X19.685 Y154.61
X19.49 Y155.291
X19.289 Y155.922
X19.082 Y156.513
X18.869 Y157.068
X18.656 Y157.577
X18.444 Y158.045
X18.228 Y158.486
X18.01 Y158.902
X17.792 Y159.29
X17.578 Y159.645
X17.364 Y159.978
X17.15 Y160.29
X16.936 Y160.583
X16.727 Y160.853
X16.524 Y161.101
X16.323 Y161.331
X16.122 Y161.548
X15.928 Y161.746
X15.74 Y161.926
X15.553 Y162.096
X15.367 Y162.255
X15.185 Y162.401
X15.021 Y162.526
X14.878 Y162.628
X14.713 Y162.738
X14.545 Y162.844
X14.403 Y162.928
X14.271 Y163
X14.126 Y163.074
X13.969 Y163.149
X13.831 Y163.209
X13.679 Y163.27
X13.223 Y163.399
X12.754 Y163.46
X12.28 Y163.451
X11.814 Y163.373
X11.363 Y163.227
X10.939 Y163.016
X10.364 Y162.694
G3 X9.867 Y162.104 I0.62 J-1.027
G1 X9.818 Y161.979 Z-2.99
X9.769 Y161.856 Z-2.967
X9.722 Y161.735 Z-2.93
X9.677 Y161.62 Z-2.878
X9.634 Y161.51 Z-2.813
X9.594 Y161.408 Z-2.735
X9.557 Y161.314 Z-2.646
X9.525 Y161.231 Z-2.545
X9.496 Y161.158 Z-2.436
X9.473 Y161.098 Z-2.318
X9.454 Y161.05 Z-2.193
X9.44 Y161.015 Z-2.064
X9.432 Y160.994 Z-1.931
X9.429 Y160.987 Z-1.797
G0 Z5
X6.227 Y59.154
Z-0.597
G1 Z-1.797 F1000
X6.229 Y59.146 Z-1.931
X6.234 Y59.124 Z-2.064
X6.243 Y59.088 Z-2.193
X6.256 Y59.038 Z-2.318
X6.271 Y58.975 Z-2.436
X6.29 Y58.899 Z-2.545
X6.311 Y58.812 Z-2.646
X6.335 Y58.715 Z-2.735
X6.361 Y58.608 Z-2.813
X6.389 Y58.494 Z-2.878
X6.419 Y58.373 Z-2.93
X6.45 Y58.247 Z-2.967
X6.481 Y58.119 Z-2.99
X6.513 Y57.988 Z-2.997
G3 X6.884 Y57.296 I1.537 J0.377
G1 X7.174 Y57.001
X7.285 Y56.899
X7.406 Y56.811
X7.536 Y56.736
X7.671 Y56.671
X7.811 Y56.616
X7.953 Y56.569
X8.098 Y56.531
X8.245 Y56.499
X8.393 Y56.475
X8.542 Y56.456
X8.691 Y56.444
X8.841 Y56.437
X8.991 Y56.435
X9.141 Y56.439
X9.291 Y56.447
X9.441 Y56.459
X9.599 Y56.478
X9.763 Y56.501
X9.931 Y56.53
X10.104 Y56.566
X10.285 Y56.608
X10.473 Y56.658
X10.667 Y56.716
X10.863 Y56.781
X11.066 Y56.854
X11.278 Y56.938
X11.497 Y57.033
X11.72 Y57.136
X11.944 Y57.249
X12.176 Y57.374
X12.417 Y57.512
X12.665 Y57.666
X12.916 Y57.831
X13.168 Y58.007
X13.427 Y58.2
X13.693 Y58.41
X13.966 Y58.64
X14.243 Y58.886
X14.518 Y59.146
X14.799 Y59.428
X15.086 Y59.733
X15.379 Y60.063
X15.676 Y60.418
X15.968 Y60.788
X16.264 Y61.188
X16.567 Y61.622
X16.872 Y62.088
X17.18 Y62.59
X17.482 Y63.115
X17.78 Y63.671
X18.084 Y64.282
X18.393 Y64.948
X18.699 Y65.664
X19 Y66.428
X19.285 Y67.219
X19.573 Y68.097
X19.859 Y69.067
X20.141 Y70.136
X20.409 Y71.284
X20.663 Y72.54
X20.885 Y73.829
X21.073 Y75.122
X21.232 Y76.42
X21.367 Y77.72
X21.48 Y79.023
X21.575 Y80.327
X21.655 Y81.631
X21.721 Y82.937
X21.776 Y84.243
X21.822 Y85.55
X21.86 Y86.856
X21.891 Y88.163
X21.916 Y89.47
X21.937 Y90.777
X21.954 Y92.085
X21.968 Y93.392
X21.979 Y94.699
X21.988 Y96.006
X21.995 Y97.314
X22.001 Y98.621
X22.005 Y99.928
X22.012 Y102.543
X22.017 Y106.465
X22.021 Y111.694
X22.022 Y123.459
Y131.303
X22.02 Y133.917
X22.018 Y135.225
X22.015 Y136.532
X22.01 Y137.839
X22.002 Y139.147
X21.989 Y140.454
X21.971 Y141.761
X21.943 Y143.068
X21.904 Y144.375
X21.85 Y145.681
X21.777 Y146.986
X21.678 Y148.29
X21.549 Y149.578
X21.397 Y150.746
X21.227 Y151.813
X21.045 Y152.77
X20.86 Y153.612
X20.663 Y154.398
X20.455 Y155.134
X20.241 Y155.816
X20.028 Y156.43
X19.81 Y157.004
X19.586 Y157.546
X19.358 Y158.054
X19.131 Y158.524
X18.905 Y158.957
X18.678 Y159.364
X18.449 Y159.747
X18.221 Y160.106
X17.996 Y160.436
X17.775 Y160.742
X17.554 Y161.029
X17.334 Y161.299
X17.118 Y161.549
X16.91 Y161.775
X16.705 Y161.985
X16.501 Y162.183
X16.303 Y162.363
X16.113 Y162.527
X15.923 Y162.681
X15.736 Y162.824
X15.558 Y162.952
X15.408 Y163.053
X15.248 Y163.155
X15.072 Y163.259
X14.921 Y163.343
X14.788 Y163.412
X14.647 Y163.479
X14.487 Y163.55
X14.439 Y163.57
X14.02 Y163.71
X13.586 Y163.792
X13.146 Y163.816
X12.706 Y163.781
X12.274 Y163.687
X11.86 Y163.537
X11.468 Y163.333
X11.299 Y163.229
X10.939 Y163.016
G3 X10.458 Y162.413 I0.648 J-1.01
G1 X10.413 Y162.286 Z-2.99
X10.368 Y162.162 Z-2.967
X10.324 Y162.04 Z-2.93
X10.282 Y161.923 Z-2.878
X10.242 Y161.812 Z-2.813
X10.204 Y161.709 Z-2.735
X10.17 Y161.615 Z-2.646
X10.14 Y161.53 Z-2.545
X10.114 Y161.457 Z-2.436
X10.092 Y161.396 Z-2.318
X10.074 Y161.347 Z-2.193
X10.061 Y161.312 Z-2.064
X10.054 Y161.291 Z-1.931
X10.051 Y161.284 Z-1.797
G0 Z5
X6.518 Y58.858
Z-0.597
G1 Z-1.797 F1000
X6.519 Y58.851 Z-1.931
X6.525 Y58.829 Z-2.064
X6.534 Y58.793 Z-2.193
X6.546 Y58.743 Z-2.318
X6.561 Y58.68 Z-2.436
X6.58 Y58.604 Z-2.545
X6.601 Y58.517 Z-2.646
X6.625 Y58.42 Z-2.735
X6.651 Y58.313 Z-2.813
X6.68 Y58.199 Z-2.878
X6.709 Y58.078 Z-2.93
X6.74 Y57.952 Z-2.967
X6.772 Y57.824 Z-2.99
X6.804 Y57.693 Z-2.997
G3 X7.174 Y57.001 I1.537 J0.377
G1 X7.345 Y56.827
X7.415 Y56.741
X7.515 Y56.63
X7.63 Y56.532
X7.754 Y56.448
X7.885 Y56.375
X8.02 Y56.311
X8.16 Y56.255
X8.302 Y56.208
X8.446 Y56.168
X8.593 Y56.134
X8.74 Y56.107
X8.889 Y56.086
X9.038 Y56.071
X9.188 Y56.061
X9.337 Y56.056
X9.487 Y56.055
X9.638 Y56.06
X9.793 Y56.069
X9.953 Y56.083
X10.119 Y56.103
X10.294 Y56.128
X10.476 Y56.161
X10.661 Y56.199
X10.85 Y56.244
X11.048 Y56.297
X11.254 Y56.36
X11.467 Y56.431
X11.682 Y56.509
X11.902 Y56.597
X12.13 Y56.696
X12.366 Y56.807
X12.61 Y56.93
X12.855 Y57.063
X13.104 Y57.208
X13.361 Y57.368
X13.626 Y57.543
X13.897 Y57.735
X14.17 Y57.939
X14.444 Y58.158
X14.727 Y58.397
X15.016 Y58.656
X15.311 Y58.936
X15.608 Y59.237
X15.903 Y59.551
X16.203 Y59.892
X16.511 Y60.262
X16.823 Y60.661
X17.138 Y61.088
X17.448 Y61.536
X17.755 Y62.009
X18.07 Y62.525
X18.389 Y63.086
X18.712 Y63.692
X19.03 Y64.335
X19.334 Y64.998
X19.639 Y65.717
X19.947 Y66.506
X20.256 Y67.373
X20.562 Y68.318
X20.849 Y69.303
X21.125 Y70.359
X21.395 Y71.537
X21.65 Y72.819
X21.868 Y74.108
X22.055 Y75.402
X22.214 Y76.7
X22.349 Y78
X22.463 Y79.302
X22.559 Y80.606
X22.64 Y81.911
X22.708 Y83.216
X22.764 Y84.523
X22.811 Y85.829
X22.85 Y87.136
X22.882 Y88.443
X22.909 Y89.75
X22.931 Y91.057
X22.949 Y92.364
X22.963 Y93.671
X22.975 Y94.978
X22.984 Y96.286
X22.992 Y97.593
X22.998 Y98.9
X23.007 Y101.515
X23.013 Y104.129
X23.018 Y108.051
X23.021 Y114.587
X23.022 Y128.968
X23.02 Y132.889
X23.019 Y134.197
X23.016 Y135.504
X23.011 Y136.811
X23.004 Y138.119
X22.993 Y139.426
X22.976 Y140.733
X22.952 Y142.04
X22.918 Y143.347
X22.87 Y144.653
X22.806 Y145.959
X22.72 Y147.263
X22.607 Y148.566
X22.461 Y149.865
X22.3 Y151.004
X22.127 Y152.017
X21.937 Y152.959
X21.733 Y153.837
X21.522 Y154.639
X21.31 Y155.359
X21.089 Y156.034
X20.86 Y156.67
X20.626 Y157.266
X20.391 Y157.816
X20.157 Y158.323
X19.92 Y158.799
X19.68 Y159.248
X19.438 Y159.669
X19.199 Y160.06
X18.964 Y160.42
X18.728 Y160.758
X18.493 Y161.076
X18.26 Y161.372
X18.032 Y161.644
X17.809 Y161.897
X17.586 Y162.133
X17.37 Y162.35
X17.159 Y162.55
X16.953 Y162.733
X16.752 Y162.903
X16.555 Y163.059
X16.369 Y163.198
X16.206 Y163.312
X16.019 Y163.435
X15.847 Y163.542
X15.7 Y163.626
X15.552 Y163.706
X15.384 Y163.79
X15.237 Y163.859
X15.099 Y163.918
X14.957 Y163.974
X14.922 Y163.987
X14.437 Y164.122
X13.937 Y164.182
X13.434 Y164.166
X12.939 Y164.074
X12.463 Y163.909
X12.018 Y163.674
X11.65 Y163.443
X11.468 Y163.333
G3 X10.995 Y162.723 I0.661 J-1.002
G1 X10.951 Y162.596 Z-2.99
X10.908 Y162.471 Z-2.967
X10.865 Y162.349 Z-2.93
X10.825 Y162.231 Z-2.878
X10.786 Y162.12 Z-2.813
X10.75 Y162.016 Z-2.735
X10.718 Y161.921 Z-2.646
X10.688 Y161.837 Z-2.545
X10.663 Y161.763 Z-2.436
X10.642 Y161.702 Z-2.318
X10.625 Y161.653 Z-2.193
X10.612 Y161.618 Z-2.064
X10.605 Y161.596 Z-1.931
X10.603 Y161.589 Z-1.797
G0 Z5
X6.936 Y58.652
Z-0.597
G1 Z-1.797 F1000
X6.937 Y58.645 Z-1.931
X6.94 Y58.623 Z-2.064
X6.946 Y58.586 Z-2.193
X6.953 Y58.535 Z-2.318
X6.963 Y58.47 Z-2.436
X6.974 Y58.393 Z-2.545
X6.987 Y58.305 Z-2.646
X7.002 Y58.205 Z-2.735
X7.018 Y58.097 Z-2.813
X7.035 Y57.98 Z-2.878
X7.053 Y57.857 Z-2.93
X7.072 Y57.729 Z-2.967
X7.091 Y57.598 Z-2.99
X7.111 Y57.465 Z-2.997
G3 X7.415 Y56.741 I1.566 J0.231
G1 X7.512 Y56.622
X7.618 Y56.476
X7.712 Y56.359
X7.818 Y56.253
X7.935 Y56.159
X8.061 Y56.077
X8.191 Y56.004
X8.327 Y55.939
X8.466 Y55.882
X8.607 Y55.833
X8.751 Y55.79
X8.897 Y55.754
X9.044 Y55.723
X9.192 Y55.699
X9.34 Y55.68
X9.49 Y55.666
X9.639 Y55.657
X9.789 Y55.652
X9.942
X10.099 Y55.657
X10.264 Y55.667
X10.436 Y55.682
X10.615 Y55.703
X10.799 Y55.73
X10.987 Y55.763
X11.183 Y55.804
X11.388 Y55.853
X11.599 Y55.91
X11.814 Y55.975
X12.033 Y56.048
X12.261 Y56.131
X12.497 Y56.226
X12.741 Y56.331
X12.987 Y56.447
X13.236 Y56.573
X13.494 Y56.712
X13.759 Y56.867
X14.033 Y57.037
X14.31 Y57.22
X14.587 Y57.416
X14.871 Y57.628
X15.162 Y57.86
X15.46 Y58.112
X15.764 Y58.385
X16.066 Y58.672
X16.371 Y58.98
X16.683 Y59.313
X16.999 Y59.672
X17.32 Y60.058
X17.644 Y60.472
X17.961 Y60.902
X18.284 Y61.368
X18.612 Y61.873
X18.941 Y62.413
X19.271 Y62.992
X19.598 Y63.608
X19.914 Y64.246
X20.235 Y64.945
X20.56 Y65.711
X20.882 Y66.537
X21.199 Y67.426
X21.502 Y68.36
X21.79 Y69.348
X22.077 Y70.449
X22.355 Y71.662
X22.61 Y72.944
X22.83 Y74.232
X23.018 Y75.526
X23.18 Y76.823
X23.317 Y78.123
X23.434 Y79.425
X23.533 Y80.729
X23.617 Y82.034
X23.687 Y83.339
X23.746 Y84.645
X23.795 Y85.951
X23.837 Y87.258
X23.871 Y88.565
X23.899 Y89.872
X23.922 Y91.179
X23.941 Y92.486
X23.957 Y93.793
X23.97 Y95.1
X23.98 Y96.408
X23.989 Y97.715
X23.995 Y99.022
X24.001 Y100.329
X24.009 Y102.944
X24.014 Y105.559
X24.018 Y109.48
X24.021 Y116.017
X24.022 Y127.782
X24.021 Y131.704
X24.017 Y134.319
X24.013 Y135.626
X24.006 Y136.933
X23.997 Y138.241
X23.983 Y139.548
X23.962 Y140.855
X23.933 Y142.162
X23.893 Y143.469
X23.839 Y144.775
X23.766 Y146.08
X23.671 Y147.384
X23.549 Y148.685
X23.394 Y149.974
X23.221 Y151.137
X23.038 Y152.156
X22.84 Y153.096
X22.63 Y153.971
X22.407 Y154.788
X22.179 Y155.542
X21.949 Y156.225
X21.713 Y156.866
X21.47 Y157.47
X21.222 Y158.04
X20.972 Y158.569
X20.725 Y159.054
X20.477 Y159.51
X20.225 Y159.941
X19.972 Y160.346
X19.722 Y160.722
X19.477 Y161.068
X19.233 Y161.392
X18.99 Y161.696
X18.749 Y161.98
X18.514 Y162.24
X18.287 Y162.478
X18.062 Y162.7
X17.84 Y162.907
X17.628 Y163.093
X17.421 Y163.265
X17.217 Y163.424
X17.018 Y163.57
X16.833 Y163.697
X16.674 Y163.8
X16.497 Y163.907
X16.312 Y164.013
X16.156 Y164.095
X16.02 Y164.162
X15.869 Y164.231
X15.7 Y164.302
X15.553 Y164.359
X15.412 Y164.409
X15.383 Y164.418
X14.912 Y164.531
X14.429 Y164.573
X13.946 Y164.544
X13.472 Y164.445
X13.017 Y164.278
X12.592 Y164.045
X12.018 Y163.674
G3 X11.56 Y163.053 I0.686 J-0.985
G1 X11.519 Y162.925 Z-2.99
X11.479 Y162.799 Z-2.967
X11.44 Y162.675 Z-2.93
X11.402 Y162.557 Z-2.878
X11.367 Y162.445 Z-2.813
X11.333 Y162.34 Z-2.735
X11.303 Y162.245 Z-2.646
X11.276 Y162.159 Z-2.545
X11.252 Y162.085 Z-2.436
X11.232 Y162.023 Z-2.318
X11.217 Y161.974 Z-2.193
X11.206 Y161.938 Z-2.064
X11.199 Y161.917 Z-1.931
X11.196 Y161.91 Z-1.797
G0 Z5
X7.245 Y58.411
Z-0.597
G1 Z-1.797 F1000
X7.246 Y58.403 Z-1.931
X7.248 Y58.381 Z-2.064
X7.252 Y58.344 Z-2.193
X7.256 Y58.292 Z-2.318
X7.262 Y58.228 Z-2.436
X7.269 Y58.15 Z-2.545
X7.277 Y58.061 Z-2.646
X7.287 Y57.961 Z-2.735
X7.297 Y57.852 Z-2.813
X7.307 Y57.734 Z-2.878
X7.319 Y57.61 Z-2.93
X7.33 Y57.482 Z-2.967
X7.342 Y57.35 Z-2.99
X7.355 Y57.216 Z-2.997
G3 X7.618 Y56.476 I1.576 J0.144
G1 X7.705 Y56.356
X7.769 Y56.262
X7.824 Y56.175
X7.91 Y56.052
X8.011 Y55.941
X8.123 Y55.842
X8.244 Y55.753
X8.371 Y55.672
X8.503 Y55.601
X8.638 Y55.537
X8.777 Y55.48
X8.919 Y55.43
X9.062 Y55.386
X9.207 Y55.348
X9.354 Y55.315
X9.501 Y55.288
X9.649 Y55.267
X9.799 Y55.25
X9.948 Y55.238
X10.101 Y55.23
X10.26 Y55.226
X10.423 Y55.227
X10.592 Y55.234
X10.769 Y55.245
X10.955 Y55.263
X11.146 Y55.287
X11.34 Y55.317
X11.542 Y55.354
X11.752 Y55.399
X11.97 Y55.453
X12.194 Y55.515
X12.42 Y55.585
X12.654 Y55.665
X12.897 Y55.756
X13.148 Y55.858
X13.404 Y55.972
X13.663 Y56.096
X13.927 Y56.231
X14.199 Y56.381
X14.48 Y56.548
X14.768 Y56.729
X15.058 Y56.924
X15.349 Y57.133
X15.647 Y57.359
X15.952 Y57.606
X16.265 Y57.875
X16.584 Y58.165
X16.901 Y58.471
X17.217 Y58.795
X17.541 Y59.145
X17.87 Y59.525
X18.206 Y59.934
X18.545 Y60.374
X18.877 Y60.832
X19.21 Y61.32
X19.545 Y61.843
X19.883 Y62.407
X20.225 Y63.017
X20.569 Y63.676
X20.9 Y64.356
X21.229 Y65.087
X21.557 Y65.878
X21.882 Y66.727
X22.203 Y67.65
X22.521 Y68.656
X22.818 Y69.698
X23.104 Y70.832
X23.386 Y72.101
X23.632 Y73.385
X23.844 Y74.675
X24.027 Y75.97
X24.184 Y77.267
X24.319 Y78.568
X24.434 Y79.87
X24.531 Y81.174
X24.614 Y82.478
X24.683 Y83.784
X24.742 Y85.09
X24.791 Y86.396
X24.833 Y87.703
X24.867 Y89.01
X24.895 Y90.317
X24.919 Y91.624
X24.938 Y92.931
X24.954 Y94.238
X24.967 Y95.545
X24.978 Y96.852
X24.987 Y98.16
X24.994 Y99.467
X25 Y100.774
X25.008 Y103.389
X25.013 Y106.003
X25.018 Y109.925
X25.021 Y116.462
X25.022 Y126.92
X25.02 Y130.842
X25.017 Y133.456
X25.013 Y134.764
X25.007 Y136.071
X24.998 Y137.378
X24.985 Y138.685
X24.966 Y139.993
X24.94 Y141.3
X24.903 Y142.606
X24.854 Y143.913
X24.788 Y145.218
X24.702 Y146.523
X24.592 Y147.825
X24.452 Y149.125
X24.285 Y150.378
X24.106 Y151.47
X23.908 Y152.489
X23.695 Y153.441
X23.47 Y154.323
X23.237 Y155.133
X23.003 Y155.87
X22.759 Y156.563
X22.509 Y157.215
X22.253 Y157.827
X21.993 Y158.401
X21.735 Y158.929
X21.476 Y159.421
X21.215 Y159.885
X20.951 Y160.323
X20.687 Y160.733
X20.428 Y161.111
X20.173 Y161.46
X19.918 Y161.789
X19.665 Y162.097
X19.416 Y162.382
X19.174 Y162.644
X18.936 Y162.886
X18.704 Y163.109
X18.477 Y163.314
X18.256 Y163.503
X18.044 Y163.674
X17.835 Y163.832
X17.628 Y163.979
X17.428 Y164.113
X17.249 Y164.226
X17.089 Y164.32
X16.901 Y164.423
X16.725 Y164.513
X16.576 Y164.584
X16.437 Y164.645
X16.273 Y164.712
X16.112 Y164.771
X15.97 Y164.82
X15.946 Y164.827
X15.469 Y164.935
X14.98 Y164.971
X14.492 Y164.935
X14.014 Y164.826
X13.558 Y164.648
X13.133 Y164.405
X12.774 Y164.163
X12.592 Y164.045
G3 X12.134 Y163.424 I0.686 J-0.985
G1 X12.094 Y163.296 Z-2.99
X12.053 Y163.17 Z-2.967
X12.014 Y163.047 Z-2.93
X11.977 Y162.928 Z-2.878
X11.941 Y162.816 Z-2.813
X11.908 Y162.711 Z-2.735
X11.877 Y162.616 Z-2.646
X11.85 Y162.53 Z-2.545
X11.827 Y162.456 Z-2.436
X11.807 Y162.394 Z-2.318
X11.791 Y162.345 Z-2.193
X11.78 Y162.309 Z-2.064
X11.773 Y162.288 Z-1.931
X11.771 Y162.281 Z-1.797
G0 Z5
X7.577 Y58.13
Z-0.597
G1 Z-1.797 F1000
Y58.122 Z-1.931
X7.578 Y58.1 Z-2.064
X7.579 Y58.062 Z-2.193
X7.58 Y58.011 Z-2.318
X7.582 Y57.946 Z-2.436
X7.584 Y57.868 Z-2.545
X7.587 Y57.778 Z-2.646
X7.589 Y57.678 Z-2.735
X7.592 Y57.568 Z-2.813
X7.595 Y57.451 Z-2.878
X7.599 Y57.326 Z-2.93
X7.602 Y57.197 Z-2.967
X7.605 Y57.065 Z-2.99
X7.609 Y56.93 Z-2.997
G3 X7.824 Y56.175 I1.582 J0.042
G1 X7.996 Y55.902
X8.017 Y55.863
X8.092 Y55.733
X8.188 Y55.617
X8.295 Y55.513
X8.411 Y55.417
X8.533 Y55.331
X8.661 Y55.253
X8.793 Y55.181
X8.929 Y55.118
X9.068 Y55.06
X9.208 Y55.009
X9.351 Y54.963
X9.496 Y54.924
X9.642 Y54.889
X9.789 Y54.86
X9.937 Y54.835
X10.086 Y54.815
X10.238 Y54.8
X10.395 Y54.788
X10.558 Y54.781
X10.726 Y54.779
X10.902 Y54.782
X11.086 Y54.79
X11.277 Y54.804
X11.472 Y54.824
X11.673 Y54.851
X11.882 Y54.885
X12.101 Y54.927
X12.325 Y54.977
X12.554 Y55.035
X12.787 Y55.102
X13.03 Y55.179
X13.281 Y55.267
X13.541 Y55.366
X13.804 Y55.476
X14.07 Y55.596
X14.342 Y55.729
X14.624 Y55.877
X14.914 Y56.04
X15.211 Y56.219
X15.509 Y56.41
X15.81 Y56.615
X16.118 Y56.84
X16.433 Y57.083
X16.755 Y57.348
X17.083 Y57.634
X17.409 Y57.935
X17.738 Y58.258
X18.074 Y58.606
X18.414 Y58.981
X18.759 Y59.384
X19.108 Y59.817
X19.451 Y60.269
X19.794 Y60.749
X20.143 Y61.27
X20.495 Y61.829
X20.847 Y62.428
X21.201 Y63.071
X21.548 Y63.746
X21.884 Y64.452
X22.223 Y65.221
X22.564 Y66.06
X22.9 Y66.959
X23.229 Y67.928
X23.549 Y68.97
X23.845 Y70.041
X24.138 Y71.24
X24.411 Y72.518
X24.649 Y73.804
X24.856 Y75.095
X25.034 Y76.39
X25.187 Y77.688
X25.319 Y78.989
X25.432 Y80.291
X25.528 Y81.595
X25.61 Y82.9
X25.679 Y84.205
X25.738 Y85.511
X25.787 Y86.817
X25.828 Y88.124
X25.863 Y89.431
X25.892 Y90.738
X25.916 Y92.045
X25.935 Y93.352
X25.952 Y94.659
X25.965 Y95.966
X25.976 Y97.274
X25.985 Y98.581
X25.992 Y99.888
X25.998 Y101.195
X26.007 Y103.81
X26.013 Y106.424
X26.018 Y110.346
X26.021 Y116.883
X26.022 Y126.034
X26.02 Y129.956
X26.017 Y132.57
X26.013 Y133.877
X26.008 Y135.185
X26 Y136.492
X25.988 Y137.799
X25.97 Y139.106
X25.946 Y140.413
X25.913 Y141.72
X25.868 Y143.027
X25.809 Y144.333
X25.731 Y145.638
X25.632 Y146.941
X25.507 Y148.243
X25.352 Y149.541
X25.172 Y150.758
X24.98 Y151.842
X24.769 Y152.855
X24.544 Y153.797
X24.307 Y154.675
X24.062 Y155.491
X23.814 Y156.233
X23.56 Y156.927
X23.298 Y157.581
X23.031 Y158.197
X22.758 Y158.778
X22.487 Y159.315
X22.218 Y159.81
X21.946 Y160.278
X21.672 Y160.719
X21.397 Y161.134
X21.126 Y161.518
X20.861 Y161.871
X20.598 Y162.201
X20.337 Y162.51
X20.078 Y162.798
X19.827 Y163.062
X19.581 Y163.306
X19.34 Y163.532
X19.105 Y163.739
X18.876 Y163.929
X18.655 Y164.102
X18.44 Y164.26
X18.228 Y164.407
X18.021 Y164.542
X17.835 Y164.655
X17.671 Y164.748
X17.48 Y164.85
X17.299 Y164.939
X17.146 Y165.009
X17.006 Y165.069
X16.841 Y165.133
X16.676 Y165.192
X16.534 Y165.238
X16.507 Y165.246
X16.035 Y165.347
X15.553 Y165.378
X15.072 Y165.338
X14.602 Y165.229
X14.153 Y165.052
X13.735 Y164.812
X13.133 Y164.405
G3 X12.689 Y163.774 I0.706 J-0.97
G1 X12.651 Y163.645 Z-2.99
X12.613 Y163.518 Z-2.967
X12.576 Y163.394 Z-2.93
X12.541 Y163.275 Z-2.878
X12.508 Y163.162 Z-2.813
X12.477 Y163.057 Z-2.735
X12.448 Y162.96 Z-2.646
X12.423 Y162.874 Z-2.545
X12.401 Y162.8 Z-2.436
X12.383 Y162.737 Z-2.318
X12.368 Y162.688 Z-2.193
X12.358 Y162.652 Z-2.064
X12.351 Y162.631 Z-1.931
X12.349 Y162.623 Z-1.797
G0 Z5
X7.934 Y57.832
Z-0.597
G1 Z-1.797 F1000
Y57.824 Z-1.931
X7.933 Y57.802 Z-2.064
X7.93 Y57.764 Z-2.193
X7.927 Y57.713 Z-2.318
X7.924 Y57.648 Z-2.436
X7.919 Y57.57 Z-2.545
X7.914 Y57.481 Z-2.646
X7.908 Y57.381 Z-2.735
X7.902 Y57.271 Z-2.813
X7.895 Y57.153 Z-2.878
X7.888 Y57.029 Z-2.93
X7.881 Y56.9 Z-2.967
X7.873 Y56.768 Z-2.99
X7.866 Y56.634 Z-2.997
G3 X8.017 Y55.863 I1.58 J-0.091
G1 X8.2 Y55.51
X8.276 Y55.38
X8.368 Y55.262
X8.472 Y55.154
X8.584 Y55.054
X8.703 Y54.963
X8.828 Y54.88
X8.957 Y54.804
X9.09 Y54.734
X9.226 Y54.671
X9.365 Y54.614
X9.506 Y54.562
X9.648 Y54.516
X9.793 Y54.476
X9.938 Y54.44
X10.085 Y54.409
X10.233 Y54.382
X10.383 Y54.36
X10.541 Y54.342
X10.705 Y54.327
X10.874 Y54.318
X11.049 Y54.312
X11.232
X11.423 Y54.318
X11.622 Y54.33
X11.825 Y54.348
X12.034 Y54.372
X12.251 Y54.404
X12.477 Y54.444
X12.711 Y54.493
X12.949 Y54.55
X13.191 Y54.615
X13.442 Y54.691
X13.702 Y54.777
X13.97 Y54.876
X14.245 Y54.985
X14.521 Y55.105
X14.803 Y55.238
X15.094 Y55.384
X15.393 Y55.547
X15.701 Y55.726
X16.012 Y55.919
X16.324 Y56.126
X16.641 Y56.349
X16.966 Y56.593
X17.298 Y56.858
X17.638 Y57.145
X17.981 Y57.453
X18.321 Y57.776
X18.665 Y58.123
X19.014 Y58.496
X19.368 Y58.898
X19.728 Y59.331
X20.092 Y59.796
X20.45 Y60.282
X20.807 Y60.797
X21.167 Y61.351
X21.528 Y61.943
X21.89 Y62.579
X22.254 Y63.264
X22.616 Y63.994
X22.961 Y64.746
X23.307 Y65.563
X23.654 Y66.451
X23.991 Y67.398
X24.324 Y68.424
X24.646 Y69.53
X24.953 Y70.707
X25.246 Y71.982
X25.501 Y73.264
X25.723 Y74.552
X25.916 Y75.845
X26.083 Y77.141
X26.227 Y78.441
X26.351 Y79.742
X26.458 Y81.045
X26.549 Y82.349
X26.626 Y83.654
X26.692 Y84.96
X26.748 Y86.266
X26.795 Y87.572
X26.834 Y88.879
X26.867 Y90.186
X26.895 Y91.493
X26.918 Y92.8
X26.937 Y94.107
X26.953 Y95.414
X26.966 Y96.722
X26.977 Y98.029
X26.985 Y99.336
X26.993 Y100.643
X26.998 Y101.951
X27.007 Y104.565
X27.013 Y107.18
X27.017 Y111.102
X27.021 Y117.638
Y126.789
X27.02 Y129.404
X27.016 Y132.018
X27.013 Y133.325
X27.007 Y134.633
X26.999 Y135.94
X26.987 Y137.247
X26.969 Y138.554
X26.946 Y139.861
X26.913 Y141.168
X26.87 Y142.475
X26.813 Y143.781
X26.738 Y145.086
X26.644 Y146.39
X26.525 Y147.692
X26.378 Y148.991
X26.204 Y150.244
X26.008 Y151.401
X25.793 Y152.482
X25.562 Y153.489
X25.318 Y154.422
X25.072 Y155.267
X24.818 Y156.048
X24.554 Y156.787
X24.282 Y157.484
X24.005 Y158.139
X23.724 Y158.751
X23.444 Y159.315
X23.164 Y159.842
X22.88 Y160.339
X22.595 Y160.807
X22.309 Y161.248
X22.027 Y161.654
X21.75 Y162.03
X21.475 Y162.382
X21.2 Y162.711
X20.928 Y163.019
X20.665 Y163.301
X20.408 Y163.56
X20.153 Y163.803
X19.903 Y164.026
X19.664 Y164.228
X19.431 Y164.414
X19.204 Y164.585
X18.983 Y164.74
X18.768 Y164.882
X18.56 Y165.012
X18.376 Y165.118
X18.205 Y165.211
X18.006 Y165.311
X17.831 Y165.394
X17.682 Y165.458
X17.535 Y165.517
X17.361 Y165.581
X17.203 Y165.633
X17.056 Y165.678
X16.598 Y165.766
X16.131 Y165.789
X15.666 Y165.746
X15.212 Y165.637
X14.778 Y165.466
X14.372 Y165.235
X14.174 Y165.103
X13.815 Y164.866
X13.735 Y164.812
G3 X13.29 Y164.181 I0.706 J-0.97
G1 X13.252 Y164.052 Z-2.99
X13.215 Y163.925 Z-2.967
X13.178 Y163.801 Z-2.93
X13.143 Y163.682 Z-2.878
X13.11 Y163.569 Z-2.813
X13.078 Y163.463 Z-2.735
X13.05 Y163.367 Z-2.646
X13.025 Y163.281 Z-2.545
X13.003 Y163.207 Z-2.436
X12.984 Y163.144 Z-2.318
X12.97 Y163.095 Z-2.193
X12.959 Y163.059 Z-2.064
X12.953 Y163.037 Z-1.931
X12.951 Y163.03 Z-1.797
G0 Z5
X8.118 Y57.479
Z-0.597
G1 Z-1.797 F1000
X8.117 Y57.471 Z-1.931
X8.116 Y57.449 Z-2.064
X8.114 Y57.411 Z-2.193
X8.111 Y57.36 Z-2.318
X8.107 Y57.295 Z-2.436
X8.103 Y57.217 Z-2.545
X8.098 Y57.128 Z-2.646
X8.092 Y57.028 Z-2.735
X8.085 Y56.918 Z-2.813
X8.079 Y56.8 Z-2.878
X8.072 Y56.676 Z-2.93
X8.064 Y56.547 Z-2.967
X8.057 Y56.415 Z-2.99
X8.049 Y56.281 Z-2.997
G3 X8.2 Y55.51 I1.58 J-0.091
G1 X8.37 Y55.183
X8.386 Y55.148
X8.456 Y55.015
X8.544 Y54.894
X8.644 Y54.782
X8.752 Y54.678
X8.868 Y54.583
X8.989 Y54.495
X9.115 Y54.413
X9.245 Y54.339
X9.379 Y54.27
X9.515 Y54.207
X9.654 Y54.15
X9.794 Y54.098
X9.937 Y54.052
X10.081 Y54.01
X10.226 Y53.973
X10.373 Y53.94
X10.522 Y53.912
X10.679 Y53.887
X10.844 Y53.866
X11.013 Y53.848
X11.188 Y53.836
X11.371 Y53.828
X11.562 Y53.826
X11.762 Y53.829
X11.967 Y53.839
X12.176 Y53.855
X12.394 Y53.877
X12.621 Y53.908
X12.857 Y53.947
X13.098 Y53.994
X13.344 Y54.049
X13.596 Y54.114
X13.857 Y54.189
X14.128 Y54.275
X14.407 Y54.373
X14.69 Y54.482
X14.976 Y54.602
X15.269 Y54.735
X15.571 Y54.883
X15.881 Y55.047
X16.2 Y55.226
X16.521 Y55.421
X16.844 Y55.629
X17.174 Y55.855
X17.511 Y56.101
X17.855 Y56.368
X18.206 Y56.657
X18.56 Y56.967
X18.911 Y57.292
X19.268 Y57.643
X19.631 Y58.021
X19.998 Y58.427
X20.369 Y58.863
X20.744 Y59.33
X21.116 Y59.821
X21.482 Y60.335
X21.853 Y60.891
X22.229 Y61.491
X22.604 Y62.13
X22.979 Y62.813
X23.353 Y63.547
X23.713 Y64.306
X24.067 Y65.112
X24.422 Y65.988
X24.774 Y66.939
X25.12 Y67.962
X25.458 Y69.066
X25.778 Y70.233
X26.082 Y71.487
X26.353 Y72.765
X26.591 Y74.051
X26.797 Y75.342
X26.977 Y76.637
X27.134 Y77.935
X27.269 Y79.235
X27.385 Y80.537
X27.485 Y81.84
X27.571 Y83.145
X27.644 Y84.45
X27.706 Y85.756
X27.759 Y87.062
X27.803 Y88.369
X27.841 Y89.675
X27.873 Y90.982
X27.899 Y92.289
X27.921 Y93.596
X27.939 Y94.904
X27.955 Y96.211
X27.967 Y97.518
X27.978 Y98.825
X27.986 Y100.133
X27.993 Y101.44
X27.999 Y102.747
X28.007 Y105.362
X28.013 Y107.976
X28.017 Y111.898
X28.021 Y118.434
Y126.278
X28.02 Y128.893
X28.016 Y131.507
X28.012 Y132.815
X28.006 Y134.122
X27.997 Y135.429
X27.985 Y136.736
X27.968 Y138.044
X27.944 Y139.351
X27.912 Y140.658
X27.87 Y141.964
X27.815 Y143.27
X27.743 Y144.576
X27.652 Y145.88
X27.539 Y147.182
X27.399 Y148.482
X27.227 Y149.778
X27.032 Y150.992
X26.814 Y152.128
X26.58 Y153.182
X26.333 Y154.159
X26.076 Y155.067
X25.815 Y155.892
X25.545 Y156.666
X25.267 Y157.395
X24.982 Y158.082
X24.691 Y158.728
X24.397 Y159.333
X24.106 Y159.89
X23.814 Y160.411
X23.519 Y160.903
X23.223 Y161.366
X22.926 Y161.802
X22.634 Y162.203
X22.349 Y162.574
X22.064 Y162.922
X21.781 Y163.247
X21.502 Y163.55
X21.231 Y163.828
X20.967 Y164.082
X20.706 Y164.32
X20.452 Y164.538
X20.207 Y164.736
X19.97 Y164.917
X19.739 Y165.082
X19.515 Y165.233
X19.296 Y165.371
X19.085 Y165.495
X18.904 Y165.595
X18.731 Y165.684
X18.533 Y165.779
X18.362 Y165.855
X18.216 Y165.914
X18.061 Y165.972
X17.887 Y166.032
X17.736 Y166.079
X17.693 Y166.091
X17.222 Y166.185
X16.741 Y166.21
X16.262 Y166.165
X15.795 Y166.05
X15.349 Y165.869
X14.934 Y165.625
X14.372 Y165.235
G3 X13.923 Y164.607 I0.7 J-0.974
G1 X13.885 Y164.478 Z-2.99
X13.846 Y164.351 Z-2.967
X13.809 Y164.228 Z-2.93
X13.773 Y164.109 Z-2.878
X13.739 Y163.996 Z-2.813
X13.707 Y163.891 Z-2.735
X13.678 Y163.795 Z-2.646
X13.652 Y163.709 Z-2.545
X13.63 Y163.634 Z-2.436
X13.611 Y163.572 Z-2.318
X13.596 Y163.523 Z-2.193
X13.585 Y163.487 Z-2.064
X13.579 Y163.466 Z-1.931
X13.577 Y163.458 Z-1.797
G0 Z5
X8.392 Y57.119
Z-0.597
G1 Z-1.797 F1000
X8.391 Y57.111 Z-1.931
X8.389 Y57.089 Z-2.064
X8.385 Y57.052 Z-2.193
X8.38 Y57 Z-2.318
X8.373 Y56.936 Z-2.436
X8.366 Y56.858 Z-2.545
X8.356 Y56.769 Z-2.646
X8.346 Y56.669 Z-2.735
X8.335 Y56.56 Z-2.813
X8.323 Y56.443 Z-2.878
X8.31 Y56.319 Z-2.93
X8.297 Y56.19 Z-2.967
X8.283 Y56.058 Z-2.99
X8.27 Y55.925 Z-2.997
G3 X8.386 Y55.148 I1.574 J-0.162
G1 X8.423 Y55.067
X8.523 Y54.823
X8.586 Y54.688
X8.666 Y54.56
X8.758 Y54.442
X8.86 Y54.332
X8.97 Y54.23
X9.086 Y54.135
X9.207 Y54.046
X9.333 Y53.964
X9.462 Y53.888
X9.595 Y53.818
X9.73 Y53.753
X9.868 Y53.694
X10.007 Y53.64
X10.149 Y53.59
X10.292 Y53.546
X10.437 Y53.506
X10.585 Y53.469
X10.738 Y53.436
X10.897 Y53.407
X11.063 Y53.382
X11.237 Y53.36
X11.42 Y53.343
X11.609 Y53.33
X11.803 Y53.323
X12.003 Y53.322
X12.213 Y53.327
X12.431 Y53.338
X12.658 Y53.357
X12.89 Y53.382
X13.127 Y53.416
X13.372 Y53.457
X13.627 Y53.509
X13.891 Y53.57
X14.161 Y53.641
X14.435 Y53.721
X14.715 Y53.812
X15.006 Y53.916
X15.304 Y54.033
X15.611 Y54.164
X15.923 Y54.308
X16.237 Y54.464
X16.558 Y54.635
X16.887 Y54.824
X17.225 Y55.031
X17.57 Y55.256
X17.921 Y55.499
X18.271 Y55.758
X18.623 Y56.035
X18.983 Y56.335
X19.35 Y56.66
X19.724 Y57.011
X20.104 Y57.389
X20.483 Y57.789
X20.858 Y58.208
X21.234 Y58.654
X21.616 Y59.136
X22.003 Y59.654
X22.393 Y60.209
X22.787 Y60.806
X23.176 Y61.435
X23.553 Y62.085
X23.928 Y62.779
X24.304 Y63.526
X24.68 Y64.332
X25.056 Y65.201
X25.429 Y66.139
X25.791 Y67.134
X26.13 Y68.155
X26.462 Y69.264
X26.785 Y70.472
X27.086 Y71.744
X27.352 Y73.024
X27.585 Y74.311
X27.789 Y75.602
X27.967 Y76.897
X28.122 Y78.195
X28.256 Y79.495
X28.373 Y80.797
X28.473 Y82.101
X28.559 Y83.405
X28.633 Y84.711
X28.696 Y86.016
X28.749 Y87.322
X28.795 Y88.629
X28.833 Y89.936
X28.866 Y91.243
X28.893 Y92.55
X28.916 Y93.857
X28.935 Y95.164
X28.951 Y96.471
X28.964 Y97.778
X28.975 Y99.085
X28.984 Y100.393
X28.991 Y101.7
X28.997 Y103.007
X29.006 Y105.622
X29.012 Y108.236
X29.017 Y112.158
X29.02 Y117.387
X29.021 Y123.924
X29.02 Y127.846
X29.016 Y130.46
X29.013 Y131.768
X29.008 Y133.075
X29 Y134.382
X28.989 Y135.689
X28.974 Y136.996
X28.953 Y138.304
X28.925 Y139.611
X28.888 Y140.917
X28.839 Y142.224
X28.776 Y143.53
X28.697 Y144.834
X28.597 Y146.138
X28.474 Y147.439
X28.323 Y148.738
X28.14 Y150.032
X27.928 Y151.279
X27.698 Y152.429
X27.461 Y153.456
X27.21 Y154.415
X26.945 Y155.319
X26.668 Y156.17
X26.381 Y156.972
X26.087 Y157.723
X25.796 Y158.408
X25.5 Y159.05
X25.198 Y159.658
X24.892 Y160.234
X24.582 Y160.775
X24.274 Y161.28
X23.971 Y161.744
X23.669 Y162.179
X23.367 Y162.588
X23.066 Y162.972
X22.767 Y163.331
X22.477 Y163.659
X22.194 Y163.962
X21.913 Y164.244
X21.636 Y164.507
X21.365 Y164.749
X21.107 Y164.967
X20.856 Y165.166
X20.608 Y165.352
X20.372 Y165.518
X20.146 Y165.668
X19.923 Y165.806
X19.709 Y165.929
X19.529 Y166.027
X19.338 Y166.123
X19.136 Y166.218
X18.968 Y166.29
X18.821 Y166.349
X18.654 Y166.41
X18.48 Y166.468
X18.33 Y166.513
X18.182 Y166.552
X17.729 Y166.625
X17.271 Y166.635
X16.815 Y166.581
X16.371 Y166.464
X15.948 Y166.287
X15.554 Y166.053
X14.934 Y165.625
G3 X14.496 Y164.99 I0.717 J-0.963
G1 X14.46 Y164.861 Z-2.99
X14.423 Y164.733 Z-2.967
X14.388 Y164.609 Z-2.93
X14.354 Y164.489 Z-2.878
X14.322 Y164.376 Z-2.813
X14.292 Y164.27 Z-2.735
X14.265 Y164.174 Z-2.646
X14.24 Y164.087 Z-2.545
X14.219 Y164.012 Z-2.436
X14.201 Y163.95 Z-2.318
X14.187 Y163.9 Z-2.193
X14.177 Y163.864 Z-2.064
X14.171 Y163.843 Z-1.931
X14.169 Y163.835 Z-1.797
G0 Z5
X8.623 Y56.791
Z-0.597
G1 Z-1.797 F1000
X8.622 Y56.784 Z-1.931
X8.618 Y56.762 Z-2.064
X8.613 Y56.725 Z-2.193
X8.605 Y56.674 Z-2.318
X8.595 Y56.61 Z-2.436
X8.584 Y56.533 Z-2.545
X8.57 Y56.444 Z-2.646
X8.555 Y56.345 Z-2.735
X8.539 Y56.236 Z-2.813
X8.521 Y56.12 Z-2.878
X8.503 Y55.997 Z-2.93
X8.484 Y55.869 Z-2.967
X8.464 Y55.738 Z-2.99
X8.444 Y55.605 Z-2.997
G3 X8.523 Y54.823 I1.565 J-0.236
G1 X8.688 Y54.417
X8.752 Y54.281
X8.829 Y54.153
X8.919 Y54.033
X9.018 Y53.92
X9.125 Y53.815
X9.239 Y53.717
X9.357 Y53.625
X9.48 Y53.539
X9.607 Y53.459
X9.737 Y53.385
X9.871 Y53.316
X10.006 Y53.252
X10.144 Y53.193
X10.284 Y53.139
X10.426 Y53.09
X10.569 Y53.044
X10.714 Y53.003
X10.867 Y52.965
X11.028 Y52.929
X11.197 Y52.897
X11.372 Y52.869
X11.552 Y52.845
X11.74 Y52.826
X11.937 Y52.812
X12.143 Y52.804
X12.356 Y52.801
X12.573 Y52.804
X12.798 Y52.815
X13.032 Y52.832
X13.275 Y52.858
X13.528 Y52.891
X13.784 Y52.934
X14.046 Y52.984
X14.318 Y53.045
X14.599 Y53.117
X14.888 Y53.2
X15.185 Y53.295
X15.486 Y53.401
X15.791 Y53.518
X16.106 Y53.65
X16.431 Y53.797
X16.763 Y53.96
X17.103 Y54.139
X17.446 Y54.332
X17.789 Y54.539
X18.141 Y54.765
X18.501 Y55.012
X18.869 Y55.281
X19.245 Y55.572
X19.625 Y55.885
X20.002 Y56.215
X20.379 Y56.564
X20.762 Y56.941
X21.152 Y57.347
X21.548 Y57.784
X21.95 Y58.255
X22.354 Y58.757
X22.751 Y59.281
X23.142 Y59.831
X23.536 Y60.419
X23.931 Y61.05
X24.329 Y61.727
X24.728 Y62.454
X25.128 Y63.236
X25.516 Y64.055
X25.892 Y64.91
X26.262 Y65.824
X26.627 Y66.806
X26.986 Y67.866
X27.335 Y69.005
X27.669 Y70.22
X27.978 Y71.49
X28.251 Y72.769
X28.492 Y74.054
X28.704 Y75.344
X28.89 Y76.638
X29.053 Y77.935
X29.194 Y79.234
X29.317 Y80.536
X29.423 Y81.839
X29.515 Y83.143
X29.594 Y84.448
X29.662 Y85.753
X29.72 Y87.059
X29.769 Y88.366
X29.811 Y89.672
X29.846 Y90.979
X29.876 Y92.286
X29.902 Y93.593
X29.923 Y94.9
X29.94 Y96.207
X29.955 Y97.515
X29.967 Y98.822
X29.977 Y100.129
X29.986 Y101.436
X29.993 Y102.744
X29.998 Y104.051
X30.007 Y106.665
X30.012 Y109.28
X30.017 Y113.202
X30.02 Y118.431
X30.021 Y124.967
X30.019 Y127.582
X30.015 Y130.197
X30.011 Y131.504
X30.005 Y132.811
X29.997 Y134.118
X29.985 Y135.426
X29.969 Y136.733
X29.947 Y138.04
X29.918 Y139.347
X29.879 Y140.654
X29.829 Y141.96
X29.766 Y143.266
X29.686 Y144.57
X29.586 Y145.874
X29.464 Y147.175
X29.316 Y148.474
X29.136 Y149.769
X28.927 Y151.027
X28.698 Y152.198
X28.45 Y153.291
X28.186 Y154.315
X27.909 Y155.273
X27.629 Y156.144
X27.342 Y156.955
X27.045 Y157.722
X26.74 Y158.447
X26.427 Y159.133
X26.109 Y159.779
X25.796 Y160.372
X25.483 Y160.924
X25.167 Y161.445
X24.849 Y161.937
X24.53 Y162.4
X24.214 Y162.832
X23.905 Y163.229
X23.6 Y163.597
X23.297 Y163.942
X22.998 Y164.265
X22.703 Y164.563
X22.419 Y164.834
X22.142 Y165.084
X21.869 Y165.317
X21.606 Y165.527
X21.352 Y165.719
X21.106 Y165.893
X20.869 Y166.051
X20.638 Y166.195
X20.414 Y166.326
X20.2 Y166.443
X20.018 Y166.535
X19.839 Y166.62
X19.639 Y166.707
X19.47 Y166.775
X19.323 Y166.83
X19.16 Y166.884
X18.987 Y166.937
X18.934 Y166.952
X18.473 Y167.042
X18.004 Y167.067
X17.536 Y167.025
X17.08 Y166.917
X16.643 Y166.745
X16.235 Y166.512
X15.948 Y166.321
X15.58 Y166.071
X15.554 Y166.053
G3 X15.116 Y165.418 I0.717 J-0.963
G1 X15.079 Y165.289 Z-2.99
X15.043 Y165.161 Z-2.967
X15.008 Y165.037 Z-2.93
X14.974 Y164.917 Z-2.878
X14.942 Y164.804 Z-2.813
X14.912 Y164.698 Z-2.735
X14.884 Y164.602 Z-2.646
X14.86 Y164.516 Z-2.545
X14.838 Y164.441 Z-2.436
X14.821 Y164.378 Z-2.318
X14.807 Y164.329 Z-2.193
X14.796 Y164.293 Z-2.064
X14.79 Y164.271 Z-1.931
X14.788 Y164.264 Z-1.797
G0 Z5
X8.791 Y56.385
Z-0.597
G1 Z-1.797 F1000
X8.79 Y56.378 Z-1.931
X8.786 Y56.355 Z-2.064
X8.781 Y56.319 Z-2.193
X8.773 Y56.268 Z-2.318
X8.763 Y56.203 Z-2.436
X8.751 Y56.126 Z-2.545
X8.738 Y56.038 Z-2.646
X8.723 Y55.938 Z-2.735
X8.706 Y55.83 Z-2.813
X8.689 Y55.713 Z-2.878
X8.67 Y55.591 Z-2.93
X8.65 Y55.463 Z-2.967
X8.63 Y55.332 Z-2.99
X8.61 Y55.199 Z-2.997
G3 X8.688 Y54.417 I1.565 J-0.238
G1 X8.783 Y54.184
X8.857 Y53.995
X8.919 Y53.859
X8.993 Y53.729
X9.081 Y53.607
X9.178 Y53.492
X9.282 Y53.384
X9.393 Y53.283
X9.509 Y53.188
X9.629 Y53.099
X9.754 Y53.016
X9.882 Y52.938
X10.013 Y52.865
X10.147 Y52.797
X10.283 Y52.734
X10.421 Y52.675
X10.561 Y52.621
X10.703 Y52.571
X10.848 Y52.525
X11.001 Y52.481
X11.162 Y52.44
X11.332 Y52.402
X11.508 Y52.368
X11.689 Y52.338
X11.878 Y52.313
X12.077 Y52.293
X12.284 Y52.277
X12.499 Y52.267
X12.719 Y52.264
X12.946 Y52.267
X13.182 Y52.277
X13.429 Y52.295
X13.684 Y52.321
X13.946 Y52.355
X14.212 Y52.398
X14.486 Y52.45
X14.77 Y52.513
X15.063 Y52.587
X15.367 Y52.673
X15.676 Y52.771
X15.988 Y52.879
X16.307 Y53.001
X16.635 Y53.137
X16.972 Y53.289
X17.318 Y53.457
X17.672 Y53.642
X18.027 Y53.84
X18.386 Y54.055
X18.753 Y54.29
X19.127 Y54.545
X19.508 Y54.821
X19.895 Y55.12
X20.288 Y55.441
X20.678 Y55.78
X21.071 Y56.142
X21.472 Y56.534
X21.878 Y56.954
X22.287 Y57.403
X22.698 Y57.882
X23.113 Y58.394
X23.523 Y58.933
X23.926 Y59.495
X24.334 Y60.101
X24.747 Y60.755
X25.16 Y61.453
X25.57 Y62.195
X25.976 Y62.985
X26.378 Y63.825
X26.762 Y64.691
X27.139 Y65.615
X27.514 Y66.615
X27.883 Y67.693
X28.24 Y68.848
X28.583 Y70.081
X28.896 Y71.35
