( Made using CamBam - http://www.cambam.co.uk )
( numbers-board.v3 9/14/2020 6:25:28 PM )
( T10 : 2.0 )
G21 G90 G40
G0 Z3.0
( T10 : 2.0 )
T10 M6
( Profile1 )
G17
M3 S1000
G0 X32.1991 Y157.1677
G0 Z1.0
G1 F300.0 Z-0.5
G2 F800.0 X32.14 Y157.045 I-2.7394 J1.2454
G3 X31.3934 Y155.5713 I37.7925 J-20.0719
G2 X30.4993 Y154.023 I-12.6868 J6.2939
G3 X30.4988 Y154.0222 I0.8327 J-0.5537
G2 X29.1245 Y152.1132 I-25.7813 J17.11
G3 X29.1223 Y152.1102 I0.7888 J-0.6147
G2 X27.6169 Y150.452 I-11.2456 J8.696
G3 X27.6113 Y150.4466 I0.6852 J-0.7284
G2 X26.102 Y149.3428 I-4.9396 J5.1704
G3 X26.095 Y149.339 I0.4797 J-0.8774
G2 X24.8293 Y149.0 I-1.3058 J2.3436
G1 X24.825
G1 X24.8143
G1 X24.8037 Y149.0001
G1 X24.7931 Y149.0002
G1 X24.7825 Y149.0003
G1 X24.772 Y149.0004
G1 X24.7615 Y149.0006
G1 X24.751 Y149.0007
G1 X24.7405 Y149.0009
G1 X24.7301 Y149.0011
G1 X24.7197 Y149.0014
G1 X24.7093 Y149.0016
G1 X24.699 Y149.0019
G1 X24.6887 Y149.0022
G1 X24.6784 Y149.0026
G1 X24.6681 Y149.0029
G1 X24.6579 Y149.0033
G1 X24.6477 Y149.0037
G1 X24.6375 Y149.0041
G1 X24.6274 Y149.0045
G1 X24.6172 Y149.005
G1 X24.6072 Y149.0055
G1 X24.5971 Y149.006
G1 X24.5871 Y149.0065
G1 X24.577 Y149.007
G1 X24.5671 Y149.0076
G1 X24.5571 Y149.0082
G1 X24.5472 Y149.0088
G1 X24.5373 Y149.0095
G1 X24.5274 Y149.0101
G1 X24.5176 Y149.0108
G1 X24.5078 Y149.0115
G1 X24.498 Y149.0122
G1 X24.4882 Y149.0129
G1 X24.4785 Y149.0137
G1 X24.4688 Y149.0145
G1 X24.4591 Y149.0153
G1 X24.4495 Y149.0161
G1 X24.4398 Y149.017
G1 X24.4303 Y149.0178
G1 X24.4207 Y149.0187
G1 X24.4112 Y149.0196
G1 X24.4016 Y149.0206
G1 X24.3922 Y149.0215
G1 X24.3827 Y149.0225
G1 X24.3733 Y149.0235
G1 X24.3639 Y149.0245
G1 X24.3545 Y149.0255
G1 X24.3452 Y149.0266
G1 X24.3359 Y149.0277
G1 X24.3266 Y149.0288
G1 X24.3173 Y149.0299
G1 X24.3081 Y149.031
G1 X24.2989 Y149.0322
G1 X24.2897 Y149.0333
G1 X24.2806 Y149.0345
G1 X24.2715 Y149.0358
G1 X24.2624 Y149.037
G1 X24.2533 Y149.0383
G1 X24.2443 Y149.0395
G1 X24.2352 Y149.0408
G1 X24.2263 Y149.0421
G1 X24.2173 Y149.0435
G1 X24.2084 Y149.0448
G1 X24.1995 Y149.0462
G1 X24.1906 Y149.0476
G1 X24.1818 Y149.049
G1 X24.1729 Y149.0505
G1 X24.1641 Y149.0519
G1 X24.1554 Y149.0534
G1 X24.1466 Y149.0549
G1 X24.1379 Y149.0564
G1 X24.1292 Y149.0579
G1 X24.1206 Y149.0595
G1 X24.112 Y149.061
G1 X24.1033 Y149.0626
G1 X24.0948 Y149.0642
G1 X24.0862 Y149.0659
G1 X24.0777 Y149.0675
G1 X24.0692 Y149.0692
G1 X24.0607 Y149.0709
G1 X24.0523 Y149.0726
G1 X24.0439 Y149.0743
G1 X24.0355 Y149.076
G1 X24.0271 Y149.0778
G1 X24.0188 Y149.0795
G1 X24.0105 Y149.0813
G1 X24.0022 Y149.0832
G1 X23.9939 Y149.085
G1 X23.9857 Y149.0868
G1 X23.9775 Y149.0887
G1 X23.9693 Y149.0906
G1 X23.9612 Y149.0925
G1 X23.953 Y149.0944
G1 X23.9449 Y149.0964
G1 X23.9369 Y149.0983
G1 X23.9288 Y149.1003
G1 X23.9208 Y149.1023
G1 X23.9128 Y149.1043
G1 X23.9048 Y149.1063
G1 X23.8969 Y149.1084
G1 X23.8889 Y149.1104
G1 X23.8811 Y149.1125
G1 X23.8732 Y149.1146
G1 X23.8653 Y149.1167
G1 X23.8575 Y149.1189
G1 X23.8497 Y149.121
G1 X23.842 Y149.1232
G1 X23.8342 Y149.1254
G1 X23.8265 Y149.1276
G1 X23.8188 Y149.1298
G1 X23.8111 Y149.1321
G1 X23.8035 Y149.1343
G1 X23.7959 Y149.1366
G1 X23.7883 Y149.1389
G1 X23.7807 Y149.1412
G1 X23.7732 Y149.1435
G1 X23.7657 Y149.1459
G1 X23.7582 Y149.1482
G1 X23.7507 Y149.1506
G1 X23.7432 Y149.153
G1 X23.7358 Y149.1554
G1 X23.7284 Y149.1578
G1 X23.721 Y149.1603
G1 X23.7137 Y149.1628
G1 X23.7064 Y149.1652
G1 X23.6991 Y149.1677
G1 X23.6918 Y149.1702
G1 X23.6845 Y149.1728
G1 X23.6773 Y149.1753
G1 X23.6701 Y149.1779
G1 X23.6629 Y149.1805
G1 X23.6558 Y149.1831
G1 X23.6486 Y149.1857
G1 X23.6415 Y149.1883
G1 X23.6344 Y149.1909
G1 X23.6273 Y149.1936
G1 X23.6203 Y149.1963
G1 X23.6133 Y149.199
G1 X23.6063 Y149.2017
G1 X23.5993 Y149.2044
G1 X23.5923 Y149.2072
G1 X23.5854 Y149.2099
G1 X23.5785 Y149.2127
G1 X23.5716 Y149.2155
G1 X23.5648 Y149.2183
G1 X23.5579 Y149.2211
G1 X23.5511 Y149.224
G1 X23.5443 Y149.2268
G1 X23.5375 Y149.2297
G1 X23.5308 Y149.2326
G1 X23.524 Y149.2355
G1 X23.5173 Y149.2384
G1 X23.5106 Y149.2413
G1 X23.504 Y149.2443
G1 X23.4973 Y149.2473
G1 X23.4907 Y149.2503
G1 X23.4841 Y149.2533
G1 X23.4775 Y149.2563
G1 X23.4709 Y149.2593
G1 X23.4644 Y149.2624
G1 X23.4579 Y149.2654
G1 X23.4514 Y149.2685
G1 X23.4449 Y149.2716
G1 X23.4384 Y149.2747
G1 X23.432 Y149.2779
G1 X23.4255 Y149.281
G1 X23.4191 Y149.2842
G1 X23.4128 Y149.2874
G1 X23.4064 Y149.2905
G1 X23.4001 Y149.2938
G1 X23.3937 Y149.297
G1 X23.3874 Y149.3002
G1 X23.3812 Y149.3035
G1 X23.3749 Y149.3068
G1 X23.3686 Y149.3101
G1 X23.3624 Y149.3134
G1 X23.3562 Y149.3167
G1 X23.35 Y149.32
G1 X23.3439 Y149.3234
G1 X23.3377 Y149.3268
G1 X23.3316 Y149.3302
G1 X23.3255 Y149.3336
G1 X23.3194 Y149.337
G1 X23.3133 Y149.3404
G1 X23.3072 Y149.3439
G1 X23.3012 Y149.3474
G1 X23.2952 Y149.3509
G1 X23.2892 Y149.3544
G1 X23.2832 Y149.3579
G1 X23.2772 Y149.3614
G1 X23.2712 Y149.365
G1 X23.2653 Y149.3686
G1 X23.2594 Y149.3721
G1 X23.2535 Y149.3757
G1 X23.2476 Y149.3794
G1 X23.2417 Y149.383
G1 X23.2359 Y149.3867
G1 X23.23 Y149.3903
G1 X23.2242 Y149.394
G1 X23.2184 Y149.3977
G1 X23.2126 Y149.4015
G1 X23.2069 Y149.4052
G1 X23.2011 Y149.409
G1 X23.1954 Y149.4127
G1 X23.1897 Y149.4165
G1 X23.184 Y149.4203
G1 X23.1783 Y149.4242
G1 X23.1726 Y149.428
G1 X23.1669 Y149.4319
G1 X23.1613 Y149.4357
G1 X23.1557 Y149.4396
G1 X23.1501 Y149.4436
G1 X23.1445 Y149.4475
G1 X23.1389 Y149.4514
G1 X23.1333 Y149.4554
G1 X23.1278 Y149.4594
G1 X23.1222 Y149.4634
G1 X23.1167 Y149.4674
G1 X23.1112 Y149.4715
G1 X23.1057 Y149.4755
G1 X23.1002 Y149.4796
G1 X23.0948 Y149.4837
G1 X23.0893 Y149.4878
G1 X23.0839 Y149.4919
G1 X23.0785 Y149.4961
G1 X23.0731 Y149.5002
G1 X23.0677 Y149.5044
G1 X23.0623 Y149.5086
G1 X23.0569 Y149.5129
G1 X23.0516 Y149.5171
G1 X23.0462 Y149.5214
G1 X23.0409 Y149.5256
G1 X23.0356 Y149.5299
G1 X23.0303 Y149.5342
G1 X23.025 Y149.5386
G1 X23.0197 Y149.5429
G1 X23.0145 Y149.5473
G1 X23.0092 Y149.5517
G1 X23.004 Y149.5561
G1 X22.9988 Y149.5606
G1 X22.9936 Y149.565
G1 X22.9884 Y149.5695
G1 X22.9832 Y149.574
G1 X22.978 Y149.5785
G1 X22.9728 Y149.583
G1 X22.9677 Y149.5876
G1 X22.9626 Y149.5921
G1 X22.9574 Y149.5967
G1 X22.9523 Y149.6014
G1 X22.9472 Y149.606
G1 X22.9421 Y149.6106
G1 X22.9371 Y149.6153
G1 X22.932 Y149.62
G1 X22.9269 Y149.6247
G1 X22.9218 Y149.6296
G1 X22.9164 Y149.6346
G1 X22.911 Y149.6398
G1 X22.9056 Y149.645
G1 X22.9001 Y149.6502
G1 X22.8947 Y149.6554
G1 X22.8894 Y149.6607
G1 X22.884 Y149.6659
G1 X22.8786 Y149.6712
G1 X22.8733 Y149.6765
G1 X22.8679 Y149.6818
G1 X22.8626 Y149.6871
G1 X22.8573 Y149.6924
G1 X22.852 Y149.6978
G1 X22.8467 Y149.7031
G1 X22.8415 Y149.7085
G1 X22.8362 Y149.7139
G1 X22.831 Y149.7193
G1 X22.8257 Y149.7248
G1 X22.8205 Y149.7302
G1 X22.8153 Y149.7357
G1 X22.8101 Y149.7411
G1 X22.805 Y149.7466
G1 X22.7998 Y149.7522
G1 X22.7946 Y149.7577
G1 X22.7895 Y149.7632
G1 X22.7844 Y149.7688
G1 X22.7793 Y149.7744
G1 X22.7742 Y149.78
G1 X22.7691 Y149.7856
G1 X22.764 Y149.7912
G1 X22.7589 Y149.7969
G1 X22.7539 Y149.8025
G1 X22.7489 Y149.8082
G1 X22.7438 Y149.8139
G1 X22.7388 Y149.8196
G1 X22.7338 Y149.8253
G1 X22.7288 Y149.8311
G1 X22.7239 Y149.8368
G1 X22.7189 Y149.8426
G1 X22.714 Y149.8484
G1 X22.709 Y149.8543
G1 X22.7041 Y149.8601
G1 X22.6992 Y149.8659
G1 X22.6943 Y149.8718
G1 X22.6894 Y149.8777
G1 X22.6845 Y149.8836
G1 X22.6797 Y149.8895
G1 X22.6748 Y149.8955
G1 X22.67 Y149.9014
G1 X22.6652 Y149.9074
G1 X22.6603 Y149.9134
G1 X22.6555 Y149.9194
G1 X22.6508 Y149.9254
G1 X22.646 Y149.9315
G1 X22.6412 Y149.9376
G1 X22.6365 Y149.9437
G1 X22.6317 Y149.9498
G1 X22.627 Y149.9559
G1 X22.6223 Y149.962
G1 X22.6176 Y149.9682
G1 X22.6129 Y149.9744
G1 X22.6082 Y149.9806
G1 X22.6035 Y149.9868
G1 X22.5989 Y149.993
G1 X22.5942 Y149.9993
G1 X22.5896 Y150.0055
G1 X22.585 Y150.0118
G1 X22.5804 Y150.0181
G1 X22.5758 Y150.0245
G1 X22.5712 Y150.0308
G1 X22.5666 Y150.0372
G1 X22.562 Y150.0436
G1 X22.5575 Y150.05
G1 X22.5529 Y150.0564
G1 X22.5484 Y150.0628
G1 X22.5439 Y150.0693
G1 X22.5394 Y150.0758
G1 X22.5349 Y150.0823
G1 X22.5304 Y150.0888
G1 X22.526 Y150.0953
G1 X22.5215 Y150.1019
G1 X22.5171 Y150.1085
G1 X22.5126 Y150.1151
G1 X22.5082 Y150.1217
G1 X22.5038 Y150.1283
G1 X22.4994 Y150.135
G1 X22.495 Y150.1417
G1 X22.4906 Y150.1484
G1 X22.4863 Y150.1551
G1 X22.4819 Y150.1618
G1 X22.4776 Y150.1686
G1 X22.4733 Y150.1754
G1 X22.4689 Y150.1822
G1 X22.4646 Y150.189
G1 X22.4603 Y150.1959
G1 X22.4561 Y150.2027
G1 X22.4518 Y150.2096
G1 X22.4475 Y150.2165
G1 X22.4433 Y150.2234
G1 X22.4391 Y150.2304
G1 X22.4348 Y150.2373
G1 X22.4306 Y150.2443
G1 X22.4264 Y150.2513
G1 X22.4222 Y150.2584
G1 X22.4181 Y150.2654
G1 X22.4139 Y150.2725
G1 X22.4097 Y150.2796
G1 X22.4056 Y150.2867
G1 X22.4015 Y150.2938
G1 X22.3974 Y150.301
G1 X22.3932 Y150.3081
G1 X22.3892 Y150.3153
G1 X22.3851 Y150.3225
G1 X22.381 Y150.3298
G1 X22.3769 Y150.337
G1 X22.3729 Y150.3443
G1 X22.3689 Y150.3516
G1 X22.3648 Y150.3589
G1 X22.3608 Y150.3663
G1 X22.3568 Y150.3737
G1 X22.3528 Y150.3811
G1 X22.3489 Y150.3885
G1 X22.3449 Y150.3959
G1 X22.341 Y150.4033
G1 X22.337 Y150.4108
G1 X22.3331 Y150.4183
G1 X22.3292 Y150.4258
G1 X22.3253 Y150.4334
G1 X22.3214 Y150.4409
G1 X22.3175 Y150.4485
G1 X22.3136 Y150.4561
G1 X22.3098 Y150.4638
G1 X22.3059 Y150.4714
G1 X22.3021 Y150.4791
G1 X22.2983 Y150.4868
G1 X22.2945 Y150.4945
G1 X22.2907 Y150.5023
G1 X22.2869 Y150.51
G1 X22.2831 Y150.5178
G1 X22.2793 Y150.5256
G1 X22.2756 Y150.5334
G1 X22.2719 Y150.5413
G1 X22.2681 Y150.5492
G1 X22.2644 Y150.5571
G1 X22.2607 Y150.565
G1 X22.257 Y150.5729
G1 X22.2534 Y150.5809
G1 X22.2497 Y150.5889
G1 X22.2461 Y150.5969
G1 X22.2424 Y150.6049
G1 X22.2388 Y150.613
G1 X22.2352 Y150.6211
G1 X22.2316 Y150.6292
G1 X22.228 Y150.6373
G1 X22.2244 Y150.6455
G1 X22.2209 Y150.6536
G1 X22.2173 Y150.6618
G1 X22.2138 Y150.67
G1 X22.2102 Y150.6783
G1 X22.2067 Y150.6866
G1 X22.2032 Y150.6948
G1 X22.1997 Y150.7032
G1 X22.1963 Y150.7115
G1 X22.1928 Y150.7198
G1 X22.1893 Y150.7282
G1 X22.1859 Y150.7366
G1 X22.1825 Y150.7451
G1 X22.1791 Y150.7535
G1 X22.1757 Y150.762
G1 X22.1723 Y150.7705
G1 X22.1689 Y150.779
G1 X22.1655 Y150.7876
G1 X22.1622 Y150.7961
G1 X22.1589 Y150.8047
G1 X22.1555 Y150.8133
G1 X22.1522 Y150.822
G1 X22.1489 Y150.8306
G1 X22.1456 Y150.8393
G1 X22.1424 Y150.848
G1 X22.1391 Y150.8568
G1 X22.1359 Y150.8655
G1 X22.1326 Y150.8743
G1 X22.1294 Y150.8831
G1 X22.1262 Y150.8919
G1 X22.123 Y150.9008
G1 X22.1198 Y150.9097
G1 X22.1167 Y150.9186
G1 X22.1135 Y150.9275
G1 X22.1104 Y150.9365
G1 X22.1072 Y150.9454
G1 X22.1041 Y150.9544
G1 X22.101 Y150.9634
G1 X22.0979 Y150.9725
G1 X22.0949 Y150.9816
G1 X22.0918 Y150.9907
G1 X22.0887 Y150.9998
G1 X22.0857 Y151.0089
G1 X22.0827 Y151.0181
G1 X22.0797 Y151.0273
G1 X22.0767 Y151.0365
G1 X22.0737 Y151.0457
G1 X22.0707 Y151.055
G1 X22.0678 Y151.0643
G1 X22.0648 Y151.0736
G1 X22.0619 Y151.0829
G1 X22.059 Y151.0923
G1 X22.0561 Y151.1017
G1 X22.0532 Y151.1111
G1 X22.0503 Y151.1205
G1 X22.0475 Y151.13
G1 X22.0446 Y151.1395
G1 X22.0418 Y151.149
G1 X22.039 Y151.1585
G1 X22.0362 Y151.168
G1 X22.0334 Y151.1776
G1 X22.0306 Y151.1872
G1 X22.0279 Y151.1969
G1 X22.0251 Y151.2065
G1 X22.0224 Y151.2162
G1 X22.0197 Y151.2259
G1 X22.017 Y151.2356
G1 X22.0143 Y151.2454
G1 X22.0116 Y151.2551
G1 X22.0089 Y151.2649
G1 X22.0063 Y151.2748
G1 X22.0036 Y151.2846
G1 X22.001 Y151.2945
G1 X21.9984 Y151.3044
G1 X21.9958 Y151.3143
G1 X21.9932 Y151.3243
G1 X21.9907 Y151.3342
G1 X21.9881 Y151.3442
G1 X21.9856 Y151.3543
G1 X21.9831 Y151.3643
G1 X21.9806 Y151.3744
G1 X21.9781 Y151.3845
G1 X21.9756 Y151.3946
G1 X21.9731 Y151.4047
G1 X21.9707 Y151.4149
G1 X21.9683 Y151.4251
G1 X21.9658 Y151.4353
G1 X21.9634 Y151.4456
G1 X21.961 Y151.4558
G1 X21.9587 Y151.4661
G1 X21.9563 Y151.4765
G1 X21.954 Y151.4868
G1 X21.9516 Y151.4972
G1 X21.9493 Y151.5076
G1 X21.947 Y151.518
G1 X21.9447 Y151.5284
G1 X21.9425 Y151.5389
G1 X21.9402 Y151.5494
G1 X21.938 Y151.5599
G1 X21.9357 Y151.5704
G1 X21.9335 Y151.581
G1 X21.9311 Y151.5925
G3 X20.1675 Y152.0095 I-0.9792 J-0.2031
G2 X17.4253 Y149.8004 I-6.2254 J4.9211
G3 X17.4211 Y149.7983 I0.4389 J-0.8985
G2 X13.9663 Y149.0 I-3.4167 J6.9112
G3 X13.9551 I-0.0049 J-1.0
G2 X10.8725 Y149.6504 I-0.0461 J7.4109
G3 X10.8699 Y149.6516 I-0.4097 J-0.9122
G2 X8.3038 Y151.4128 I3.4957 J7.8435
G2 X6.6108 Y153.9755 I5.4815 J5.4616
G3 X6.6093 Y153.9792 I-0.9272 J-0.3746
G2 X6.0 Y157.1232 I7.5903 J3.1021
G3 Y157.133 I-1.0 J0.0051
G2 X6.6092 Y160.2706 I8.1831 J0.0391
G3 X6.6103 Y160.2733 I-0.9255 J0.3786
G2 X8.3119 Y162.8745 I7.4734 J-3.0319
G2 X10.8707 Y164.6566 I5.9562 J-5.8238
G3 X10.8725 Y164.6574 I-0.4078 J0.913
G2 X13.9551 Y165.3079 I3.0364 J-6.7605
G3 X13.9624 I0.0062 J1.0
G2 X17.3004 Y164.5572 I0.0082 J-7.7609
G3 X17.3091 Y164.5532 I0.4291 J0.9033
G2 X20.0307 Y162.4877 I-3.3603 J-7.2535
G3 X21.7915 Y163.1454 I0.7608 J0.649
G3 X21.7307 Y164.1506 I-9.7322 J-0.0843
G1 X21.7306 Y164.1507
G2 X21.7491 Y164.857 I2.545 J0.2869
G3 X21.7512 Y164.8702 I-0.9865 J0.1638
G2 X21.8446 Y165.1417 I0.7918 J-0.1206
G3 X21.882 Y165.141 I0.0382 J0.9993
G2 X22.0166 Y165.0903 I-0.0002 J-0.2045
G3 X22.0318 Y165.0772 I0.659 J0.7522
G1 Y154.0149
G1 Y152.8099
G3 X22.2284 Y151.2987 I5.7488 J-0.0206
G3 X23.0022 Y149.8683 I3.2668 J0.8427
G3 X23.0357 Y149.8333 I0.7389 J0.6738
G3 X24.8676 Y149.1314 I1.7078 J1.7158
G3 X24.8681 I-0.0128 J0.9999
G1 X24.8744 Y149.1315
G3 X24.8782 I-0.0133 J0.9999
G1 X24.8846 Y149.1317
G3 X24.8884 I-0.0171 J0.9999
G1 X24.8948 Y149.1319
G3 X24.8985 I-0.0208 J0.9998
G1 X24.9049 Y149.1321
G3 X24.9087 Y149.1322 I-0.0246 J0.9997
G1 X24.9151 Y149.1324
G3 X24.9189 Y149.1325 I-0.0284 J0.9996
G1 X24.9253 Y149.1327
G3 X24.929 Y149.1328 I-0.0322 J0.9995
G1 X24.9354 Y149.1331
G3 X24.9392 Y149.1332 I-0.0359 J0.9994
G1 X24.9456 Y149.1335
G3 X24.9493 Y149.1336 I-0.0397 J0.9992
G1 X24.9557 Y149.1339
G3 X24.9595 Y149.1341 I-0.0434 J0.9991
G1 X24.9659 Y149.1344
G3 X24.9696 Y149.1346 I-0.0472 J0.9989
G1 X24.976 Y149.1349
G3 X24.9798 Y149.1351 I-0.0509 J0.9987
G1 X24.9862 Y149.1354
G3 X24.9899 Y149.1356 I-0.0547 J0.9985
G1 X24.9963 Y149.136
G3 X25.0 Y149.1362 I-0.0584 J0.9983
G1 X25.0065 Y149.1366
G3 X25.0102 Y149.1369 I-0.0621 J0.9981
G1 X25.0166 Y149.1373
G3 X25.0203 Y149.1376 I-0.0659 J0.9978
G1 X25.0267 Y149.138
G3 X25.0304 Y149.1383 I-0.0696 J0.9976
G1 X25.0369 Y149.1387
G3 X25.0406 Y149.139 I-0.0733 J0.9973
G1 X25.047 Y149.1395
G3 X25.0507 Y149.1398 I-0.077 J0.997
G1 X25.0571 Y149.1403
G3 X25.0608 Y149.1406 I-0.0807 J0.9967
G1 X25.0672 Y149.1412
G3 X25.0709 Y149.1415 I-0.0844 J0.9964
G1 X25.0773 Y149.1421
G3 X25.081 Y149.1424 I-0.0881 J0.9961
G1 X25.0875 Y149.143
G3 X25.0911 Y149.1433 I-0.0917 J0.9958
G1 X25.0976 Y149.144
G3 X25.1012 Y149.1443 I-0.0954 J0.9954
G1 X25.1077 Y149.1449
G3 X25.1113 Y149.1453 I-0.0991 J0.9951
G1 X25.1178 Y149.146
G3 X25.1214 Y149.1464 I-0.1027 J0.9947
G1 X25.1279 Y149.1471
G3 X25.1315 Y149.1475 I-0.1064 J0.9943
G1 X25.138 Y149.1482
G3 X25.1416 Y149.1486 I-0.11 J0.9939
G1 X25.148 Y149.1493
G3 X25.1517 Y149.1497 I-0.1137 J0.9935
G1 X25.1581 Y149.1505
G3 X25.1617 Y149.1509 I-0.1173 J0.9931
G1 X25.1682 Y149.1517
G3 X25.1718 Y149.1522 I-0.1209 J0.9927
G1 X25.1783 Y149.153
G3 X25.1819 Y149.1534 I-0.1245 J0.9922
G1 X25.1883 Y149.1543
G3 X25.1919 Y149.1547 I-0.1281 J0.9918
G1 X25.1984 Y149.1556
G3 X25.202 Y149.1561 I-0.1317 J0.9913
G1 X25.2085 Y149.157
G3 X25.212 Y149.1575 I-0.1353 J0.9908
G1 X25.2185 Y149.1584
G3 X25.2221 Y149.1589 I-0.1389 J0.9903
G1 X25.2286 Y149.1598
G3 X25.2321 Y149.1603 I-0.1425 J0.9898
G1 X25.2386 Y149.1613
G3 X25.2421 Y149.1618 I-0.146 J0.9893
G1 X25.2486 Y149.1628
G3 X25.2522 Y149.1633 I-0.1496 J0.9887
G1 X25.2586 Y149.1643
G3 X25.2622 Y149.1649 I-0.1531 J0.9882
G1 X25.2687 Y149.1659
G3 X25.2722 Y149.1665 I-0.1567 J0.9876
G1 X25.2787 Y149.1675
G3 X25.2822 Y149.1681 I-0.1602 J0.9871
G1 X25.2887 Y149.1692
G3 X25.2922 Y149.1698 I-0.1637 J0.9865
G1 X25.2987 Y149.1709
G3 X25.3022 Y149.1715 I-0.1672 J0.9859
G1 X25.3087 Y149.1726
G3 X25.3122 Y149.1732 I-0.1707 J0.9853
G1 X25.3187 Y149.1744
G3 X25.3222 Y149.175 I-0.1742 J0.9847
G1 X25.3286 Y149.1762
G3 X25.3321 Y149.1768 I-0.1777 J0.9841
G1 X25.3386 Y149.178
G3 X25.3421 Y149.1787 I-0.1812 J0.9834
G1 X25.3486 Y149.1799
G3 X25.352 Y149.1805 I-0.1847 J0.9828
G1 X25.3586 Y149.1818
G3 X25.362 Y149.1824 I-0.1881 J0.9821
G1 X25.3685 Y149.1837
G3 X25.3719 Y149.1844 I-0.1916 J0.9815
G1 X25.3784 Y149.1857
G3 X25.3819 Y149.1864 I-0.195 J0.9808
G1 X25.3884 Y149.1877
G3 X25.3918 Y149.1884 I-0.1984 J0.9801
G1 X25.3983 Y149.1897
G3 X25.4017 Y149.1904 I-0.2018 J0.9794
G1 X25.4082 Y149.1918
G3 X25.4116 Y149.1925 I-0.2052 J0.9787
G1 X25.4182 Y149.1939
G3 X25.4215 Y149.1946 I-0.2086 J0.978
G1 X25.4281 Y149.1961
G3 X25.4314 Y149.1968 I-0.212 J0.9773
G1 X25.438 Y149.1982
G3 X25.4413 Y149.199 I-0.2154 J0.9765
G1 X25.4479 Y149.2004
G3 X25.4512 Y149.2012 I-0.2188 J0.9758
G1 X25.4577 Y149.2027
G3 X25.4611 Y149.2035 I-0.2221 J0.975
G1 X25.4676 Y149.205
G3 X25.471 Y149.2057 I-0.2254 J0.9743
G1 X25.4775 Y149.2073
G3 X25.4808 Y149.2081 I-0.2288 J0.9735
G1 X25.4874 Y149.2096
G3 X25.4907 Y149.2104 I-0.2321 J0.9727
G1 X25.4972 Y149.212
G3 X25.5005 Y149.2128 I-0.2354 J0.9719
G1 X25.507 Y149.2144
G3 X25.5103 Y149.2152 I-0.2387 J0.9711
G1 X25.5169 Y149.2169
G3 X25.5202 Y149.2177 I-0.242 J0.9703
G1 X25.5267 Y149.2194
G3 X25.53 Y149.2202 I-0.2453 J0.9695
G1 X25.5365 Y149.2219
G3 X25.5398 Y149.2227 I-0.2485 J0.9686
G1 X25.5463 Y149.2244
G3 X25.5496 Y149.2253 I-0.2518 J0.9678
G1 X25.5561 Y149.227
G3 X25.5594 Y149.2279 I-0.255 J0.9669
G1 X25.5659 Y149.2296
G3 X25.5692 Y149.2305 I-0.2583 J0.9661
G1 X25.5757 Y149.2323
G3 X25.5789 Y149.2331 I-0.2615 J0.9652
G1 X25.5855 Y149.2349
G3 X25.5887 Y149.2358 I-0.2647 J0.9643
G1 X25.5953 Y149.2376
G3 X25.5985 Y149.2385 I-0.2679 J0.9634
G1 X25.605 Y149.2404
G3 X25.6082 Y149.2413 I-0.2711 J0.9626
G1 X25.6148 Y149.2432
G3 X25.6179 Y149.2441 I-0.2743 J0.9617
G1 X25.6245 Y149.246
G3 X25.6277 Y149.2469 I-0.2774 J0.9607
G1 X25.6343 Y149.2488
G3 X25.6374 Y149.2497 I-0.2806 J0.9598
G1 X25.644 Y149.2517
G3 X25.6471 Y149.2526 I-0.2837 J0.9589
G1 X25.6537 Y149.2546
G3 X25.6568 Y149.2555 I-0.2869 J0.958
G1 X25.6634 Y149.2575
G3 X25.6665 Y149.2585 I-0.29 J0.957
G1 X25.6731 Y149.2605
G3 X25.6762 Y149.2614 I-0.2931 J0.9561
G1 X25.6828 Y149.2635
G3 X25.6859 Y149.2644 I-0.2962 J0.9551
G1 X25.6925 Y149.2665
G3 X25.6955 Y149.2675 I-0.2993 J0.9542
G1 X25.7021 Y149.2696
G3 X25.7052 Y149.2705 I-0.3023 J0.9532
G1 X25.7118 Y149.2727
G3 X25.7148 Y149.2736 I-0.3054 J0.9522
G1 X25.7214 Y149.2758
G3 X25.7245 Y149.2768 I-0.3084 J0.9512
G1 X25.7311 Y149.2789
G3 X25.7341 Y149.2799 I-0.3115 J0.9503
G1 X25.7407 Y149.2821
G3 X25.7437 Y149.2831 I-0.3145 J0.9493
G1 X25.7503 Y149.2853
G3 X25.7533 Y149.2864 I-0.3175 J0.9483
G1 X25.76 Y149.2886
G3 X25.7629 Y149.2896 I-0.3205 J0.9472
G1 X25.7696 Y149.2919
G3 X25.7725 Y149.2929 I-0.3235 J0.9462
G1 X25.7792 Y149.2952
G3 X25.7821 Y149.2962 I-0.3265 J0.9452
G1 X25.7887 Y149.2985
G3 X25.7917 Y149.2996 I-0.3294 J0.9442
G1 X25.7983 Y149.3019
G3 X25.8013 Y149.3029 I-0.3324 J0.9431
G1 X25.8079 Y149.3053
G3 X25.8108 Y149.3063 I-0.3353 J0.9421
G1 X25.8174 Y149.3087
G3 X25.8204 Y149.3098 I-0.3383 J0.941
G1 X25.827 Y149.3122
G3 X25.8299 Y149.3132 I-0.3412 J0.94
G1 X25.8365 Y149.3157
G3 X25.8394 Y149.3167 I-0.3441 J0.9389
G1 X25.8461 Y149.3192
G3 X25.8489 Y149.3203 I-0.347 J0.9379
G1 X25.8556 Y149.3227
G3 X25.8584 Y149.3238 I-0.3499 J0.9368
G1 X25.8651 Y149.3263
G3 X25.8679 Y149.3274 I-0.3527 J0.9357
G1 X25.8746 Y149.3299
G3 X25.8774 Y149.331 I-0.3556 J0.9346
G1 X25.8841 Y149.3336
G3 X25.8869 Y149.3347 I-0.3584 J0.9336
G1 X25.8936 Y149.3372
G3 X25.8964 Y149.3383 I-0.3613 J0.9325
G1 X25.903 Y149.3409
G3 X25.9058 Y149.342 I-0.3641 J0.9314
G1 X25.9125 Y149.3447
G3 X25.9153 Y149.3458 I-0.3669 J0.9303
G1 X25.9219 Y149.3484
G3 X25.9247 Y149.3495 I-0.3697 J0.9292
G1 X25.9314 Y149.3522
G3 X25.9342 Y149.3533 I-0.3725 J0.9281
G1 X25.9408 Y149.356
G3 X25.9436 Y149.3571 I-0.3752 J0.9269
G1 X25.9502 Y149.3599
G3 X25.953 Y149.361 I-0.378 J0.9258
G1 X25.9597 Y149.3637
G3 X25.9624 Y149.3649 I-0.3807 J0.9247
G1 X25.9691 Y149.3676
G3 X25.9718 Y149.3688 I-0.3835 J0.9236
G1 X25.9785 Y149.3716
G3 X25.9812 Y149.3727 I-0.3862 J0.9224
G1 X25.9878 Y149.3755
G3 X25.9905 Y149.3767 I-0.3889 J0.9213
G1 X25.9972 Y149.3795
G3 X25.9999 Y149.3807 I-0.3916 J0.9201
G1 X26.0066 Y149.3835
G3 X26.0093 Y149.3847 I-0.3943 J0.919
G1 X26.0159 Y149.3876
G3 X26.0186 Y149.3887 I-0.3969 J0.9178
G1 X26.0253 Y149.3916
G3 X26.0279 Y149.3928 I-0.3996 J0.9167
G1 X26.0346 Y149.3957
G3 X26.0373 Y149.3969 I-0.4023 J0.9155
G1 X26.044 Y149.3999
G3 X26.0466 Y149.401 I-0.4049 J0.9144
G1 X26.0533 Y149.404
G3 X26.0559 Y149.4052 I-0.4075 J0.9132
G1 X26.0626 Y149.4082
G3 X26.0652 Y149.4094 I-0.4101 J0.912
G1 X26.0719 Y149.4124
G3 X26.0745 Y149.4136 I-0.4127 J0.9109
G1 X26.0812 Y149.4166
G3 X26.0838 Y149.4178 I-0.4153 J0.9097
G1 X26.0905 Y149.4209
G3 X26.093 Y149.4221 I-0.4179 J0.9085
G1 X26.0997 Y149.4252
G3 X26.1023 Y149.4264 I-0.4204 J0.9073
G1 X26.109 Y149.4295
G3 X26.1115 Y149.4307 I-0.423 J0.9061
G1 X26.1183 Y149.4339
G3 X26.1208 Y149.4351 I-0.4255 J0.9049
G1 X26.1275 Y149.4382
G3 X26.13 Y149.4394 I-0.4281 J0.9037
G1 X26.1367 Y149.4426
G3 X26.1392 Y149.4438 I-0.4306 J0.9026
G1 X26.146 Y149.4471
G3 X26.1484 Y149.4483 I-0.4331 J0.9014
G1 X26.1552 Y149.4515
G3 X26.1577 Y149.4527 I-0.4356 J0.9002
G1 X26.1644 Y149.456
G3 X26.1668 Y149.4572 I-0.4381 J0.8989
G1 X26.1736 Y149.4605
G3 X26.176 Y149.4617 I-0.4405 J0.8977
G1 X26.1828 Y149.4651
G3 X26.1852 Y149.4663 I-0.443 J0.8965
G1 X26.1919 Y149.4696
G3 X26.1944 Y149.4708 I-0.4454 J0.8953
G1 X26.2011 Y149.4742
G3 X26.2035 Y149.4754 I-0.4479 J0.8941
G1 X26.2103 Y149.4788
G3 X26.2127 Y149.48 I-0.4503 J0.8929
G1 X26.2194 Y149.4835
G3 X26.2218 Y149.4847 I-0.4527 J0.8917
G1 X26.2286 Y149.4881
G3 X26.231 Y149.4894 I-0.4551 J0.8905
G1 X26.2377 Y149.4928
G3 X26.2401 Y149.494 I-0.4575 J0.8892
G1 X26.2468 Y149.4975
G3 X26.2492 Y149.4988 I-0.4598 J0.888
G1 X26.2559 Y149.5023
G3 X26.2583 Y149.5035 I-0.4622 J0.8868
G1 X26.2651 Y149.5071
G3 X26.2674 Y149.5083 I-0.4645 J0.8855
G1 X26.2741 Y149.5119
G3 X26.2765 Y149.5131 I-0.4669 J0.8843
G1 X26.2832 Y149.5167
G3 X26.2856 Y149.5179 I-0.4692 J0.8831
G1 X26.2923 Y149.5215
G3 X26.2946 Y149.5228 I-0.4715 J0.8819
G1 X26.3014 Y149.5264
G3 X26.3037 Y149.5277 I-0.4738 J0.8806
G1 X26.3104 Y149.5313
G3 X26.3127 Y149.5326 I-0.4761 J0.8794
G1 X26.3195 Y149.5362
G3 X26.3218 Y149.5375 I-0.4784 J0.8781
G1 X26.3285 Y149.5412
G3 X26.3308 Y149.5424 I-0.4807 J0.8769
G1 X26.3376 Y149.5462
G3 X26.3398 Y149.5474 I-0.4829 J0.8757
G1 X26.3466 Y149.5512
G3 X26.3488 Y149.5524 I-0.4852 J0.8744
G1 X26.3556 Y149.5562
G3 X26.3579 Y149.5575 I-0.4874 J0.8732
G1 X26.3646 Y149.5613
G3 X26.3669 Y149.5625 I-0.4896 J0.8719
G1 X26.3736 Y149.5664
G3 X26.3758 Y149.5676 I-0.4918 J0.8707
G1 X26.3826 Y149.5715
G3 X26.3848 Y149.5727 I-0.494 J0.8694
G1 X26.3916 Y149.5766
G3 X26.3938 Y149.5778 I-0.4962 J0.8682
G1 X26.4006 Y149.5817
G3 X26.4028 Y149.583 I-0.4984 J0.8669
G1 X26.4096 Y149.5869
G3 X26.4117 Y149.5882 I-0.5006 J0.8657
G1 X26.4185 Y149.5921
G3 X26.4207 Y149.5934 I-0.5027 J0.8644
G1 X26.4275 Y149.5974
G3 X26.4296 Y149.5986 I-0.5049 J0.8632
G1 X26.4364 Y149.6026
G3 X26.4385 Y149.6039 I-0.507 J0.8619
G1 X26.4453 Y149.6079
G3 X26.4475 Y149.6092 I-0.5091 J0.8607
G1 X26.4543 Y149.6132
G3 X26.4564 Y149.6145 I-0.5113 J0.8594
G1 X26.4632 Y149.6185
G3 X26.4653 Y149.6198 I-0.5134 J0.8582
G1 X26.4721 Y149.6239
G3 X26.4742 Y149.6252 I-0.5155 J0.8569
G1 X26.481 Y149.6293
G3 X26.4831 Y149.6305 I-0.5175 J0.8557
G1 X26.4899 Y149.6347
G3 X26.4919 Y149.6359 I-0.5196 J0.8544
G1 X26.4988 Y149.6401
G3 X26.5008 Y149.6414 I-0.5217 J0.8531
G1 X26.5077 Y149.6456
G3 X26.5097 Y149.6468 I-0.5237 J0.8519
G1 X26.5165 Y149.651
G3 X26.5185 Y149.6523 I-0.5258 J0.8506
G1 X26.5254 Y149.6565
G3 X26.5274 Y149.6578 I-0.5278 J0.8494
G1 X26.5342 Y149.6621
G3 X26.5362 Y149.6633 I-0.5298 J0.8481
G1 X26.5431 Y149.6676
G3 X26.5451 Y149.6689 I-0.5318 J0.8469
G1 X26.5519 Y149.6732
G3 X26.5539 Y149.6745 I-0.5338 J0.8456
G1 X26.5607 Y149.6788
G3 X26.5627 Y149.6801 I-0.5358 J0.8444
G1 X26.5696 Y149.6844
G3 X26.5715 Y149.6857 I-0.5378 J0.8431
G1 X26.5784 Y149.6901
G3 X26.5803 Y149.6913 I-0.5397 J0.8418
G1 X26.5872 Y149.6957
G3 X26.5891 Y149.697 I-0.5417 J0.8406
G1 X26.596 Y149.7014
G3 X26.5979 Y149.7027 I-0.5436 J0.8393
G1 X26.6048 Y149.7072
G3 X26.6067 Y149.7084 I-0.5456 J0.8381
G1 X26.6136 Y149.7129
G3 X26.6155 Y149.7142 I-0.5475 J0.8368
G1 X26.6223 Y149.7187
G3 X26.6242 Y149.7199 I-0.5494 J0.8356
G1 X26.6311 Y149.7245
G3 X26.633 Y149.7257 I-0.5513 J0.8343
G1 X26.6399 Y149.7303
G3 X26.6418 Y149.7315 I-0.5532 J0.8331
G1 X26.6486 Y149.7361
G3 X26.6505 Y149.7374 I-0.5551 J0.8318
G1 X26.6574 Y149.742
G3 X26.6592 Y149.7432 I-0.557 J0.8305
G1 X26.6661 Y149.7479
G3 X26.668 Y149.7491 I-0.5588 J0.8293
G1 X26.6748 Y149.7538
G3 X26.6767 Y149.755 I-0.5607 J0.828
G1 X26.6836 Y149.7597
G3 X26.6854 Y149.761 I-0.5625 J0.8268
G1 X26.6923 Y149.7657
G3 X26.6941 Y149.7669 I-0.5643 J0.8255
G1 X26.701 Y149.7716
G3 X26.7028 Y149.7729 I-0.5662 J0.8243
G1 X26.7097 Y149.7776
G3 X26.7115 Y149.7789 I-0.568 J0.823
G1 X26.7184 Y149.7837
G3 X26.7202 Y149.7849 I-0.5698 J0.8218
G1 X26.7271 Y149.7897
G3 X26.7289 Y149.791 I-0.5716 J0.8205
G1 X26.7358 Y149.7958
G3 X26.7375 Y149.797 I-0.5734 J0.8193
G1 X26.7444 Y149.8019
G3 X26.7462 Y149.8031 I-0.5752 J0.818
G1 X26.7531 Y149.808
G3 X26.7549 Y149.8093 I-0.5769 J0.8168
G1 X26.7618 Y149.8142
G3 X26.7635 Y149.8154 I-0.5787 J0.8156
G1 X26.7704 Y149.8203
G3 X26.7722 Y149.8216 I-0.5804 J0.8143
G1 X26.7791 Y149.8265
G3 X26.7808 Y149.8278 I-0.5822 J0.8131
G1 X26.7877 Y149.8327
G3 X26.7894 Y149.834 I-0.5839 J0.8118
G1 X26.7964 Y149.839
G3 X26.7981 Y149.8402 I-0.5856 J0.8106
G1 X26.805 Y149.8452
G3 X26.8067 Y149.8465 I-0.5873 J0.8093
G1 X26.8136 Y149.8515
G3 X26.8153 Y149.8527 I-0.589 J0.8081
G1 X26.8222 Y149.8578
G3 X26.8239 Y149.859 I-0.5907 J0.8069
G1 X26.8308 Y149.8641
G3 X26.8325 Y149.8654 I-0.5924 J0.8056
G1 X26.8394 Y149.8705
G3 X26.8411 Y149.8717 I-0.5941 J0.8044
G1 X26.848 Y149.8769
G3 X26.8497 Y149.8781 I-0.5958 J0.8032
G1 X26.8566 Y149.8833
G3 X26.8583 Y149.8845 I-0.5974 J0.8019
G1 X26.8652 Y149.8897
G3 X26.8669 Y149.8909 I-0.5991 J0.8007
G1 X26.8738 Y149.8961
G3 X26.8754 Y149.8974 I-0.6007 J0.7995
G1 X26.8824 Y149.9026
G3 X26.884 Y149.9038 I-0.6023 J0.7982
G1 X26.8909 Y149.9091
G3 X26.8925 Y149.9103 I-0.604 J0.797
G1 X26.8995 Y149.9156
G3 X26.9011 Y149.9168 I-0.6056 J0.7958
G1 X26.9081 Y149.9221
G3 X26.9096 Y149.9234 I-0.6072 J0.7946
G1 X26.9166 Y149.9287
G3 X26.9182 Y149.9299 I-0.6088 J0.7934
G1 X26.9251 Y149.9353
G3 X26.9267 Y149.9365 I-0.6104 J0.7921
G1 X26.9337 Y149.9419
G3 X26.9352 Y149.9431 I-0.6119 J0.7909
G1 X26.9422 Y149.9485
G3 X26.9438 Y149.9497 I-0.6135 J0.7897
G1 X26.9507 Y149.9551
G3 X26.9523 Y149.9564 I-0.6151 J0.7885
G1 X26.9593 Y149.9618
G3 X26.9608 Y149.963 I-0.6166 J0.7873
G1 X26.9678 Y149.9685
G3 X26.9693 Y149.9697 I-0.6182 J0.786
G1 X26.9763 Y149.9752
G3 X26.9778 Y149.9764 I-0.6197 J0.7848
G1 X26.9848 Y149.982
G3 X26.9863 Y149.9832 I-0.6212 J0.7836
G1 X26.9933 Y149.9887
G3 X26.9948 Y149.9899 I-0.6228 J0.7824
G1 X27.0018 Y149.9955
G3 X27.0033 Y149.9967 I-0.6243 J0.7812
G1 X27.0103 Y150.0023
G3 X27.0117 Y150.0035 I-0.6258 J0.78
G1 X27.0187 Y150.0091
G3 X27.0202 Y150.0103 I-0.6273 J0.7788
G1 X27.0272 Y150.016
G3 X27.0287 Y150.0172 I-0.6288 J0.7776
G1 X27.0357 Y150.0229
G3 X27.0371 Y150.0241 I-0.6302 J0.7764
G1 X27.0441 Y150.0298
G3 X27.0456 Y150.0309 I-0.6317 J0.7752
G1 X27.0526 Y150.0367
G3 X27.0541 Y150.0379 I-0.6332 J0.774
G1 X27.0611 Y150.0436
G3 X27.0625 Y150.0448 I-0.6346 J0.7728
G1 X27.0695 Y150.0506
G3 X27.0709 Y150.0518 I-0.6361 J0.7716
G1 X27.0779 Y150.0576
G3 X27.0794 Y150.0587 I-0.6375 J0.7704
G1 X27.0864 Y150.0646
G3 X27.0878 Y150.0658 I-0.6389 J0.7692
G1 X27.0948 Y150.0716
G3 X27.0962 Y150.0728 I-0.6404 J0.7681
G1 X27.1032 Y150.0786
G3 X27.1047 Y150.0798 I-0.6418 J0.7669
G1 X27.1117 Y150.0857
G3 X27.1131 Y150.0869 I-0.6432 J0.7657
G1 X27.1201 Y150.0928
G3 X27.1215 Y150.094 I-0.6446 J0.7645
G1 X27.1285 Y150.0999
G3 X27.1299 Y150.1011 I-0.646 J0.7633
G1 X27.1369 Y150.1071
G3 X27.1383 Y150.1082 I-0.6474 J0.7622
G1 X27.1453 Y150.1142
G3 X27.1467 Y150.1154 I-0.6488 J0.761
G1 X27.1537 Y150.1214
G3 X27.1551 Y150.1226 I-0.6501 J0.7598
G1 X27.1621 Y150.1286
G3 X27.1635 Y150.1298 I-0.6515 J0.7586
G1 X27.1705 Y150.1359
G3 X27.1718 Y150.137 I-0.6529 J0.7575
G1 X27.1789 Y150.1431
G3 X27.1802 Y150.1443 I-0.6542 J0.7563
G1 X27.1873 Y150.1504
G3 X27.1886 Y150.1515 I-0.6556 J0.7551
G1 X27.1956 Y150.1577
G3 X27.197 Y150.1588 I-0.6569 J0.754
G1 X27.204 Y150.165
G3 X27.2053 Y150.1662 I-0.6582 J0.7528
G1 X27.2124 Y150.1723
G3 X27.2169 Y150.1764 I-0.6595 J0.7517
G3 X29.0513 Y152.1874 I-8.6233 J9.7076
G3 X30.5455 Y154.5148 I-16.0131 J11.9236
G3 X31.5174 Y156.3479 I-51.9574 J28.7236
G3 X31.5187 Y156.3505 I-0.8915 J0.4529
G2 X31.9955 Y157.2063 I10.6518 J-5.3733
G3 X32.0039 Y157.2204 I-0.8529 J0.5221
G3 X32.0344 Y157.2196 I0.0406 J0.9992
G2 X32.1991 Y157.1677 I-0.003 J-0.2966
G1 F300.0 Z-1.0
G2 F800.0 X32.14 Y157.045 I-2.7394 J1.2454
G3 X31.3934 Y155.5713 I37.7925 J-20.0719
G2 X30.4993 Y154.023 I-12.6868 J6.2939
G3 X30.4988 Y154.0222 I0.8327 J-0.5537
G2 X29.1245 Y152.1132 I-25.7813 J17.11
G3 X29.1223 Y152.1102 I0.7888 J-0.6147
G2 X27.6169 Y150.452 I-11.2456 J8.696
G3 X27.6113 Y150.4466 I0.6852 J-0.7284
G2 X26.102 Y149.3428 I-4.9396 J5.1704
G3 X26.095 Y149.339 I0.4797 J-0.8774
G2 X24.8293 Y149.0 I-1.3058 J2.3436
G1 X24.825
G1 X24.8143
G1 X24.8037 Y149.0001
G1 X24.7931 Y149.0002
G1 X24.7825 Y149.0003
G1 X24.772 Y149.0004
G1 X24.7615 Y149.0006
G1 X24.751 Y149.0007
G1 X24.7405 Y149.0009
G1 X24.7301 Y149.0011
G1 X24.7197 Y149.0014
G1 X24.7093 Y149.0016
G1 X24.699 Y149.0019
G1 X24.6887 Y149.0022
G1 X24.6784 Y149.0026
G1 X24.6681 Y149.0029
G1 X24.6579 Y149.0033
G1 X24.6477 Y149.0037
G1 X24.6375 Y149.0041
G1 X24.6274 Y149.0045
G1 X24.6172 Y149.005
G1 X24.6072 Y149.0055
G1 X24.5971 Y149.006
G1 X24.5871 Y149.0065
G1 X24.577 Y149.007
G1 X24.5671 Y149.0076
G1 X24.5571 Y149.0082
G1 X24.5472 Y149.0088
G1 X24.5373 Y149.0095
G1 X24.5274 Y149.0101
G1 X24.5176 Y149.0108
G1 X24.5078 Y149.0115
G1 X24.498 Y149.0122
G1 X24.4882 Y149.0129
G1 X24.4785 Y149.0137
G1 X24.4688 Y149.0145
G1 X24.4591 Y149.0153
G1 X24.4495 Y149.0161
G1 X24.4398 Y149.017
G1 X24.4303 Y149.0178
G1 X24.4207 Y149.0187
G1 X24.4112 Y149.0196
G1 X24.4016 Y149.0206
G1 X24.3922 Y149.0215
G1 X24.3827 Y149.0225
G1 X24.3733 Y149.0235
G1 X24.3639 Y149.0245
G1 X24.3545 Y149.0255
G1 X24.3452 Y149.0266
G1 X24.3359 Y149.0277
G1 X24.3266 Y149.0288
G1 X24.3173 Y149.0299
G1 X24.3081 Y149.031
G1 X24.2989 Y149.0322
G1 X24.2897 Y149.0333
G1 X24.2806 Y149.0345
G1 X24.2715 Y149.0358
G1 X24.2624 Y149.037
G1 X24.2533 Y149.0383
G1 X24.2443 Y149.0395
G1 X24.2352 Y149.0408
G1 X24.2263 Y149.0421
G1 X24.2173 Y149.0435
G1 X24.2084 Y149.0448
G1 X24.1995 Y149.0462
G1 X24.1906 Y149.0476
G1 X24.1818 Y149.049
G1 X24.1729 Y149.0505
G1 X24.1641 Y149.0519
G1 X24.1554 Y149.0534
G1 X24.1466 Y149.0549
G1 X24.1379 Y149.0564
G1 X24.1292 Y149.0579
G1 X24.1206 Y149.0595
G1 X24.112 Y149.061
G1 X24.1033 Y149.0626
G1 X24.0948 Y149.0642
G1 X24.0862 Y149.0659
G1 X24.0777 Y149.0675
G1 X24.0692 Y149.0692
G1 X24.0607 Y149.0709
G1 X24.0523 Y149.0726
G1 X24.0439 Y149.0743
G1 X24.0355 Y149.076
G1 X24.0271 Y149.0778
G1 X24.0188 Y149.0795
G1 X24.0105 Y149.0813
G1 X24.0022 Y149.0832
G1 X23.9939 Y149.085
G1 X23.9857 Y149.0868
G1 X23.9775 Y149.0887
G1 X23.9693 Y149.0906
G1 X23.9612 Y149.0925
G1 X23.953 Y149.0944
G1 X23.9449 Y149.0964
G1 X23.9369 Y149.0983
G1 X23.9288 Y149.1003
G1 X23.9208 Y149.1023
G1 X23.9128 Y149.1043
G1 X23.9048 Y149.1063
G1 X23.8969 Y149.1084
G1 X23.8889 Y149.1104
G1 X23.8811 Y149.1125
G1 X23.8732 Y149.1146
G1 X23.8653 Y149.1167
G1 X23.8575 Y149.1189
G1 X23.8497 Y149.121
G1 X23.842 Y149.1232
G1 X23.8342 Y149.1254
G1 X23.8265 Y149.1276
G1 X23.8188 Y149.1298
G1 X23.8111 Y149.1321
G1 X23.8035 Y149.1343
G1 X23.7959 Y149.1366
G1 X23.7883 Y149.1389
G1 X23.7807 Y149.1412
G1 X23.7732 Y149.1435
G1 X23.7657 Y149.1459
G1 X23.7582 Y149.1482
G1 X23.7507 Y149.1506
G1 X23.7432 Y149.153
G1 X23.7358 Y149.1554
G1 X23.7284 Y149.1578
G1 X23.721 Y149.1603
G1 X23.7137 Y149.1628
G1 X23.7064 Y149.1652
G1 X23.6991 Y149.1677
G1 X23.6918 Y149.1702
G1 X23.6845 Y149.1728
G1 X23.6773 Y149.1753
G1 X23.6701 Y149.1779
G1 X23.6629 Y149.1805
G1 X23.6558 Y149.1831
G1 X23.6486 Y149.1857
G1 X23.6415 Y149.1883
G1 X23.6344 Y149.1909
G1 X23.6273 Y149.1936
G1 X23.6203 Y149.1963
G1 X23.6133 Y149.199
G1 X23.6063 Y149.2017
G1 X23.5993 Y149.2044
G1 X23.5923 Y149.2072
G1 X23.5854 Y149.2099
G1 X23.5785 Y149.2127
G1 X23.5716 Y149.2155
G1 X23.5648 Y149.2183
G1 X23.5579 Y149.2211
G1 X23.5511 Y149.224
G1 X23.5443 Y149.2268
G1 X23.5375 Y149.2297
G1 X23.5308 Y149.2326
G1 X23.524 Y149.2355
G1 X23.5173 Y149.2384
G1 X23.5106 Y149.2413
G1 X23.504 Y149.2443
G1 X23.4973 Y149.2473
G1 X23.4907 Y149.2503
G1 X23.4841 Y149.2533
G1 X23.4775 Y149.2563
G1 X23.4709 Y149.2593
G1 X23.4644 Y149.2624
G1 X23.4579 Y149.2654
G1 X23.4514 Y149.2685
G1 X23.4449 Y149.2716
G1 X23.4384 Y149.2747
G1 X23.432 Y149.2779
G1 X23.4255 Y149.281
G1 X23.4191 Y149.2842
G1 X23.4128 Y149.2874
G1 X23.4064 Y149.2905
G1 X23.4001 Y149.2938
G1 X23.3937 Y149.297
G1 X23.3874 Y149.3002
G1 X23.3812 Y149.3035
G1 X23.3749 Y149.3068
G1 X23.3686 Y149.3101
G1 X23.3624 Y149.3134
G1 X23.3562 Y149.3167
G1 X23.35 Y149.32
G1 X23.3439 Y149.3234
G1 X23.3377 Y149.3268
G1 X23.3316 Y149.3302
G1 X23.3255 Y149.3336
G1 X23.3194 Y149.337
G1 X23.3133 Y149.3404
G1 X23.3072 Y149.3439
G1 X23.3012 Y149.3474
G1 X23.2952 Y149.3509
G1 X23.2892 Y149.3544
G1 X23.2832 Y149.3579
G1 X23.2772 Y149.3614
G1 X23.2712 Y149.365
G1 X23.2653 Y149.3686
G1 X23.2594 Y149.3721
G1 X23.2535 Y149.3757
G1 X23.2476 Y149.3794
G1 X23.2417 Y149.383
G1 X23.2359 Y149.3867
G1 X23.23 Y149.3903
G1 X23.2242 Y149.394
G1 X23.2184 Y149.3977
G1 X23.2126 Y149.4015
G1 X23.2069 Y149.4052
G1 X23.2011 Y149.409
G1 X23.1954 Y149.4127
G1 X23.1897 Y149.4165
G1 X23.184 Y149.4203
G1 X23.1783 Y149.4242
G1 X23.1726 Y149.428
G1 X23.1669 Y149.4319
G1 X23.1613 Y149.4357
G1 X23.1557 Y149.4396
G1 X23.1501 Y149.4436
G1 X23.1445 Y149.4475
G1 X23.1389 Y149.4514
G1 X23.1333 Y149.4554
G1 X23.1278 Y149.4594
G1 X23.1222 Y149.4634
G1 X23.1167 Y149.4674
G1 X23.1112 Y149.4715
G1 X23.1057 Y149.4755
G1 X23.1002 Y149.4796
G1 X23.0948 Y149.4837
G1 X23.0893 Y149.4878
G1 X23.0839 Y149.4919
G1 X23.0785 Y149.4961
G1 X23.0731 Y149.5002
G1 X23.0677 Y149.5044
G1 X23.0623 Y149.5086
G1 X23.0569 Y149.5129
G1 X23.0516 Y149.5171
G1 X23.0462 Y149.5214
G1 X23.0409 Y149.5256
G1 X23.0356 Y149.5299
G1 X23.0303 Y149.5342
G1 X23.025 Y149.5386
G1 X23.0197 Y149.5429
G1 X23.0145 Y149.5473
G1 X23.0092 Y149.5517
G1 X23.004 Y149.5561
G1 X22.9988 Y149.5606
G1 X22.9936 Y149.565
G1 X22.9884 Y149.5695
G1 X22.9832 Y149.574
G1 X22.978 Y149.5785
G1 X22.9728 Y149.583
G1 X22.9677 Y149.5876
G1 X22.9626 Y149.5921
G1 X22.9574 Y149.5967
G1 X22.9523 Y149.6014
G1 X22.9472 Y149.606
G1 X22.9421 Y149.6106
G1 X22.9371 Y149.6153
G1 X22.932 Y149.62
G1 X22.9269 Y149.6247
G1 X22.9218 Y149.6296
G1 X22.9164 Y149.6346
G1 X22.911 Y149.6398
G1 X22.9056 Y149.645
G1 X22.9001 Y149.6502
G1 X22.8947 Y149.6554
G1 X22.8894 Y149.6607
G1 X22.884 Y149.6659
G1 X22.8786 Y149.6712
G1 X22.8733 Y149.6765
G1 X22.8679 Y149.6818
G1 X22.8626 Y149.6871
G1 X22.8573 Y149.6924
G1 X22.852 Y149.6978
G1 X22.8467 Y149.7031
G1 X22.8415 Y149.7085
G1 X22.8362 Y149.7139
G1 X22.831 Y149.7193
G1 X22.8257 Y149.7248
G1 X22.8205 Y149.7302
G1 X22.8153 Y149.7357
G1 X22.8101 Y149.7411
G1 X22.805 Y149.7466
G1 X22.7998 Y149.7522
G1 X22.7946 Y149.7577
G1 X22.7895 Y149.7632
G1 X22.7844 Y149.7688
G1 X22.7793 Y149.7744
G1 X22.7742 Y149.78
G1 X22.7691 Y149.7856
G1 X22.764 Y149.7912
G1 X22.7589 Y149.7969
G1 X22.7539 Y149.8025
G1 X22.7489 Y149.8082
G1 X22.7438 Y149.8139
G1 X22.7388 Y149.8196
G1 X22.7338 Y149.8253
G1 X22.7288 Y149.8311
G1 X22.7239 Y149.8368
G1 X22.7189 Y149.8426
G1 X22.714 Y149.8484
G1 X22.709 Y149.8543
G1 X22.7041 Y149.8601
G1 X22.6992 Y149.8659
G1 X22.6943 Y149.8718
G1 X22.6894 Y149.8777
G1 X22.6845 Y149.8836
G1 X22.6797 Y149.8895
G1 X22.6748 Y149.8955
G1 X22.67 Y149.9014
G1 X22.6652 Y149.9074
G1 X22.6603 Y149.9134
G1 X22.6555 Y149.9194
G1 X22.6508 Y149.9254
G1 X22.646 Y149.9315
G1 X22.6412 Y149.9376
G1 X22.6365 Y149.9437
G1 X22.6317 Y149.9498
G1 X22.627 Y149.9559
G1 X22.6223 Y149.962
G1 X22.6176 Y149.9682
G1 X22.6129 Y149.9744
G1 X22.6082 Y149.9806
G1 X22.6035 Y149.9868
G1 X22.5989 Y149.993
G1 X22.5942 Y149.9993
G1 X22.5896 Y150.0055
G1 X22.585 Y150.0118
G1 X22.5804 Y150.0181
G1 X22.5758 Y150.0245
G1 X22.5712 Y150.0308
G1 X22.5666 Y150.0372
G1 X22.562 Y150.0436
G1 X22.5575 Y150.05
G1 X22.5529 Y150.0564
G1 X22.5484 Y150.0628
G1 X22.5439 Y150.0693
G1 X22.5394 Y150.0758
G1 X22.5349 Y150.0823
G1 X22.5304 Y150.0888
G1 X22.526 Y150.0953
G1 X22.5215 Y150.1019
G1 X22.5171 Y150.1085
G1 X22.5126 Y150.1151
G1 X22.5082 Y150.1217
G1 X22.5038 Y150.1283
G1 X22.4994 Y150.135
G1 X22.495 Y150.1417
G1 X22.4906 Y150.1484
G1 X22.4863 Y150.1551
G1 X22.4819 Y150.1618
G1 X22.4776 Y150.1686
G1 X22.4733 Y150.1754
G1 X22.4689 Y150.1822
G1 X22.4646 Y150.189
G1 X22.4603 Y150.1959
G1 X22.4561 Y150.2027
G1 X22.4518 Y150.2096
G1 X22.4475 Y150.2165
G1 X22.4433 Y150.2234
G1 X22.4391 Y150.2304
G1 X22.4348 Y150.2373
G1 X22.4306 Y150.2443
G1 X22.4264 Y150.2513
G1 X22.4222 Y150.2584
G1 X22.4181 Y150.2654
G1 X22.4139 Y150.2725
G1 X22.4097 Y150.2796
G1 X22.4056 Y150.2867
G1 X22.4015 Y150.2938
G1 X22.3974 Y150.301
G1 X22.3932 Y150.3081
G1 X22.3892 Y150.3153
G1 X22.3851 Y150.3225
G1 X22.381 Y150.3298
G1 X22.3769 Y150.337
G1 X22.3729 Y150.3443
G1 X22.3689 Y150.3516
G1 X22.3648 Y150.3589
G1 X22.3608 Y150.3663
G1 X22.3568 Y150.3737
G1 X22.3528 Y150.3811
G1 X22.3489 Y150.3885
G1 X22.3449 Y150.3959
G1 X22.341 Y150.4033
G1 X22.337 Y150.4108
G1 X22.3331 Y150.4183
G1 X22.3292 Y150.4258
G1 X22.3253 Y150.4334
G1 X22.3214 Y150.4409
G1 X22.3175 Y150.4485
G1 X22.3136 Y150.4561
G1 X22.3098 Y150.4638
G1 X22.3059 Y150.4714
G1 X22.3021 Y150.4791
G1 X22.2983 Y150.4868
G1 X22.2945 Y150.4945
G1 X22.2907 Y150.5023
G1 X22.2869 Y150.51
G1 X22.2831 Y150.5178
G1 X22.2793 Y150.5256
G1 X22.2756 Y150.5334
G1 X22.2719 Y150.5413
G1 X22.2681 Y150.5492
G1 X22.2644 Y150.5571
G1 X22.2607 Y150.565
G1 X22.257 Y150.5729
G1 X22.2534 Y150.5809
G1 X22.2497 Y150.5889
G1 X22.2461 Y150.5969
G1 X22.2424 Y150.6049
G1 X22.2388 Y150.613
G1 X22.2352 Y150.6211
G1 X22.2316 Y150.6292
G1 X22.228 Y150.6373
G1 X22.2244 Y150.6455
G1 X22.2209 Y150.6536
G1 X22.2173 Y150.6618
G1 X22.2138 Y150.67
G1 X22.2102 Y150.6783
G1 X22.2067 Y150.6866
G1 X22.2032 Y150.6948
G1 X22.1997 Y150.7032
G1 X22.1963 Y150.7115
G1 X22.1928 Y150.7198
G1 X22.1893 Y150.7282
G1 X22.1859 Y150.7366
G1 X22.1825 Y150.7451
G1 X22.1791 Y150.7535
G1 X22.1757 Y150.762
G1 X22.1723 Y150.7705
G1 X22.1689 Y150.779
G1 X22.1655 Y150.7876
G1 X22.1622 Y150.7961
G1 X22.1589 Y150.8047
G1 X22.1555 Y150.8133
G1 X22.1522 Y150.822
G1 X22.1489 Y150.8306
G1 X22.1456 Y150.8393
G1 X22.1424 Y150.848
G1 X22.1391 Y150.8568
G1 X22.1359 Y150.8655
G1 X22.1326 Y150.8743
G1 X22.1294 Y150.8831
G1 X22.1262 Y150.8919
G1 X22.123 Y150.9008
G1 X22.1198 Y150.9097
G1 X22.1167 Y150.9186
G1 X22.1135 Y150.9275
G1 X22.1104 Y150.9365
G1 X22.1072 Y150.9454
G1 X22.1041 Y150.9544
G1 X22.101 Y150.9634
G1 X22.0979 Y150.9725
G1 X22.0949 Y150.9816
G1 X22.0918 Y150.9907
G1 X22.0887 Y150.9998
G1 X22.0857 Y151.0089
G1 X22.0827 Y151.0181
G1 X22.0797 Y151.0273
G1 X22.0767 Y151.0365
G1 X22.0737 Y151.0457
G1 X22.0707 Y151.055
G1 X22.0678 Y151.0643
G1 X22.0648 Y151.0736
G1 X22.0619 Y151.0829
G1 X22.059 Y151.0923
G1 X22.0561 Y151.1017
G1 X22.0532 Y151.1111
G1 X22.0503 Y151.1205
G1 X22.0475 Y151.13
G1 X22.0446 Y151.1395
G1 X22.0418 Y151.149
G1 X22.039 Y151.1585
G1 X22.0362 Y151.168
G1 X22.0334 Y151.1776
G1 X22.0306 Y151.1872
G1 X22.0279 Y151.1969
G1 X22.0251 Y151.2065
G1 X22.0224 Y151.2162
G1 X22.0197 Y151.2259
G1 X22.017 Y151.2356
G1 X22.0143 Y151.2454
G1 X22.0116 Y151.2551
G1 X22.0089 Y151.2649
G1 X22.0063 Y151.2748
G1 X22.0036 Y151.2846
G1 X22.001 Y151.2945
G1 X21.9984 Y151.3044
G1 X21.9958 Y151.3143
G1 X21.9932 Y151.3243
G1 X21.9907 Y151.3342
G1 X21.9881 Y151.3442
G1 X21.9856 Y151.3543
G1 X21.9831 Y151.3643
G1 X21.9806 Y151.3744
G1 X21.9781 Y151.3845
G1 X21.9756 Y151.3946
G1 X21.9731 Y151.4047
G1 X21.9707 Y151.4149
G1 X21.9683 Y151.4251
G1 X21.9658 Y151.4353
G1 X21.9634 Y151.4456
G1 X21.961 Y151.4558
G1 X21.9587 Y151.4661
G1 X21.9563 Y151.4765
G1 X21.954 Y151.4868
G1 X21.9516 Y151.4972
G1 X21.9493 Y151.5076
G1 X21.947 Y151.518
G1 X21.9447 Y151.5284
G1 X21.9425 Y151.5389
G1 X21.9402 Y151.5494
G1 X21.938 Y151.5599
G1 X21.9357 Y151.5704
G1 X21.9335 Y151.581
G1 X21.9311 Y151.5925
G3 X20.1675 Y152.0095 I-0.9792 J-0.2031
G2 X17.4253 Y149.8004 I-6.2254 J4.9211
G3 X17.4211 Y149.7983 I0.4389 J-0.8985
G2 X13.9663 Y149.0 I-3.4167 J6.9112
G3 X13.9551 I-0.0049 J-1.0
G2 X10.8725 Y149.6504 I-0.0461 J7.4109
G3 X10.8699 Y149.6516 I-0.4097 J-0.9122
G2 X8.3038 Y151.4128 I3.4957 J7.8435
G2 X6.6108 Y153.9755 I5.4815 J5.4616
G3 X6.6093 Y153.9792 I-0.9272 J-0.3746
G2 X6.0 Y157.1232 I7.5903 J3.1021
G3 Y157.133 I-1.0 J0.0051
G2 X6.6092 Y160.2706 I8.1831 J0.0391
G3 X6.6103 Y160.2733 I-0.9255 J0.3786
G2 X8.3119 Y162.8745 I7.4734 J-3.0319
G2 X10.8707 Y164.6566 I5.9562 J-5.8238
G3 X10.8725 Y164.6574 I-0.4078 J0.913
G2 X13.9551 Y165.3079 I3.0364 J-6.7605
G3 X13.9624 I0.0062 J1.0
G2 X17.3004 Y164.5572 I0.0082 J-7.7609
G3 X17.3091 Y164.5532 I0.4291 J0.9033
G2 X20.0307 Y162.4877 I-3.3603 J-7.2535
G3 X21.7915 Y163.1454 I0.7608 J0.649
G3 X21.7307 Y164.1506 I-9.7322 J-0.0843
G1 X21.7306 Y164.1507
G2 X21.7491 Y164.857 I2.545 J0.2869
G3 X21.7512 Y164.8702 I-0.9865 J0.1638
G2 X21.8446 Y165.1417 I0.7918 J-0.1206
G3 X21.882 Y165.141 I0.0382 J0.9993
G2 X22.0166 Y165.0903 I-0.0002 J-0.2045
G3 X22.0318 Y165.0772 I0.659 J0.7522
G1 Y154.0149
G1 Y152.8099
G3 X22.2284 Y151.2987 I5.7488 J-0.0206
G3 X23.0022 Y149.8683 I3.2668 J0.8427
G3 X23.0357 Y149.8333 I0.7389 J0.6738
G3 X24.8676 Y149.1314 I1.7078 J1.7158
G3 X24.8681 I-0.0128 J0.9999
G1 X24.8744 Y149.1315
G3 X24.8782 I-0.0133 J0.9999
G1 X24.8846 Y149.1317
G3 X24.8884 I-0.0171 J0.9999
G1 X24.8948 Y149.1319
G3 X24.8985 I-0.0208 J0.9998
G1 X24.9049 Y149.1321
G3 X24.9087 Y149.1322 I-0.0246 J0.9997
G1 X24.9151 Y149.1324
G3 X24.9189 Y149.1325 I-0.0284 J0.9996
G1 X24.9253 Y149.1327
G3 X24.929 Y149.1328 I-0.0322 J0.9995
G1 X24.9354 Y149.1331
G3 X24.9392 Y149.1332 I-0.0359 J0.9994
G1 X24.9456 Y149.1335
G3 X24.9493 Y149.1336 I-0.0397 J0.9992
G1 X24.9557 Y149.1339
G3 X24.9595 Y149.1341 I-0.0434 J0.9991
G1 X24.9659 Y149.1344
G3 X24.9696 Y149.1346 I-0.0472 J0.9989
G1 X24.976 Y149.1349
G3 X24.9798 Y149.1351 I-0.0509 J0.9987
G1 X24.9862 Y149.1354
G3 X24.9899 Y149.1356 I-0.0547 J0.9985
G1 X24.9963 Y149.136
G3 X25.0 Y149.1362 I-0.0584 J0.9983
G1 X25.0065 Y149.1366
G3 X25.0102 Y149.1369 I-0.0621 J0.9981
G1 X25.0166 Y149.1373
G3 X25.0203 Y149.1376 I-0.0659 J0.9978
G1 X25.0267 Y149.138
G3 X25.0304 Y149.1383 I-0.0696 J0.9976
G1 X25.0369 Y149.1387
G3 X25.0406 Y149.139 I-0.0733 J0.9973
G1 X25.047 Y149.1395
G3 X25.0507 Y149.1398 I-0.077 J0.997
G1 X25.0571 Y149.1403
G3 X25.0608 Y149.1406 I-0.0807 J0.9967
G1 X25.0672 Y149.1412
G3 X25.0709 Y149.1415 I-0.0844 J0.9964
G1 X25.0773 Y149.1421
G3 X25.081 Y149.1424 I-0.0881 J0.9961
G1 X25.0875 Y149.143
G3 X25.0911 Y149.1433 I-0.0917 J0.9958
G1 X25.0976 Y149.144
G3 X25.1012 Y149.1443 I-0.0954 J0.9954
G1 X25.1077 Y149.1449
G3 X25.1113 Y149.1453 I-0.0991 J0.9951
G1 X25.1178 Y149.146
G3 X25.1214 Y149.1464 I-0.1027 J0.9947
G1 X25.1279 Y149.1471
G3 X25.1315 Y149.1475 I-0.1064 J0.9943
G1 X25.138 Y149.1482
G3 X25.1416 Y149.1486 I-0.11 J0.9939
G1 X25.148 Y149.1493
G3 X25.1517 Y149.1497 I-0.1137 J0.9935
G1 X25.1581 Y149.1505
G3 X25.1617 Y149.1509 I-0.1173 J0.9931
G1 X25.1682 Y149.1517
G3 X25.1718 Y149.1522 I-0.1209 J0.9927
G1 X25.1783 Y149.153
G3 X25.1819 Y149.1534 I-0.1245 J0.9922
G1 X25.1883 Y149.1543
G3 X25.1919 Y149.1547 I-0.1281 J0.9918
G1 X25.1984 Y149.1556
G3 X25.202 Y149.1561 I-0.1317 J0.9913
G1 X25.2085 Y149.157
G3 X25.212 Y149.1575 I-0.1353 J0.9908
G1 X25.2185 Y149.1584
G3 X25.2221 Y149.1589 I-0.1389 J0.9903
G1 X25.2286 Y149.1598
G3 X25.2321 Y149.1603 I-0.1425 J0.9898
G1 X25.2386 Y149.1613
G3 X25.2421 Y149.1618 I-0.146 J0.9893
G1 X25.2486 Y149.1628
G3 X25.2522 Y149.1633 I-0.1496 J0.9887
G1 X25.2586 Y149.1643
G3 X25.2622 Y149.1649 I-0.1531 J0.9882
G1 X25.2687 Y149.1659
G3 X25.2722 Y149.1665 I-0.1567 J0.9876
G1 X25.2787 Y149.1675
G3 X25.2822 Y149.1681 I-0.1602 J0.9871
G1 X25.2887 Y149.1692
G3 X25.2922 Y149.1698 I-0.1637 J0.9865
G1 X25.2987 Y149.1709
G3 X25.3022 Y149.1715 I-0.1672 J0.9859
G1 X25.3087 Y149.1726
G3 X25.3122 Y149.1732 I-0.1707 J0.9853
G1 X25.3187 Y149.1744
G3 X25.3222 Y149.175 I-0.1742 J0.9847
G1 X25.3286 Y149.1762
G3 X25.3321 Y149.1768 I-0.1777 J0.9841
G1 X25.3386 Y149.178
G3 X25.3421 Y149.1787 I-0.1812 J0.9834
G1 X25.3486 Y149.1799
G3 X25.352 Y149.1805 I-0.1847 J0.9828
G1 X25.3586 Y149.1818
G3 X25.362 Y149.1824 I-0.1881 J0.9821
G1 X25.3685 Y149.1837
G3 X25.3719 Y149.1844 I-0.1916 J0.9815
G1 X25.3784 Y149.1857
G3 X25.3819 Y149.1864 I-0.195 J0.9808
G1 X25.3884 Y149.1877
G3 X25.3918 Y149.1884 I-0.1984 J0.9801
G1 X25.3983 Y149.1897
G3 X25.4017 Y149.1904 I-0.2018 J0.9794
G1 X25.4082 Y149.1918
G3 X25.4116 Y149.1925 I-0.2052 J0.9787
G1 X25.4182 Y149.1939
G3 X25.4215 Y149.1946 I-0.2086 J0.978
G1 X25.4281 Y149.1961
G3 X25.4314 Y149.1968 I-0.212 J0.9773
G1 X25.438 Y149.1982
G3 X25.4413 Y149.199 I-0.2154 J0.9765
G1 X25.4479 Y149.2004
G3 X25.4512 Y149.2012 I-0.2188 J0.9758
G1 X25.4577 Y149.2027
G3 X25.4611 Y149.2035 I-0.2221 J0.975
G1 X25.4676 Y149.205
G3 X25.471 Y149.2057 I-0.2254 J0.9743
G1 X25.4775 Y149.2073
G3 X25.4808 Y149.2081 I-0.2288 J0.9735
G1 X25.4874 Y149.2096
G3 X25.4907 Y149.2104 I-0.2321 J0.9727
G1 X25.4972 Y149.212
G3 X25.5005 Y149.2128 I-0.2354 J0.9719
G1 X25.507 Y149.2144
G3 X25.5103 Y149.2152 I-0.2387 J0.9711
G1 X25.5169 Y149.2169
G3 X25.5202 Y149.2177 I-0.242 J0.9703
G1 X25.5267 Y149.2194
G3 X25.53 Y149.2202 I-0.2453 J0.9695
G1 X25.5365 Y149.2219
G3 X25.5398 Y149.2227 I-0.2485 J0.9686
G1 X25.5463 Y149.2244
G3 X25.5496 Y149.2253 I-0.2518 J0.9678
G1 X25.5561 Y149.227
G3 X25.5594 Y149.2279 I-0.255 J0.9669
G1 X25.5659 Y149.2296
G3 X25.5692 Y149.2305 I-0.2583 J0.9661
G1 X25.5757 Y149.2323
G3 X25.5789 Y149.2331 I-0.2615 J0.9652
G1 X25.5855 Y149.2349
G3 X25.5887 Y149.2358 I-0.2647 J0.9643
G1 X25.5953 Y149.2376
G3 X25.5985 Y149.2385 I-0.2679 J0.9634
G1 X25.605 Y149.2404
G3 X25.6082 Y149.2413 I-0.2711 J0.9626
G1 X25.6148 Y149.2432
G3 X25.6179 Y149.2441 I-0.2743 J0.9617
G1 X25.6245 Y149.246
G3 X25.6277 Y149.2469 I-0.2774 J0.9607
G1 X25.6343 Y149.2488
G3 X25.6374 Y149.2497 I-0.2806 J0.9598
G1 X25.644 Y149.2517
G3 X25.6471 Y149.2526 I-0.2837 J0.9589
G1 X25.6537 Y149.2546
G3 X25.6568 Y149.2555 I-0.2869 J0.958
G1 X25.6634 Y149.2575
G3 X25.6665 Y149.2585 I-0.29 J0.957
G1 X25.6731 Y149.2605
G3 X25.6762 Y149.2614 I-0.2931 J0.9561
G1 X25.6828 Y149.2635
G3 X25.6859 Y149.2644 I-0.2962 J0.9551
G1 X25.6925 Y149.2665
G3 X25.6955 Y149.2675 I-0.2993 J0.9542
G1 X25.7021 Y149.2696
G3 X25.7052 Y149.2705 I-0.3023 J0.9532
G1 X25.7118 Y149.2727
G3 X25.7148 Y149.2736 I-0.3054 J0.9522
G1 X25.7214 Y149.2758
G3 X25.7245 Y149.2768 I-0.3084 J0.9512
G1 X25.7311 Y149.2789
G3 X25.7341 Y149.2799 I-0.3115 J0.9503
G1 X25.7407 Y149.2821
G3 X25.7437 Y149.2831 I-0.3145 J0.9493
G1 X25.7503 Y149.2853
G3 X25.7533 Y149.2864 I-0.3175 J0.9483
G1 X25.76 Y149.2886
G3 X25.7629 Y149.2896 I-0.3205 J0.9472
G1 X25.7696 Y149.2919
G3 X25.7725 Y149.2929 I-0.3235 J0.9462
G1 X25.7792 Y149.2952
G3 X25.7821 Y149.2962 I-0.3265 J0.9452
G1 X25.7887 Y149.2985
G3 X25.7917 Y149.2996 I-0.3294 J0.9442
G1 X25.7983 Y149.3019
G3 X25.8013 Y149.3029 I-0.3324 J0.9431
G1 X25.8079 Y149.3053
G3 X25.8108 Y149.3063 I-0.3353 J0.9421
G1 X25.8174 Y149.3087
G3 X25.8204 Y149.3098 I-0.3383 J0.941
G1 X25.827 Y149.3122
G3 X25.8299 Y149.3132 I-0.3412 J0.94
G1 X25.8365 Y149.3157
G3 X25.8394 Y149.3167 I-0.3441 J0.9389
G1 X25.8461 Y149.3192
G3 X25.8489 Y149.3203 I-0.347 J0.9379
G1 X25.8556 Y149.3227
G3 X25.8584 Y149.3238 I-0.3499 J0.9368
G1 X25.8651 Y149.3263
G3 X25.8679 Y149.3274 I-0.3527 J0.9357
G1 X25.8746 Y149.3299
G3 X25.8774 Y149.331 I-0.3556 J0.9346
G1 X25.8841 Y149.3336
G3 X25.8869 Y149.3347 I-0.3584 J0.9336
G1 X25.8936 Y149.3372
G3 X25.8964 Y149.3383 I-0.3613 J0.9325
G1 X25.903 Y149.3409
G3 X25.9058 Y149.342 I-0.3641 J0.9314
G1 X25.9125 Y149.3447
G3 X25.9153 Y149.3458 I-0.3669 J0.9303
G1 X25.9219 Y149.3484
G3 X25.9247 Y149.3495 I-0.3697 J0.9292
G1 X25.9314 Y149.3522
G3 X25.9342 Y149.3533 I-0.3725 J0.9281
G1 X25.9408 Y149.356
G3 X25.9436 Y149.3571 I-0.3752 J0.9269
G1 X25.9502 Y149.3599
G3 X25.953 Y149.361 I-0.378 J0.9258
G1 X25.9597 Y149.3637
G3 X25.9624 Y149.3649 I-0.3807 J0.9247
G1 X25.9691 Y149.3676
G3 X25.9718 Y149.3688 I-0.3835 J0.9236
G1 X25.9785 Y149.3716
G3 X25.9812 Y149.3727 I-0.3862 J0.9224
G1 X25.9878 Y149.3755
G3 X25.9905 Y149.3767 I-0.3889 J0.9213
G1 X25.9972 Y149.3795
G3 X25.9999 Y149.3807 I-0.3916 J0.9201
G1 X26.0066 Y149.3835
G3 X26.0093 Y149.3847 I-0.3943 J0.919
G1 X26.0159 Y149.3876
G3 X26.0186 Y149.3887 I-0.3969 J0.9178
G1 X26.0253 Y149.3916
G3 X26.0279 Y149.3928 I-0.3996 J0.9167
G1 X26.0346 Y149.3957
G3 X26.0373 Y149.3969 I-0.4023 J0.9155
G1 X26.044 Y149.3999
G3 X26.0466 Y149.401 I-0.4049 J0.9144
G1 X26.0533 Y149.404
G3 X26.0559 Y149.4052 I-0.4075 J0.9132
G1 X26.0626 Y149.4082
G3 X26.0652 Y149.4094 I-0.4101 J0.912
G1 X26.0719 Y149.4124
G3 X26.0745 Y149.4136 I-0.4127 J0.9109
G1 X26.0812 Y149.4166
G3 X26.0838 Y149.4178 I-0.4153 J0.9097
G1 X26.0905 Y149.4209
G3 X26.093 Y149.4221 I-0.4179 J0.9085
G1 X26.0997 Y149.4252
G3 X26.1023 Y149.4264 I-0.4204 J0.9073
G1 X26.109 Y149.4295
G3 X26.1115 Y149.4307 I-0.423 J0.9061
G1 X26.1183 Y149.4339
G3 X26.1208 Y149.4351 I-0.4255 J0.9049
G1 X26.1275 Y149.4382
G3 X26.13 Y149.4394 I-0.4281 J0.9037
G1 X26.1367 Y149.4426
G3 X26.1392 Y149.4438 I-0.4306 J0.9026
G1 X26.146 Y149.4471
G3 X26.1484 Y149.4483 I-0.4331 J0.9014
G1 X26.1552 Y149.4515
G3 X26.1577 Y149.4527 I-0.4356 J0.9002
G1 X26.1644 Y149.456
G3 X26.1668 Y149.4572 I-0.4381 J0.8989
G1 X26.1736 Y149.4605
G3 X26.176 Y149.4617 I-0.4405 J0.8977
G1 X26.1828 Y149.4651
G3 X26.1852 Y149.4663 I-0.443 J0.8965
G1 X26.1919 Y149.4696
G3 X26.1944 Y149.4708 I-0.4454 J0.8953
G1 X26.2011 Y149.4742
G3 X26.2035 Y149.4754 I-0.4479 J0.8941
G1 X26.2103 Y149.4788
G3 X26.2127 Y149.48 I-0.4503 J0.8929
G1 X26.2194 Y149.4835
G3 X26.2218 Y149.4847 I-0.4527 J0.8917
G1 X26.2286 Y149.4881
G3 X26.231 Y149.4894 I-0.4551 J0.8905
G1 X26.2377 Y149.4928
G3 X26.2401 Y149.494 I-0.4575 J0.8892
G1 X26.2468 Y149.4975
G3 X26.2492 Y149.4988 I-0.4598 J0.888
G1 X26.2559 Y149.5023
G3 X26.2583 Y149.5035 I-0.4622 J0.8868
G1 X26.2651 Y149.5071
G3 X26.2674 Y149.5083 I-0.4645 J0.8855
G1 X26.2741 Y149.5119
G3 X26.2765 Y149.5131 I-0.4669 J0.8843
G1 X26.2832 Y149.5167
G3 X26.2856 Y149.5179 I-0.4692 J0.8831
G1 X26.2923 Y149.5215
G3 X26.2946 Y149.5228 I-0.4715 J0.8819
G1 X26.3014 Y149.5264
G3 X26.3037 Y149.5277 I-0.4738 J0.8806
G1 X26.3104 Y149.5313
G3 X26.3127 Y149.5326 I-0.4761 J0.8794
G1 X26.3195 Y149.5362
G3 X26.3218 Y149.5375 I-0.4784 J0.8781
G1 X26.3285 Y149.5412
G3 X26.3308 Y149.5424 I-0.4807 J0.8769
G1 X26.3376 Y149.5462
G3 X26.3398 Y149.5474 I-0.4829 J0.8757
G1 X26.3466 Y149.5512
G3 X26.3488 Y149.5524 I-0.4852 J0.8744
G1 X26.3556 Y149.5562
G3 X26.3579 Y149.5575 I-0.4874 J0.8732
G1 X26.3646 Y149.5613
G3 X26.3669 Y149.5625 I-0.4896 J0.8719
G1 X26.3736 Y149.5664
G3 X26.3758 Y149.5676 I-0.4918 J0.8707
G1 X26.3826 Y149.5715
G3 X26.3848 Y149.5727 I-0.494 J0.8694
G1 X26.3916 Y149.5766
G3 X26.3938 Y149.5778 I-0.4962 J0.8682
G1 X26.4006 Y149.5817
G3 X26.4028 Y149.583 I-0.4984 J0.8669
G1 X26.4096 Y149.5869
G3 X26.4117 Y149.5882 I-0.5006 J0.8657
G1 X26.4185 Y149.5921
G3 X26.4207 Y149.5934 I-0.5027 J0.8644
G1 X26.4275 Y149.5974
G3 X26.4296 Y149.5986 I-0.5049 J0.8632
G1 X26.4364 Y149.6026
G3 X26.4385 Y149.6039 I-0.507 J0.8619
G1 X26.4453 Y149.6079
G3 X26.4475 Y149.6092 I-0.5091 J0.8607
G1 X26.4543 Y149.6132
G3 X26.4564 Y149.6145 I-0.5113 J0.8594
G1 X26.4632 Y149.6185
G3 X26.4653 Y149.6198 I-0.5134 J0.8582
G1 X26.4721 Y149.6239
G3 X26.4742 Y149.6252 I-0.5155 J0.8569
G1 X26.481 Y149.6293
G3 X26.4831 Y149.6305 I-0.5175 J0.8557
G1 X26.4899 Y149.6347
G3 X26.4919 Y149.6359 I-0.5196 J0.8544
G1 X26.4988 Y149.6401
G3 X26.5008 Y149.6414 I-0.5217 J0.8531
G1 X26.5077 Y149.6456
G3 X26.5097 Y149.6468 I-0.5237 J0.8519
G1 X26.5165 Y149.651
G3 X26.5185 Y149.6523 I-0.5258 J0.8506
G1 X26.5254 Y149.6565
G3 X26.5274 Y149.6578 I-0.5278 J0.8494
G1 X26.5342 Y149.6621
G3 X26.5362 Y149.6633 I-0.5298 J0.8481
G1 X26.5431 Y149.6676
G3 X26.5451 Y149.6689 I-0.5318 J0.8469
G1 X26.5519 Y149.6732
G3 X26.5539 Y149.6745 I-0.5338 J0.8456
G1 X26.5607 Y149.6788
G3 X26.5627 Y149.6801 I-0.5358 J0.8444
G1 X26.5696 Y149.6844
G3 X26.5715 Y149.6857 I-0.5378 J0.8431
G1 X26.5784 Y149.6901
G3 X26.5803 Y149.6913 I-0.5397 J0.8418
G1 X26.5872 Y149.6957
G3 X26.5891 Y149.697 I-0.5417 J0.8406
G1 X26.596 Y149.7014
G3 X26.5979 Y149.7027 I-0.5436 J0.8393
G1 X26.6048 Y149.7072
G3 X26.6067 Y149.7084 I-0.5456 J0.8381
G1 X26.6136 Y149.7129
G3 X26.6155 Y149.7142 I-0.5475 J0.8368
G1 X26.6223 Y149.7187
G3 X26.6242 Y149.7199 I-0.5494 J0.8356
G1 X26.6311 Y149.7245
G3 X26.633 Y149.7257 I-0.5513 J0.8343
G1 X26.6399 Y149.7303
G3 X26.6418 Y149.7315 I-0.5532 J0.8331
G1 X26.6486 Y149.7361
G3 X26.6505 Y149.7374 I-0.5551 J0.8318
G1 X26.6574 Y149.742
G3 X26.6592 Y149.7432 I-0.557 J0.8305
G1 X26.6661 Y149.7479
G3 X26.668 Y149.7491 I-0.5588 J0.8293
G1 X26.6748 Y149.7538
G3 X26.6767 Y149.755 I-0.5607 J0.828
G1 X26.6836 Y149.7597
G3 X26.6854 Y149.761 I-0.5625 J0.8268
G1 X26.6923 Y149.7657
G3 X26.6941 Y149.7669 I-0.5643 J0.8255
G1 X26.701 Y149.7716
G3 X26.7028 Y149.7729 I-0.5662 J0.8243
G1 X26.7097 Y149.7776
G3 X26.7115 Y149.7789 I-0.568 J0.823
G1 X26.7184 Y149.7837
G3 X26.7202 Y149.7849 I-0.5698 J0.8218
G1 X26.7271 Y149.7897
G3 X26.7289 Y149.791 I-0.5716 J0.8205
G1 X26.7358 Y149.7958
G3 X26.7375 Y149.797 I-0.5734 J0.8193
G1 X26.7444 Y149.8019
G3 X26.7462 Y149.8031 I-0.5752 J0.818
G1 X26.7531 Y149.808
G3 X26.7549 Y149.8093 I-0.5769 J0.8168
G1 X26.7618 Y149.8142
G3 X26.7635 Y149.8154 I-0.5787 J0.8156
G1 X26.7704 Y149.8203
G3 X26.7722 Y149.8216 I-0.5804 J0.8143
G1 X26.7791 Y149.8265
G3 X26.7808 Y149.8278 I-0.5822 J0.8131
G1 X26.7877 Y149.8327
G3 X26.7894 Y149.834 I-0.5839 J0.8118
G1 X26.7964 Y149.839
G3 X26.7981 Y149.8402 I-0.5856 J0.8106
G1 X26.805 Y149.8452
G3 X26.8067 Y149.8465 I-0.5873 J0.8093
G1 X26.8136 Y149.8515
G3 X26.8153 Y149.8527 I-0.589 J0.8081
G1 X26.8222 Y149.8578
G3 X26.8239 Y149.859 I-0.5907 J0.8069
G1 X26.8308 Y149.8641
G3 X26.8325 Y149.8654 I-0.5924 J0.8056
G1 X26.8394 Y149.8705
G3 X26.8411 Y149.8717 I-0.5941 J0.8044
G1 X26.848 Y149.8769
G3 X26.8497 Y149.8781 I-0.5958 J0.8032
G1 X26.8566 Y149.8833
G3 X26.8583 Y149.8845 I-0.5974 J0.8019
G1 X26.8652 Y149.8897
G3 X26.8669 Y149.8909 I-0.5991 J0.8007
G1 X26.8738 Y149.8961
G3 X26.8754 Y149.8974 I-0.6007 J0.7995
G1 X26.8824 Y149.9026
G3 X26.884 Y149.9038 I-0.6023 J0.7982
G1 X26.8909 Y149.9091
G3 X26.8925 Y149.9103 I-0.604 J0.797
G1 X26.8995 Y149.9156
G3 X26.9011 Y149.9168 I-0.6056 J0.7958
G1 X26.9081 Y149.9221
G3 X26.9096 Y149.9234 I-0.6072 J0.7946
G1 X26.9166 Y149.9287
G3 X26.9182 Y149.9299 I-0.6088 J0.7934
G1 X26.9251 Y149.9353
G3 X26.9267 Y149.9365 I-0.6104 J0.7921
G1 X26.9337 Y149.9419
G3 X26.9352 Y149.9431 I-0.6119 J0.7909
G1 X26.9422 Y149.9485
G3 X26.9438 Y149.9497 I-0.6135 J0.7897
G1 X26.9507 Y149.9551
G3 X26.9523 Y149.9564 I-0.6151 J0.7885
G1 X26.9593 Y149.9618
G3 X26.9608 Y149.963 I-0.6166 J0.7873
G1 X26.9678 Y149.9685
G3 X26.9693 Y149.9697 I-0.6182 J0.786
G1 X26.9763 Y149.9752
G3 X26.9778 Y149.9764 I-0.6197 J0.7848
G1 X26.9848 Y149.982
G3 X26.9863 Y149.9832 I-0.6212 J0.7836
G1 X26.9933 Y149.9887
G3 X26.9948 Y149.9899 I-0.6228 J0.7824
G1 X27.0018 Y149.9955
G3 X27.0033 Y149.9967 I-0.6243 J0.7812
G1 X27.0103 Y150.0023
G3 X27.0117 Y150.0035 I-0.6258 J0.78
G1 X27.0187 Y150.0091
G3 X27.0202 Y150.0103 I-0.6273 J0.7788
G1 X27.0272 Y150.016
G3 X27.0287 Y150.0172 I-0.6288 J0.7776
G1 X27.0357 Y150.0229
G3 X27.0371 Y150.0241 I-0.6302 J0.7764
G1 X27.0441 Y150.0298
G3 X27.0456 Y150.0309 I-0.6317 J0.7752
G1 X27.0526 Y150.0367
G3 X27.0541 Y150.0379 I-0.6332 J0.774
G1 X27.0611 Y150.0436
G3 X27.0625 Y150.0448 I-0.6346 J0.7728
G1 X27.0695 Y150.0506
G3 X27.0709 Y150.0518 I-0.6361 J0.7716
G1 X27.0779 Y150.0576
G3 X27.0794 Y150.0587 I-0.6375 J0.7704
G1 X27.0864 Y150.0646
G3 X27.0878 Y150.0658 I-0.6389 J0.7692
G1 X27.0948 Y150.0716
G3 X27.0962 Y150.0728 I-0.6404 J0.7681
G1 X27.1032 Y150.0786
G3 X27.1047 Y150.0798 I-0.6418 J0.7669
G1 X27.1117 Y150.0857
G3 X27.1131 Y150.0869 I-0.6432 J0.7657
G1 X27.1201 Y150.0928
G3 X27.1215 Y150.094 I-0.6446 J0.7645
G1 X27.1285 Y150.0999
G3 X27.1299 Y150.1011 I-0.646 J0.7633
G1 X27.1369 Y150.1071
G3 X27.1383 Y150.1082 I-0.6474 J0.7622
G1 X27.1453 Y150.1142
G3 X27.1467 Y150.1154 I-0.6488 J0.761
G1 X27.1537 Y150.1214
G3 X27.1551 Y150.1226 I-0.6501 J0.7598
G1 X27.1621 Y150.1286
G3 X27.1635 Y150.1298 I-0.6515 J0.7586
G1 X27.1705 Y150.1359
G3 X27.1718 Y150.137 I-0.6529 J0.7575
G1 X27.1789 Y150.1431
G3 X27.1802 Y150.1443 I-0.6542 J0.7563
G1 X27.1873 Y150.1504
G3 X27.1886 Y150.1515 I-0.6556 J0.7551
G1 X27.1956 Y150.1577
G3 X27.197 Y150.1588 I-0.6569 J0.754
G1 X27.204 Y150.165
G3 X27.2053 Y150.1662 I-0.6582 J0.7528
G1 X27.2124 Y150.1723
G3 X27.2169 Y150.1764 I-0.6595 J0.7517
G3 X29.0513 Y152.1874 I-8.6233 J9.7076
G3 X30.5455 Y154.5148 I-16.0131 J11.9236
G3 X31.5174 Y156.3479 I-51.9574 J28.7236
G3 X31.5187 Y156.3505 I-0.8915 J0.4529
G2 X31.9955 Y157.2063 I10.6518 J-5.3733
G3 X32.0039 Y157.2204 I-0.8529 J0.5221
G3 X32.0344 Y157.2196 I0.0406 J0.9992
G2 X32.1991 Y157.1677 I-0.003 J-0.2966
G1 F300.0 Z-1.5
G2 F800.0 X32.14 Y157.045 I-2.7394 J1.2454
G3 X31.3934 Y155.5713 I37.7925 J-20.0719
G2 X30.4993 Y154.023 I-12.6868 J6.2939
G3 X30.4988 Y154.0222 I0.8327 J-0.5537
G2 X29.1245 Y152.1132 I-25.7813 J17.11
G3 X29.1223 Y152.1102 I0.7888 J-0.6147
G2 X27.6169 Y150.452 I-11.2456 J8.696
G3 X27.6113 Y150.4466 I0.6852 J-0.7284
G2 X26.102 Y149.3428 I-4.9396 J5.1704
G3 X26.095 Y149.339 I0.4797 J-0.8774
G2 X24.8293 Y149.0 I-1.3058 J2.3436
G1 X24.825
G1 X24.8143
G1 X24.8037 Y149.0001
G1 X24.7931 Y149.0002
G1 X24.7825 Y149.0003
G1 X24.772 Y149.0004
G1 X24.7615 Y149.0006
G1 X24.751 Y149.0007
G1 X24.7405 Y149.0009
G1 X24.7301 Y149.0011
G1 X24.7197 Y149.0014
G1 X24.7093 Y149.0016
G1 X24.699 Y149.0019
G1 X24.6887 Y149.0022
G1 X24.6784 Y149.0026
G1 X24.6681 Y149.0029
G1 X24.6579 Y149.0033
G1 X24.6477 Y149.0037
G1 X24.6375 Y149.0041
G1 X24.6274 Y149.0045
G1 X24.6172 Y149.005
G1 X24.6072 Y149.0055
G1 X24.5971 Y149.006
G1 X24.5871 Y149.0065
G1 X24.577 Y149.007
G1 X24.5671 Y149.0076
G1 X24.5571 Y149.0082
G1 X24.5472 Y149.0088
G1 X24.5373 Y149.0095
G1 X24.5274 Y149.0101
G1 X24.5176 Y149.0108
G1 X24.5078 Y149.0115
G1 X24.498 Y149.0122
G1 X24.4882 Y149.0129
G1 X24.4785 Y149.0137
G1 X24.4688 Y149.0145
G1 X24.4591 Y149.0153
G1 X24.4495 Y149.0161
G1 X24.4398 Y149.017
G1 X24.4303 Y149.0178
G1 X24.4207 Y149.0187
G1 X24.4112 Y149.0196
G1 X24.4016 Y149.0206
G1 X24.3922 Y149.0215
G1 X24.3827 Y149.0225
G1 X24.3733 Y149.0235
G1 X24.3639 Y149.0245
G1 X24.3545 Y149.0255
G1 X24.3452 Y149.0266
G1 X24.3359 Y149.0277
G1 X24.3266 Y149.0288
G1 X24.3173 Y149.0299
G1 X24.3081 Y149.031
G1 X24.2989 Y149.0322
G1 X24.2897 Y149.0333
G1 X24.2806 Y149.0345
G1 X24.2715 Y149.0358
G1 X24.2624 Y149.037
G1 X24.2533 Y149.0383
G1 X24.2443 Y149.0395
G1 X24.2352 Y149.0408
G1 X24.2263 Y149.0421
G1 X24.2173 Y149.0435
G1 X24.2084 Y149.0448
G1 X24.1995 Y149.0462
G1 X24.1906 Y149.0476
G1 X24.1818 Y149.049
G1 X24.1729 Y149.0505
G1 X24.1641 Y149.0519
G1 X24.1554 Y149.0534
G1 X24.1466 Y149.0549
G1 X24.1379 Y149.0564
G1 X24.1292 Y149.0579
G1 X24.1206 Y149.0595
G1 X24.112 Y149.061
G1 X24.1033 Y149.0626
G1 X24.0948 Y149.0642
G1 X24.0862 Y149.0659
G1 X24.0777 Y149.0675
G1 X24.0692 Y149.0692
G1 X24.0607 Y149.0709
G1 X24.0523 Y149.0726
G1 X24.0439 Y149.0743
G1 X24.0355 Y149.076
G1 X24.0271 Y149.0778
G1 X24.0188 Y149.0795
G1 X24.0105 Y149.0813
G1 X24.0022 Y149.0832
G1 X23.9939 Y149.085
G1 X23.9857 Y149.0868
G1 X23.9775 Y149.0887
G1 X23.9693 Y149.0906
G1 X23.9612 Y149.0925
G1 X23.953 Y149.0944
G1 X23.9449 Y149.0964
G1 X23.9369 Y149.0983
G1 X23.9288 Y149.1003
G1 X23.9208 Y149.1023
G1 X23.9128 Y149.1043
G1 X23.9048 Y149.1063
G1 X23.8969 Y149.1084
G1 X23.8889 Y149.1104
G1 X23.8811 Y149.1125
G1 X23.8732 Y149.1146
G1 X23.8653 Y149.1167
G1 X23.8575 Y149.1189
G1 X23.8497 Y149.121
G1 X23.842 Y149.1232
G1 X23.8342 Y149.1254
G1 X23.8265 Y149.1276
G1 X23.8188 Y149.1298
G1 X23.8111 Y149.1321
G1 X23.8035 Y149.1343
G1 X23.7959 Y149.1366
G1 X23.7883 Y149.1389
G1 X23.7807 Y149.1412
G1 X23.7732 Y149.1435
G1 X23.7657 Y149.1459
G1 X23.7582 Y149.1482
G1 X23.7507 Y149.1506
G1 X23.7432 Y149.153
G1 X23.7358 Y149.1554
G1 X23.7284 Y149.1578
G1 X23.721 Y149.1603
G1 X23.7137 Y149.1628
G1 X23.7064 Y149.1652
G1 X23.6991 Y149.1677
G1 X23.6918 Y149.1702
G1 X23.6845 Y149.1728
G1 X23.6773 Y149.1753
G1 X23.6701 Y149.1779
G1 X23.6629 Y149.1805
G1 X23.6558 Y149.1831
G1 X23.6486 Y149.1857
G1 X23.6415 Y149.1883
G1 X23.6344 Y149.1909
G1 X23.6273 Y149.1936
G1 X23.6203 Y149.1963
G1 X23.6133 Y149.199
G1 X23.6063 Y149.2017
G1 X23.5993 Y149.2044
G1 X23.5923 Y149.2072
G1 X23.5854 Y149.2099
G1 X23.5785 Y149.2127
G1 X23.5716 Y149.2155
G1 X23.5648 Y149.2183
G1 X23.5579 Y149.2211
G1 X23.5511 Y149.224
G1 X23.5443 Y149.2268
G1 X23.5375 Y149.2297
G1 X23.5308 Y149.2326
G1 X23.524 Y149.2355
G1 X23.5173 Y149.2384
G1 X23.5106 Y149.2413
G1 X23.504 Y149.2443
G1 X23.4973 Y149.2473
G1 X23.4907 Y149.2503
G1 X23.4841 Y149.2533
G1 X23.4775 Y149.2563
G1 X23.4709 Y149.2593
G1 X23.4644 Y149.2624
G1 X23.4579 Y149.2654
G1 X23.4514 Y149.2685
G1 X23.4449 Y149.2716
G1 X23.4384 Y149.2747
G1 X23.432 Y149.2779
G1 X23.4255 Y149.281
G1 X23.4191 Y149.2842
G1 X23.4128 Y149.2874
G1 X23.4064 Y149.2905
G1 X23.4001 Y149.2938
G1 X23.3937 Y149.297
G1 X23.3874 Y149.3002
G1 X23.3812 Y149.3035
G1 X23.3749 Y149.3068
G1 X23.3686 Y149.3101
G1 X23.3624 Y149.3134
G1 X23.3562 Y149.3167
G1 X23.35 Y149.32
G1 X23.3439 Y149.3234
G1 X23.3377 Y149.3268
G1 X23.3316 Y149.3302
G1 X23.3255 Y149.3336
G1 X23.3194 Y149.337
G1 X23.3133 Y149.3404
G1 X23.3072 Y149.3439
G1 X23.3012 Y149.3474
G1 X23.2952 Y149.3509
G1 X23.2892 Y149.3544
G1 X23.2832 Y149.3579
G1 X23.2772 Y149.3614
G1 X23.2712 Y149.365
G1 X23.2653 Y149.3686
G1 X23.2594 Y149.3721
G1 X23.2535 Y149.3757
G1 X23.2476 Y149.3794
G1 X23.2417 Y149.383
G1 X23.2359 Y149.3867
G1 X23.23 Y149.3903
G1 X23.2242 Y149.394
G1 X23.2184 Y149.3977
G1 X23.2126 Y149.4015
G1 X23.2069 Y149.4052
G1 X23.2011 Y149.409
G1 X23.1954 Y149.4127
G1 X23.1897 Y149.4165
G1 X23.184 Y149.4203
G1 X23.1783 Y149.4242
G1 X23.1726 Y149.428
G1 X23.1669 Y149.4319
G1 X23.1613 Y149.4357
G1 X23.1557 Y149.4396
G1 X23.1501 Y149.4436
G1 X23.1445 Y149.4475
G1 X23.1389 Y149.4514
G1 X23.1333 Y149.4554
G1 X23.1278 Y149.4594
G1 X23.1222 Y149.4634
G1 X23.1167 Y149.4674
G1 X23.1112 Y149.4715
G1 X23.1057 Y149.4755
G1 X23.1002 Y149.4796
G1 X23.0948 Y149.4837
G1 X23.0893 Y149.4878
G1 X23.0839 Y149.4919
G1 X23.0785 Y149.4961
G1 X23.0731 Y149.5002
G1 X23.0677 Y149.5044
G1 X23.0623 Y149.5086
G1 X23.0569 Y149.5129
G1 X23.0516 Y149.5171
G1 X23.0462 Y149.5214
G1 X23.0409 Y149.5256
G1 X23.0356 Y149.5299
G1 X23.0303 Y149.5342
G1 X23.025 Y149.5386
G1 X23.0197 Y149.5429
G1 X23.0145 Y149.5473
G1 X23.0092 Y149.5517
G1 X23.004 Y149.5561
G1 X22.9988 Y149.5606
G1 X22.9936 Y149.565
G1 X22.9884 Y149.5695
G1 X22.9832 Y149.574
G1 X22.978 Y149.5785
G1 X22.9728 Y149.583
G1 X22.9677 Y149.5876
G1 X22.9626 Y149.5921
G1 X22.9574 Y149.5967
G1 X22.9523 Y149.6014
G1 X22.9472 Y149.606
G1 X22.9421 Y149.6106
G1 X22.9371 Y149.6153
G1 X22.932 Y149.62
G1 X22.9269 Y149.6247
G1 X22.9218 Y149.6296
G1 X22.9164 Y149.6346
G1 X22.911 Y149.6398
G1 X22.9056 Y149.645
G1 X22.9001 Y149.6502
G1 X22.8947 Y149.6554
G1 X22.8894 Y149.6607
G1 X22.884 Y149.6659
G1 X22.8786 Y149.6712
G1 X22.8733 Y149.6765
G1 X22.8679 Y149.6818
G1 X22.8626 Y149.6871
G1 X22.8573 Y149.6924
G1 X22.852 Y149.6978
G1 X22.8467 Y149.7031
G1 X22.8415 Y149.7085
G1 X22.8362 Y149.7139
G1 X22.831 Y149.7193
G1 X22.8257 Y149.7248
G1 X22.8205 Y149.7302
G1 X22.8153 Y149.7357
G1 X22.8101 Y149.7411
G1 X22.805 Y149.7466
G1 X22.7998 Y149.7522
G1 X22.7946 Y149.7577
G1 X22.7895 Y149.7632
G1 X22.7844 Y149.7688
G1 X22.7793 Y149.7744
G1 X22.7742 Y149.78
G1 X22.7691 Y149.7856
G1 X22.764 Y149.7912
G1 X22.7589 Y149.7969
G1 X22.7539 Y149.8025
G1 X22.7489 Y149.8082
G1 X22.7438 Y149.8139
G1 X22.7388 Y149.8196
G1 X22.7338 Y149.8253
G1 X22.7288 Y149.8311
G1 X22.7239 Y149.8368
G1 X22.7189 Y149.8426
G1 X22.714 Y149.8484
G1 X22.709 Y149.8543
G1 X22.7041 Y149.8601
G1 X22.6992 Y149.8659
G1 X22.6943 Y149.8718
G1 X22.6894 Y149.8777
G1 X22.6845 Y149.8836
G1 X22.6797 Y149.8895
G1 X22.6748 Y149.8955
G1 X22.67 Y149.9014
G1 X22.6652 Y149.9074
G1 X22.6603 Y149.9134
G1 X22.6555 Y149.9194
G1 X22.6508 Y149.9254
G1 X22.646 Y149.9315
G1 X22.6412 Y149.9376
G1 X22.6365 Y149.9437
G1 X22.6317 Y149.9498
G1 X22.627 Y149.9559
G1 X22.6223 Y149.962
G1 X22.6176 Y149.9682
G1 X22.6129 Y149.9744
G1 X22.6082 Y149.9806
G1 X22.6035 Y149.9868
G1 X22.5989 Y149.993
G1 X22.5942 Y149.9993
G1 X22.5896 Y150.0055
G1 X22.585 Y150.0118
G1 X22.5804 Y150.0181
G1 X22.5758 Y150.0245
G1 X22.5712 Y150.0308
G1 X22.5666 Y150.0372
G1 X22.562 Y150.0436
G1 X22.5575 Y150.05
G1 X22.5529 Y150.0564
G1 X22.5484 Y150.0628
G1 X22.5439 Y150.0693
G1 X22.5394 Y150.0758
G1 X22.5349 Y150.0823
G1 X22.5304 Y150.0888
G1 X22.526 Y150.0953
G1 X22.5215 Y150.1019
G1 X22.5171 Y150.1085
G1 X22.5126 Y150.1151
G1 X22.5082 Y150.1217
G1 X22.5038 Y150.1283
G1 X22.4994 Y150.135
G1 X22.495 Y150.1417
G1 X22.4906 Y150.1484
G1 X22.4863 Y150.1551
G1 X22.4819 Y150.1618
G1 X22.4776 Y150.1686
G1 X22.4733 Y150.1754
G1 X22.4689 Y150.1822
G1 X22.4646 Y150.189
G1 X22.4603 Y150.1959
G1 X22.4561 Y150.2027
G1 X22.4518 Y150.2096
G1 X22.4475 Y150.2165
G1 X22.4433 Y150.2234
G1 X22.4391 Y150.2304
G1 X22.4348 Y150.2373
G1 X22.4306 Y150.2443
G1 X22.4264 Y150.2513
G1 X22.4222 Y150.2584
G1 X22.4181 Y150.2654
G1 X22.4139 Y150.2725
G1 X22.4097 Y150.2796
G1 X22.4056 Y150.2867
G1 X22.4015 Y150.2938
G1 X22.3974 Y150.301
G1 X22.3932 Y150.3081
G1 X22.3892 Y150.3153
G1 X22.3851 Y150.3225
G1 X22.381 Y150.3298
G1 X22.3769 Y150.337
G1 X22.3729 Y150.3443
G1 X22.3689 Y150.3516
G1 X22.3648 Y150.3589
G1 X22.3608 Y150.3663
G1 X22.3568 Y150.3737
G1 X22.3528 Y150.3811
G1 X22.3489 Y150.3885
G1 X22.3449 Y150.3959
G1 X22.341 Y150.4033
G1 X22.337 Y150.4108
G1 X22.3331 Y150.4183
G1 X22.3292 Y150.4258
G1 X22.3253 Y150.4334
G1 X22.3214 Y150.4409
G1 X22.3175 Y150.4485
G1 X22.3136 Y150.4561
G1 X22.3098 Y150.4638
G1 X22.3059 Y150.4714
G1 X22.3021 Y150.4791
G1 X22.2983 Y150.4868
G1 X22.2945 Y150.4945
G1 X22.2907 Y150.5023
G1 X22.2869 Y150.51
G1 X22.2831 Y150.5178
G1 X22.2793 Y150.5256
G1 X22.2756 Y150.5334
G1 X22.2719 Y150.5413
G1 X22.2681 Y150.5492
G1 X22.2644 Y150.5571
G1 X22.2607 Y150.565
G1 X22.257 Y150.5729
G1 X22.2534 Y150.5809
G1 X22.2497 Y150.5889
G1 X22.2461 Y150.5969
G1 X22.2424 Y150.6049
G1 X22.2388 Y150.613
G1 X22.2352 Y150.6211
G1 X22.2316 Y150.6292
G1 X22.228 Y150.6373
G1 X22.2244 Y150.6455
G1 X22.2209 Y150.6536
G1 X22.2173 Y150.6618
G1 X22.2138 Y150.67
G1 X22.2102 Y150.6783
G1 X22.2067 Y150.6866
G1 X22.2032 Y150.6948
G1 X22.1997 Y150.7032
G1 X22.1963 Y150.7115
G1 X22.1928 Y150.7198
G1 X22.1893 Y150.7282
G1 X22.1859 Y150.7366
G1 X22.1825 Y150.7451
G1 X22.1791 Y150.7535
G1 X22.1757 Y150.762
G1 X22.1723 Y150.7705
G1 X22.1689 Y150.779
G1 X22.1655 Y150.7876
G1 X22.1622 Y150.7961
G1 X22.1589 Y150.8047
G1 X22.1555 Y150.8133
G1 X22.1522 Y150.822
G1 X22.1489 Y150.8306
G1 X22.1456 Y150.8393
G1 X22.1424 Y150.848
G1 X22.1391 Y150.8568
G1 X22.1359 Y150.8655
G1 X22.1326 Y150.8743
G1 X22.1294 Y150.8831
G1 X22.1262 Y150.8919
G1 X22.123 Y150.9008
G1 X22.1198 Y150.9097
G1 X22.1167 Y150.9186
G1 X22.1135 Y150.9275
G1 X22.1104 Y150.9365
G1 X22.1072 Y150.9454
G1 X22.1041 Y150.9544
G1 X22.101 Y150.9634
G1 X22.0979 Y150.9725
G1 X22.0949 Y150.9816
G1 X22.0918 Y150.9907
G1 X22.0887 Y150.9998
G1 X22.0857 Y151.0089
G1 X22.0827 Y151.0181
G1 X22.0797 Y151.0273
G1 X22.0767 Y151.0365
G1 X22.0737 Y151.0457
G1 X22.0707 Y151.055
G1 X22.0678 Y151.0643
G1 X22.0648 Y151.0736
G1 X22.0619 Y151.0829
G1 X22.059 Y151.0923
G1 X22.0561 Y151.1017
G1 X22.0532 Y151.1111
G1 X22.0503 Y151.1205
G1 X22.0475 Y151.13
G1 X22.0446 Y151.1395
G1 X22.0418 Y151.149
G1 X22.039 Y151.1585
G1 X22.0362 Y151.168
G1 X22.0334 Y151.1776
G1 X22.0306 Y151.1872
G1 X22.0279 Y151.1969
G1 X22.0251 Y151.2065
G1 X22.0224 Y151.2162
G1 X22.0197 Y151.2259
G1 X22.017 Y151.2356
G1 X22.0143 Y151.2454
G1 X22.0116 Y151.2551
G1 X22.0089 Y151.2649
G1 X22.0063 Y151.2748
G1 X22.0036 Y151.2846
G1 X22.001 Y151.2945
G1 X21.9984 Y151.3044
G1 X21.9958 Y151.3143
G1 X21.9932 Y151.3243
G1 X21.9907 Y151.3342
G1 X21.9881 Y151.3442
G1 X21.9856 Y151.3543
G1 X21.9831 Y151.3643
G1 X21.9806 Y151.3744
G1 X21.9781 Y151.3845
G1 X21.9756 Y151.3946
G1 X21.9731 Y151.4047
G1 X21.9707 Y151.4149
G1 X21.9683 Y151.4251
G1 X21.9658 Y151.4353
G1 X21.9634 Y151.4456
G1 X21.961 Y151.4558
G1 X21.9587 Y151.4661
G1 X21.9563 Y151.4765
G1 X21.954 Y151.4868
G1 X21.9516 Y151.4972
G1 X21.9493 Y151.5076
G1 X21.947 Y151.518
G1 X21.9447 Y151.5284
G1 X21.9425 Y151.5389
G1 X21.9402 Y151.5494
G1 X21.938 Y151.5599
G1 X21.9357 Y151.5704
G1 X21.9335 Y151.581
G1 X21.9311 Y151.5925
G3 X20.1675 Y152.0095 I-0.9792 J-0.2031
G2 X17.4253 Y149.8004 I-6.2254 J4.9211
G3 X17.4211 Y149.7983 I0.4389 J-0.8985
G2 X13.9663 Y149.0 I-3.4167 J6.9112
G3 X13.9551 I-0.0049 J-1.0
G2 X10.8725 Y149.6504 I-0.0461 J7.4109
G3 X10.8699 Y149.6516 I-0.4097 J-0.9122
G2 X8.3038 Y151.4128 I3.4957 J7.8435
G2 X6.6108 Y153.9755 I5.4815 J5.4616
G3 X6.6093 Y153.9792 I-0.9272 J-0.3746
G2 X6.0 Y157.1232 I7.5903 J3.1021
G3 Y157.133 I-1.0 J0.0051
G2 X6.6092 Y160.2706 I8.1831 J0.0391
G3 X6.6103 Y160.2733 I-0.9255 J0.3786
G2 X8.3119 Y162.8745 I7.4734 J-3.0319
G2 X10.8707 Y164.6566 I5.9562 J-5.8238
G3 X10.8725 Y164.6574 I-0.4078 J0.913
G2 X13.9551 Y165.3079 I3.0364 J-6.7605
G3 X13.9624 I0.0062 J1.0
G2 X17.3004 Y164.5572 I0.0082 J-7.7609
G3 X17.3091 Y164.5532 I0.4291 J0.9033
G2 X20.0307 Y162.4877 I-3.3603 J-7.2535
G3 X21.7915 Y163.1454 I0.7608 J0.649
G3 X21.7307 Y164.1506 I-9.7322 J-0.0843
G1 X21.7306 Y164.1507
G2 X21.7491 Y164.857 I2.545 J0.2869
G3 X21.7512 Y164.8702 I-0.9865 J0.1638
G2 X21.8446 Y165.1417 I0.7918 J-0.1206
G3 X21.882 Y165.141 I0.0382 J0.9993
G2 X22.0166 Y165.0903 I-0.0002 J-0.2045
G3 X22.0318 Y165.0772 I0.659 J0.7522
G1 Y154.0149
G1 Y152.8099
G3 X22.2284 Y151.2987 I5.7488 J-0.0206
G3 X23.0022 Y149.8683 I3.2668 J0.8427
G3 X23.0357 Y149.8333 I0.7389 J0.6738
G3 X24.8676 Y149.1314 I1.7078 J1.7158
G3 X24.8681 I-0.0128 J0.9999
G1 X24.8744 Y149.1315
G3 X24.8782 I-0.0133 J0.9999
G1 X24.8846 Y149.1317
G3 X24.8884 I-0.0171 J0.9999
G1 X24.8948 Y149.1319
G3 X24.8985 I-0.0208 J0.9998
G1 X24.9049 Y149.1321
G3 X24.9087 Y149.1322 I-0.0246 J0.9997
G1 X24.9151 Y149.1324
G3 X24.9189 Y149.1325 I-0.0284 J0.9996
G1 X24.9253 Y149.1327
G3 X24.929 Y149.1328 I-0.0322 J0.9995
G1 X24.9354 Y149.1331
G3 X24.9392 Y149.1332 I-0.0359 J0.9994
G1 X24.9456 Y149.1335
G3 X24.9493 Y149.1336 I-0.0397 J0.9992
G1 X24.9557 Y149.1339
G3 X24.9595 Y149.1341 I-0.0434 J0.9991
G1 X24.9659 Y149.1344
G3 X24.9696 Y149.1346 I-0.0472 J0.9989
G1 X24.976 Y149.1349
G3 X24.9798 Y149.1351 I-0.0509 J0.9987
G1 X24.9862 Y149.1354
G3 X24.9899 Y149.1356 I-0.0547 J0.9985
G1 X24.9963 Y149.136
G3 X25.0 Y149.1362 I-0.0584 J0.9983
G1 X25.0065 Y149.1366
G3 X25.0102 Y149.1369 I-0.0621 J0.9981
G1 X25.0166 Y149.1373
G3 X25.0203 Y149.1376 I-0.0659 J0.9978
G1 X25.0267 Y149.138
G3 X25.0304 Y149.1383 I-0.0696 J0.9976
G1 X25.0369 Y149.1387
G3 X25.0406 Y149.139 I-0.0733 J0.9973
G1 X25.047 Y149.1395
G3 X25.0507 Y149.1398 I-0.077 J0.997
G1 X25.0571 Y149.1403
G3 X25.0608 Y149.1406 I-0.0807 J0.9967
G1 X25.0672 Y149.1412
G3 X25.0709 Y149.1415 I-0.0844 J0.9964
G1 X25.0773 Y149.1421
G3 X25.081 Y149.1424 I-0.0881 J0.9961
G1 X25.0875 Y149.143
G3 X25.0911 Y149.1433 I-0.0917 J0.9958
G1 X25.0976 Y149.144
G3 X25.1012 Y149.1443 I-0.0954 J0.9954
G1 X25.1077 Y149.1449
G3 X25.1113 Y149.1453 I-0.0991 J0.9951
G1 X25.1178 Y149.146
G3 X25.1214 Y149.1464 I-0.1027 J0.9947
G1 X25.1279 Y149.1471
G3 X25.1315 Y149.1475 I-0.1064 J0.9943
G1 X25.138 Y149.1482
G3 X25.1416 Y149.1486 I-0.11 J0.9939
G1 X25.148 Y149.1493
G3 X25.1517 Y149.1497 I-0.1137 J0.9935
G1 X25.1581 Y149.1505
G3 X25.1617 Y149.1509 I-0.1173 J0.9931
G1 X25.1682 Y149.1517
G3 X25.1718 Y149.1522 I-0.1209 J0.9927
G1 X25.1783 Y149.153
G3 X25.1819 Y149.1534 I-0.1245 J0.9922
G1 X25.1883 Y149.1543
G3 X25.1919 Y149.1547 I-0.1281 J0.9918
G1 X25.1984 Y149.1556
G3 X25.202 Y149.1561 I-0.1317 J0.9913
G1 X25.2085 Y149.157
G3 X25.212 Y149.1575 I-0.1353 J0.9908
G1 X25.2185 Y149.1584
G3 X25.2221 Y149.1589 I-0.1389 J0.9903
G1 X25.2286 Y149.1598
G3 X25.2321 Y149.1603 I-0.1425 J0.9898
G1 X25.2386 Y149.1613
G3 X25.2421 Y149.1618 I-0.146 J0.9893
G1 X25.2486 Y149.1628
G3 X25.2522 Y149.1633 I-0.1496 J0.9887
G1 X25.2586 Y149.1643
G3 X25.2622 Y149.1649 I-0.1531 J0.9882
G1 X25.2687 Y149.1659
G3 X25.2722 Y149.1665 I-0.1567 J0.9876
G1 X25.2787 Y149.1675
G3 X25.2822 Y149.1681 I-0.1602 J0.9871
G1 X25.2887 Y149.1692
G3 X25.2922 Y149.1698 I-0.1637 J0.9865
G1 X25.2987 Y149.1709
G3 X25.3022 Y149.1715 I-0.1672 J0.9859
G1 X25.3087 Y149.1726
G3 X25.3122 Y149.1732 I-0.1707 J0.9853
G1 X25.3187 Y149.1744
G3 X25.3222 Y149.175 I-0.1742 J0.9847
G1 X25.3286 Y149.1762
G3 X25.3321 Y149.1768 I-0.1777 J0.9841
G1 X25.3386 Y149.178
G3 X25.3421 Y149.1787 I-0.1812 J0.9834
G1 X25.3486 Y149.1799
G3 X25.352 Y149.1805 I-0.1847 J0.9828
G1 X25.3586 Y149.1818
G3 X25.362 Y149.1824 I-0.1881 J0.9821
G1 X25.3685 Y149.1837
G3 X25.3719 Y149.1844 I-0.1916 J0.9815
G1 X25.3784 Y149.1857
G3 X25.3819 Y149.1864 I-0.195 J0.9808
G1 X25.3884 Y149.1877
G3 X25.3918 Y149.1884 I-0.1984 J0.9801
G1 X25.3983 Y149.1897
G3 X25.4017 Y149.1904 I-0.2018 J0.9794
G1 X25.4082 Y149.1918
G3 X25.4116 Y149.1925 I-0.2052 J0.9787
G1 X25.4182 Y149.1939
G3 X25.4215 Y149.1946 I-0.2086 J0.978
G1 X25.4281 Y149.1961
G3 X25.4314 Y149.1968 I-0.212 J0.9773
G1 X25.438 Y149.1982
G3 X25.4413 Y149.199 I-0.2154 J0.9765
G1 X25.4479 Y149.2004
G3 X25.4512 Y149.2012 I-0.2188 J0.9758
G1 X25.4577 Y149.2027
G3 X25.4611 Y149.2035 I-0.2221 J0.975
G1 X25.4676 Y149.205
G3 X25.471 Y149.2057 I-0.2254 J0.9743
G1 X25.4775 Y149.2073
G3 X25.4808 Y149.2081 I-0.2288 J0.9735
G1 X25.4874 Y149.2096
G3 X25.4907 Y149.2104 I-0.2321 J0.9727
G1 X25.4972 Y149.212
G3 X25.5005 Y149.2128 I-0.2354 J0.9719
G1 X25.507 Y149.2144
G3 X25.5103 Y149.2152 I-0.2387 J0.9711
G1 X25.5169 Y149.2169
G3 X25.5202 Y149.2177 I-0.242 J0.9703
G1 X25.5267 Y149.2194
G3 X25.53 Y149.2202 I-0.2453 J0.9695
G1 X25.5365 Y149.2219
G3 X25.5398 Y149.2227 I-0.2485 J0.9686
G1 X25.5463 Y149.2244
G3 X25.5496 Y149.2253 I-0.2518 J0.9678
G1 X25.5561 Y149.227
G3 X25.5594 Y149.2279 I-0.255 J0.9669
G1 X25.5659 Y149.2296
G3 X25.5692 Y149.2305 I-0.2583 J0.9661
G1 X25.5757 Y149.2323
G3 X25.5789 Y149.2331 I-0.2615 J0.9652
G1 X25.5855 Y149.2349
G3 X25.5887 Y149.2358 I-0.2647 J0.9643
G1 X25.5953 Y149.2376
G3 X25.5985 Y149.2385 I-0.2679 J0.9634
G1 X25.605 Y149.2404
G3 X25.6082 Y149.2413 I-0.2711 J0.9626
G1 X25.6148 Y149.2432
G3 X25.6179 Y149.2441 I-0.2743 J0.9617
G1 X25.6245 Y149.246
G3 X25.6277 Y149.2469 I-0.2774 J0.9607
G1 X25.6343 Y149.2488
G3 X25.6374 Y149.2497 I-0.2806 J0.9598
G1 X25.644 Y149.2517
G3 X25.6471 Y149.2526 I-0.2837 J0.9589
G1 X25.6537 Y149.2546
G3 X25.6568 Y149.2555 I-0.2869 J0.958
G1 X25.6634 Y149.2575
G3 X25.6665 Y149.2585 I-0.29 J0.957
G1 X25.6731 Y149.2605
G3 X25.6762 Y149.2614 I-0.2931 J0.9561
G1 X25.6828 Y149.2635
G3 X25.6859 Y149.2644 I-0.2962 J0.9551
G1 X25.6925 Y149.2665
G3 X25.6955 Y149.2675 I-0.2993 J0.9542
G1 X25.7021 Y149.2696
G3 X25.7052 Y149.2705 I-0.3023 J0.9532
G1 X25.7118 Y149.2727
G3 X25.7148 Y149.2736 I-0.3054 J0.9522
G1 X25.7214 Y149.2758
G3 X25.7245 Y149.2768 I-0.3084 J0.9512
G1 X25.7311 Y149.2789
G3 X25.7341 Y149.2799 I-0.3115 J0.9503
G1 X25.7407 Y149.2821
G3 X25.7437 Y149.2831 I-0.3145 J0.9493
G1 X25.7503 Y149.2853
G3 X25.7533 Y149.2864 I-0.3175 J0.9483
G1 X25.76 Y149.2886
G3 X25.7629 Y149.2896 I-0.3205 J0.9472
G1 X25.7696 Y149.2919
G3 X25.7725 Y149.2929 I-0.3235 J0.9462
G1 X25.7792 Y149.2952
G3 X25.7821 Y149.2962 I-0.3265 J0.9452
G1 X25.7887 Y149.2985
G3 X25.7917 Y149.2996 I-0.3294 J0.9442
G1 X25.7983 Y149.3019
G3 X25.8013 Y149.3029 I-0.3324 J0.9431
G1 X25.8079 Y149.3053
G3 X25.8108 Y149.3063 I-0.3353 J0.9421
G1 X25.8174 Y149.3087
G3 X25.8204 Y149.3098 I-0.3383 J0.941
G1 X25.827 Y149.3122
G3 X25.8299 Y149.3132 I-0.3412 J0.94
G1 X25.8365 Y149.3157
G3 X25.8394 Y149.3167 I-0.3441 J0.9389
G1 X25.8461 Y149.3192
G3 X25.8489 Y149.3203 I-0.347 J0.9379
G1 X25.8556 Y149.3227
G3 X25.8584 Y149.3238 I-0.3499 J0.9368
G1 X25.8651 Y149.3263
G3 X25.8679 Y149.3274 I-0.3527 J0.9357
G1 X25.8746 Y149.3299
G3 X25.8774 Y149.331 I-0.3556 J0.9346
G1 X25.8841 Y149.3336
G3 X25.8869 Y149.3347 I-0.3584 J0.9336
G1 X25.8936 Y149.3372
G3 X25.8964 Y149.3383 I-0.3613 J0.9325
G1 X25.903 Y149.3409
G3 X25.9058 Y149.342 I-0.3641 J0.9314
G1 X25.9125 Y149.3447
G3 X25.9153 Y149.3458 I-0.3669 J0.9303
G1 X25.9219 Y149.3484
G3 X25.9247 Y149.3495 I-0.3697 J0.9292
G1 X25.9314 Y149.3522
G3 X25.9342 Y149.3533 I-0.3725 J0.9281
G1 X25.9408 Y149.356
G3 X25.9436 Y149.3571 I-0.3752 J0.9269
G1 X25.9502 Y149.3599
G3 X25.953 Y149.361 I-0.378 J0.9258
G1 X25.9597 Y149.3637
G3 X25.9624 Y149.3649 I-0.3807 J0.9247
G1 X25.9691 Y149.3676
G3 X25.9718 Y149.3688 I-0.3835 J0.9236
G1 X25.9785 Y149.3716
G3 X25.9812 Y149.3727 I-0.3862 J0.9224
G1 X25.9878 Y149.3755
G3 X25.9905 Y149.3767 I-0.3889 J0.9213
G1 X25.9972 Y149.3795
G3 X25.9999 Y149.3807 I-0.3916 J0.9201
G1 X26.0066 Y149.3835
G3 X26.0093 Y149.3847 I-0.3943 J0.919
G1 X26.0159 Y149.3876
G3 X26.0186 Y149.3887 I-0.3969 J0.9178
G1 X26.0253 Y149.3916
G3 X26.0279 Y149.3928 I-0.3996 J0.9167
G1 X26.0346 Y149.3957
G3 X26.0373 Y149.3969 I-0.4023 J0.9155
G1 X26.044 Y149.3999
G3 X26.0466 Y149.401 I-0.4049 J0.9144
G1 X26.0533 Y149.404
G3 X26.0559 Y149.4052 I-0.4075 J0.9132
G1 X26.0626 Y149.4082
G3 X26.0652 Y149.4094 I-0.4101 J0.912
G1 X26.0719 Y149.4124
G3 X26.0745 Y149.4136 I-0.4127 J0.9109
G1 X26.0812 Y149.4166
G3 X26.0838 Y149.4178 I-0.4153 J0.9097
G1 X26.0905 Y149.4209
G3 X26.093 Y149.4221 I-0.4179 J0.9085
G1 X26.0997 Y149.4252
G3 X26.1023 Y149.4264 I-0.4204 J0.9073
G1 X26.109 Y149.4295
G3 X26.1115 Y149.4307 I-0.423 J0.9061
G1 X26.1183 Y149.4339
G3 X26.1208 Y149.4351 I-0.4255 J0.9049
G1 X26.1275 Y149.4382
G3 X26.13 Y149.4394 I-0.4281 J0.9037
G1 X26.1367 Y149.4426
G3 X26.1392 Y149.4438 I-0.4306 J0.9026
G1 X26.146 Y149.4471
G3 X26.1484 Y149.4483 I-0.4331 J0.9014
G1 X26.1552 Y149.4515
G3 X26.1577 Y149.4527 I-0.4356 J0.9002
G1 X26.1644 Y149.456
G3 X26.1668 Y149.4572 I-0.4381 J0.8989
G1 X26.1736 Y149.4605
G3 X26.176 Y149.4617 I-0.4405 J0.8977
G1 X26.1828 Y149.4651
G3 X26.1852 Y149.4663 I-0.443 J0.8965
G1 X26.1919 Y149.4696
G3 X26.1944 Y149.4708 I-0.4454 J0.8953
G1 X26.2011 Y149.4742
G3 X26.2035 Y149.4754 I-0.4479 J0.8941
G1 X26.2103 Y149.4788
G3 X26.2127 Y149.48 I-0.4503 J0.8929
G1 X26.2194 Y149.4835
G3 X26.2218 Y149.4847 I-0.4527 J0.8917
G1 X26.2286 Y149.4881
G3 X26.231 Y149.4894 I-0.4551 J0.8905
G1 X26.2377 Y149.4928
G3 X26.2401 Y149.494 I-0.4575 J0.8892
G1 X26.2468 Y149.4975
G3 X26.2492 Y149.4988 I-0.4598 J0.888
G1 X26.2559 Y149.5023
G3 X26.2583 Y149.5035 I-0.4622 J0.8868
G1 X26.2651 Y149.5071
G3 X26.2674 Y149.5083 I-0.4645 J0.8855
G1 X26.2741 Y149.5119
G3 X26.2765 Y149.5131 I-0.4669 J0.8843
G1 X26.2832 Y149.5167
G3 X26.2856 Y149.5179 I-0.4692 J0.8831
G1 X26.2923 Y149.5215
G3 X26.2946 Y149.5228 I-0.4715 J0.8819
G1 X26.3014 Y149.5264
G3 X26.3037 Y149.5277 I-0.4738 J0.8806
G1 X26.3104 Y149.5313
G3 X26.3127 Y149.5326 I-0.4761 J0.8794
G1 X26.3195 Y149.5362
G3 X26.3218 Y149.5375 I-0.4784 J0.8781
G1 X26.3285 Y149.5412
G3 X26.3308 Y149.5424 I-0.4807 J0.8769
G1 X26.3376 Y149.5462
G3 X26.3398 Y149.5474 I-0.4829 J0.8757
G1 X26.3466 Y149.5512
G3 X26.3488 Y149.5524 I-0.4852 J0.8744
G1 X26.3556 Y149.5562
G3 X26.3579 Y149.5575 I-0.4874 J0.8732
G1 X26.3646 Y149.5613
G3 X26.3669 Y149.5625 I-0.4896 J0.8719
G1 X26.3736 Y149.5664
G3 X26.3758 Y149.5676 I-0.4918 J0.8707
G1 X26.3826 Y149.5715
G3 X26.3848 Y149.5727 I-0.494 J0.8694
G1 X26.3916 Y149.5766
G3 X26.3938 Y149.5778 I-0.4962 J0.8682
G1 X26.4006 Y149.5817
G3 X26.4028 Y149.583 I-0.4984 J0.8669
G1 X26.4096 Y149.5869
G3 X26.4117 Y149.5882 I-0.5006 J0.8657
G1 X26.4185 Y149.5921
G3 X26.4207 Y149.5934 I-0.5027 J0.8644
G1 X26.4275 Y149.5974
G3 X26.4296 Y149.5986 I-0.5049 J0.8632
G1 X26.4364 Y149.6026
G3 X26.4385 Y149.6039 I-0.507 J0.8619
G1 X26.4453 Y149.6079
G3 X26.4475 Y149.6092 I-0.5091 J0.8607
G1 X26.4543 Y149.6132
G3 X26.4564 Y149.6145 I-0.5113 J0.8594
G1 X26.4632 Y149.6185
G3 X26.4653 Y149.6198 I-0.5134 J0.8582
G1 X26.4721 Y149.6239
G3 X26.4742 Y149.6252 I-0.5155 J0.8569
G1 X26.481 Y149.6293
G3 X26.4831 Y149.6305 I-0.5175 J0.8557
G1 X26.4899 Y149.6347
G3 X26.4919 Y149.6359 I-0.5196 J0.8544
G1 X26.4988 Y149.6401
G3 X26.5008 Y149.6414 I-0.5217 J0.8531
G1 X26.5077 Y149.6456
G3 X26.5097 Y149.6468 I-0.5237 J0.8519
G1 X26.5165 Y149.651
G3 X26.5185 Y149.6523 I-0.5258 J0.8506
G1 X26.5254 Y149.6565
G3 X26.5274 Y149.6578 I-0.5278 J0.8494
G1 X26.5342 Y149.6621
G3 X26.5362 Y149.6633 I-0.5298 J0.8481
G1 X26.5431 Y149.6676
G3 X26.5451 Y149.6689 I-0.5318 J0.8469
G1 X26.5519 Y149.6732
G3 X26.5539 Y149.6745 I-0.5338 J0.8456
G1 X26.5607 Y149.6788
G3 X26.5627 Y149.6801 I-0.5358 J0.8444
G1 X26.5696 Y149.6844
G3 X26.5715 Y149.6857 I-0.5378 J0.8431
G1 X26.5784 Y149.6901
G3 X26.5803 Y149.6913 I-0.5397 J0.8418
G1 X26.5872 Y149.6957
G3 X26.5891 Y149.697 I-0.5417 J0.8406
G1 X26.596 Y149.7014
G3 X26.5979 Y149.7027 I-0.5436 J0.8393
G1 X26.6048 Y149.7072
G3 X26.6067 Y149.7084 I-0.5456 J0.8381
G1 X26.6136 Y149.7129
G3 X26.6155 Y149.7142 I-0.5475 J0.8368
G1 X26.6223 Y149.7187
G3 X26.6242 Y149.7199 I-0.5494 J0.8356
G1 X26.6311 Y149.7245
G3 X26.633 Y149.7257 I-0.5513 J0.8343
G1 X26.6399 Y149.7303
G3 X26.6418 Y149.7315 I-0.5532 J0.8331
G1 X26.6486 Y149.7361
G3 X26.6505 Y149.7374 I-0.5551 J0.8318
G1 X26.6574 Y149.742
G3 X26.6592 Y149.7432 I-0.557 J0.8305
G1 X26.6661 Y149.7479
G3 X26.668 Y149.7491 I-0.5588 J0.8293
G1 X26.6748 Y149.7538
G3 X26.6767 Y149.755 I-0.5607 J0.828
G1 X26.6836 Y149.7597
G3 X26.6854 Y149.761 I-0.5625 J0.8268
G1 X26.6923 Y149.7657
G3 X26.6941 Y149.7669 I-0.5643 J0.8255
G1 X26.701 Y149.7716
G3 X26.7028 Y149.7729 I-0.5662 J0.8243
G1 X26.7097 Y149.7776
G3 X26.7115 Y149.7789 I-0.568 J0.823
G1 X26.7184 Y149.7837
G3 X26.7202 Y149.7849 I-0.5698 J0.8218
G1 X26.7271 Y149.7897
G3 X26.7289 Y149.791 I-0.5716 J0.8205
G1 X26.7358 Y149.7958
G3 X26.7375 Y149.797 I-0.5734 J0.8193
G1 X26.7444 Y149.8019
G3 X26.7462 Y149.8031 I-0.5752 J0.818
G1 X26.7531 Y149.808
G3 X26.7549 Y149.8093 I-0.5769 J0.8168
G1 X26.7618 Y149.8142
G3 X26.7635 Y149.8154 I-0.5787 J0.8156
G1 X26.7704 Y149.8203
G3 X26.7722 Y149.8216 I-0.5804 J0.8143
G1 X26.7791 Y149.8265
G3 X26.7808 Y149.8278 I-0.5822 J0.8131
G1 X26.7877 Y149.8327
G3 X26.7894 Y149.834 I-0.5839 J0.8118
G1 X26.7964 Y149.839
G3 X26.7981 Y149.8402 I-0.5856 J0.8106
G1 X26.805 Y149.8452
G3 X26.8067 Y149.8465 I-0.5873 J0.8093
G1 X26.8136 Y149.8515
G3 X26.8153 Y149.8527 I-0.589 J0.8081
G1 X26.8222 Y149.8578
G3 X26.8239 Y149.859 I-0.5907 J0.8069
G1 X26.8308 Y149.8641
G3 X26.8325 Y149.8654 I-0.5924 J0.8056
G1 X26.8394 Y149.8705
G3 X26.8411 Y149.8717 I-0.5941 J0.8044
G1 X26.848 Y149.8769
G3 X26.8497 Y149.8781 I-0.5958 J0.8032
G1 X26.8566 Y149.8833
G3 X26.8583 Y149.8845 I-0.5974 J0.8019
G1 X26.8652 Y149.8897
G3 X26.8669 Y149.8909 I-0.5991 J0.8007
G1 X26.8738 Y149.8961
G3 X26.8754 Y149.8974 I-0.6007 J0.7995
G1 X26.8824 Y149.9026
G3 X26.884 Y149.9038 I-0.6023 J0.7982
G1 X26.8909 Y149.9091
G3 X26.8925 Y149.9103 I-0.604 J0.797
G1 X26.8995 Y149.9156
G3 X26.9011 Y149.9168 I-0.6056 J0.7958
G1 X26.9081 Y149.9221
G3 X26.9096 Y149.9234 I-0.6072 J0.7946
G1 X26.9166 Y149.9287
G3 X26.9182 Y149.9299 I-0.6088 J0.7934
G1 X26.9251 Y149.9353
G3 X26.9267 Y149.9365 I-0.6104 J0.7921
G1 X26.9337 Y149.9419
G3 X26.9352 Y149.9431 I-0.6119 J0.7909
G1 X26.9422 Y149.9485
G3 X26.9438 Y149.9497 I-0.6135 J0.7897
G1 X26.9507 Y149.9551
G3 X26.9523 Y149.9564 I-0.6151 J0.7885
G1 X26.9593 Y149.9618
G3 X26.9608 Y149.963 I-0.6166 J0.7873
G1 X26.9678 Y149.9685
G3 X26.9693 Y149.9697 I-0.6182 J0.786
G1 X26.9763 Y149.9752
G3 X26.9778 Y149.9764 I-0.6197 J0.7848
G1 X26.9848 Y149.982
G3 X26.9863 Y149.9832 I-0.6212 J0.7836
G1 X26.9933 Y149.9887
G3 X26.9948 Y149.9899 I-0.6228 J0.7824
G1 X27.0018 Y149.9955
G3 X27.0033 Y149.9967 I-0.6243 J0.7812
G1 X27.0103 Y150.0023
G3 X27.0117 Y150.0035 I-0.6258 J0.78
G1 X27.0187 Y150.0091
G3 X27.0202 Y150.0103 I-0.6273 J0.7788
G1 X27.0272 Y150.016
G3 X27.0287 Y150.0172 I-0.6288 J0.7776
G1 X27.0357 Y150.0229
G3 X27.0371 Y150.0241 I-0.6302 J0.7764
G1 X27.0441 Y150.0298
G3 X27.0456 Y150.0309 I-0.6317 J0.7752
G1 X27.0526 Y150.0367
G3 X27.0541 Y150.0379 I-0.6332 J0.774
G1 X27.0611 Y150.0436
G3 X27.0625 Y150.0448 I-0.6346 J0.7728
G1 X27.0695 Y150.0506
G3 X27.0709 Y150.0518 I-0.6361 J0.7716
G1 X27.0779 Y150.0576
G3 X27.0794 Y150.0587 I-0.6375 J0.7704
G1 X27.0864 Y150.0646
G3 X27.0878 Y150.0658 I-0.6389 J0.7692
G1 X27.0948 Y150.0716
G3 X27.0962 Y150.0728 I-0.6404 J0.7681
G1 X27.1032 Y150.0786
G3 X27.1047 Y150.0798 I-0.6418 J0.7669
G1 X27.1117 Y150.0857
G3 X27.1131 Y150.0869 I-0.6432 J0.7657
G1 X27.1201 Y150.0928
G3 X27.1215 Y150.094 I-0.6446 J0.7645
G1 X27.1285 Y150.0999
G3 X27.1299 Y150.1011 I-0.646 J0.7633
G1 X27.1369 Y150.1071
G3 X27.1383 Y150.1082 I-0.6474 J0.7622
G1 X27.1453 Y150.1142
G3 X27.1467 Y150.1154 I-0.6488 J0.761
G1 X27.1537 Y150.1214
G3 X27.1551 Y150.1226 I-0.6501 J0.7598
G1 X27.1621 Y150.1286
G3 X27.1635 Y150.1298 I-0.6515 J0.7586
G1 X27.1705 Y150.1359
G3 X27.1718 Y150.137 I-0.6529 J0.7575
G1 X27.1789 Y150.1431
G3 X27.1802 Y150.1443 I-0.6542 J0.7563
G1 X27.1873 Y150.1504
G3 X27.1886 Y150.1515 I-0.6556 J0.7551
G1 X27.1956 Y150.1577
G3 X27.197 Y150.1588 I-0.6569 J0.754
G1 X27.204 Y150.165
G3 X27.2053 Y150.1662 I-0.6582 J0.7528
G1 X27.2124 Y150.1723
G3 X27.2169 Y150.1764 I-0.6595 J0.7517
G3 X29.0513 Y152.1874 I-8.6233 J9.7076
G3 X30.5455 Y154.5148 I-16.0131 J11.9236
G3 X31.5174 Y156.3479 I-51.9574 J28.7236
G3 X31.5187 Y156.3505 I-0.8915 J0.4529
G2 X31.9955 Y157.2063 I10.6518 J-5.3733
G3 X32.0039 Y157.2204 I-0.8529 J0.5221
G3 X32.0344 Y157.2196 I0.0406 J0.9992
G2 X32.1991 Y157.1677 I-0.003 J-0.2966
( Profile2 )
S1000
G0 Z3.0
G0 X13.2745 Y149.1593
G0 Z1.0
G1 F300.0 Z-0.5
G3 F800.0 X13.9627 Y149.1312 I0.6374 J7.1626
G3 X17.0511 Y149.795 I0.0318 J7.3686
G3 X19.5405 Y151.5392 I-3.3489 J7.4283
G3 X19.5421 Y151.5408 I-0.7165 J0.6976
G3 X21.1969 Y154.0722 I-5.7281 J5.5509
G3 X21.7915 Y157.1283 I-7.3442 J3.0149
G3 X21.1966 Y160.185 I-7.9388 J0.0411
G3 X19.5505 Y162.7326 I-7.6678 J-3.1487
G3 X17.0516 Y164.5127 I-5.7687 J-5.454
G3 X13.9627 Y165.1767 I-3.057 J-6.7046
G3 X10.8865 Y164.5094 I-0.0508 J-7.1907
G3 X8.4391 Y162.7217 I3.2495 J-7.0176
G3 X8.4389 Y162.7215 I0.7367 J-0.6763
G3 X6.831 Y160.1825 I6.2562 J-5.7405
G3 X6.2403 Y157.1256 I7.3857 J-3.0127
G3 X6.8288 Y154.1053 I8.0379 J-0.0015
G3 X8.4459 Y151.5531 I7.518 J2.9753
G3 X8.4491 Y151.5497 I0.7298 J0.6836
G3 X10.887 Y149.7982 I5.7632 J5.4493
G3 X13.2745 Y149.1593 I3.0249 J6.5237
G1 F300.0 Z-1.0
G3 F800.0 X13.9627 Y149.1312 I0.6374 J7.1626
G3 X17.0511 Y149.795 I0.0318 J7.3686
G3 X19.5405 Y151.5392 I-3.3489 J7.4283
G3 X19.5421 Y151.5408 I-0.7165 J0.6976
G3 X21.1969 Y154.0722 I-5.7281 J5.5509
G3 X21.7915 Y157.1283 I-7.3442 J3.0149
G3 X21.1966 Y160.185 I-7.9388 J0.0411
G3 X19.5505 Y162.7326 I-7.6678 J-3.1487
G3 X17.0516 Y164.5127 I-5.7687 J-5.454
G3 X13.9627 Y165.1767 I-3.057 J-6.7046
G3 X10.8865 Y164.5094 I-0.0508 J-7.1907
G3 X8.4391 Y162.7217 I3.2495 J-7.0176
G3 X8.4389 Y162.7215 I0.7367 J-0.6763
G3 X6.831 Y160.1825 I6.2562 J-5.7405
G3 X6.2403 Y157.1256 I7.3857 J-3.0127
G3 X6.8288 Y154.1053 I8.0379 J-0.0015
G3 X8.4459 Y151.5531 I7.518 J2.9753
G3 X8.4491 Y151.5497 I0.7298 J0.6836
G3 X10.887 Y149.7982 I5.7632 J5.4493
G3 X13.2745 Y149.1593 I3.0249 J6.5237
G1 F300.0 Z-1.5
G3 F800.0 X13.9627 Y149.1312 I0.6374 J7.1626
G3 X17.0511 Y149.795 I0.0318 J7.3686
G3 X19.5405 Y151.5392 I-3.3489 J7.4283
G3 X19.5421 Y151.5408 I-0.7165 J0.6976
G3 X21.1969 Y154.0722 I-5.7281 J5.5509
G3 X21.7915 Y157.1283 I-7.3442 J3.0149
G3 X21.1966 Y160.185 I-7.9388 J0.0411
G3 X19.5505 Y162.7326 I-7.6678 J-3.1487
G3 X17.0516 Y164.5127 I-5.7687 J-5.454
G3 X13.9627 Y165.1767 I-3.057 J-6.7046
G3 X10.8865 Y164.5094 I-0.0508 J-7.1907
G3 X8.4391 Y162.7217 I3.2495 J-7.0176
G3 X8.4389 Y162.7215 I0.7367 J-0.6763
G3 X6.831 Y160.1825 I6.2562 J-5.7405
G3 X6.2403 Y157.1256 I7.3857 J-3.0127
G3 X6.8288 Y154.1053 I8.0379 J-0.0015
G3 X8.4459 Y151.5531 I7.518 J2.9753
G3 X8.4491 Y151.5497 I0.7298 J0.6836
G3 X10.887 Y149.7982 I5.7632 J5.4493
G3 X13.2745 Y149.1593 I3.0249 J6.5237
( Profile3 )
S1000
G0 Z3.0
G0 X46.4755 Y149.2387
G0 Z1.0
G1 F300.0 Z-0.5
G2 F800.0 X45.6061 Y149.5966 I1.58 J5.0735
G2 X43.758 Y151.1929 I2.6641 J4.9521
G2 X42.5754 Y153.6079 I6.2377 J4.5516
G3 X42.5745 Y153.611 I-0.961 J-0.2767
G2 X41.9792 Y156.8202 I15.6761 J4.5679
G2 X41.3001 Y167.4299 I719.7674 J51.3957
G2 X41.0 Y178.1005 I188.5121 J10.6415
G2 X41.1349 Y181.0641 I44.4479 J-0.5384
G3 X41.1353 Y181.0691 I-0.9969 J0.0788
G2 X41.5923 Y185.144 I54.0685 J-4.0003
G3 X41.5925 Y185.1459 I-0.9888 J0.1489
G2 X42.3991 Y189.5615 I67.1324 J-9.9813
G3 X42.4006 Y189.5687 I-0.9772 J0.2121
G2 X43.5812 Y193.5049 I23.707 J-4.9651
G3 X43.5861 Y193.5174 I-0.93 J0.3675
G2 X45.1583 Y196.1984 I8.7119 J-3.3075
G1 X45.1637 Y196.2045
G1 X45.1699 Y196.2115
G1 X45.1761 Y196.2184
G1 X45.1824 Y196.2254
G1 X45.1886 Y196.2323
G1 X45.1948 Y196.2391
G1 X45.2011 Y196.2459
G1 X45.2073 Y196.2527
G1 X45.2135 Y196.2594
G1 X45.2198 Y196.2661
G1 X45.226 Y196.2728
G1 X45.2322 Y196.2794
G1 X45.2384 Y196.286
G1 X45.2446 Y196.2926
G1 X45.2509 Y196.2991
G1 X45.2571 Y196.3056
G1 X45.2633 Y196.312
G1 X45.2695 Y196.3185
G1 X45.2757 Y196.3248
G1 X45.2819 Y196.3312
G1 X45.2881 Y196.3375
G1 X45.2943 Y196.3437
G1 X45.3005 Y196.35
G1 X45.3067 Y196.3562
G1 X45.3129 Y196.3623
G1 X45.3191 Y196.3684
G1 X45.3253 Y196.3745
G1 X45.3315 Y196.3806
G1 X45.3377 Y196.3866
G1 X45.3439 Y196.3926
G1 X45.35 Y196.3985
G1 X45.3562 Y196.4044
G1 X45.3624 Y196.4103
G1 X45.3686 Y196.4161
G1 X45.3747 Y196.4219
G1 X45.3809 Y196.4277
G1 X45.3871 Y196.4334
G1 X45.3932 Y196.4391
G1 X45.3994 Y196.4448
G1 X45.4055 Y196.4504
G1 X45.4117 Y196.456
G1 X45.4179 Y196.4616
G1 X45.424 Y196.4671
G1 X45.4301 Y196.4726
G1 X45.4363 Y196.4781
G1 X45.4424 Y196.4835
G1 X45.4486 Y196.4889
G1 X45.4547 Y196.4942
G1 X45.4608 Y196.4995
G1 X45.467 Y196.5048
G1 X45.4731 Y196.5101
G1 X45.4792 Y196.5153
G1 X45.4853 Y196.5205
G1 X45.4914 Y196.5256
G1 X45.4976 Y196.5307
G1 X45.5037 Y196.5358
G1 X45.5098 Y196.5408
G1 X45.5159 Y196.5459
G1 X45.522 Y196.5508
G1 X45.5281 Y196.5558
G1 X45.5342 Y196.5607
G1 X45.5403 Y196.5656
G1 X45.5463 Y196.5704
G1 X45.5524 Y196.5752
G1 X45.5585 Y196.58
G1 X45.5646 Y196.5848
G1 X45.5707 Y196.5895
G1 X45.5767 Y196.5942
G1 X45.5828 Y196.5988
G1 X45.5889 Y196.6034
G1 X45.5949 Y196.608
G1 X45.601 Y196.6126
G1 X45.607 Y196.6171
G1 X45.6131 Y196.6216
G1 X45.6191 Y196.626
G1 X45.6252 Y196.6305
G1 X45.6312 Y196.6349
G1 X45.6373 Y196.6392
G1 X45.6433 Y196.6436
G1 X45.6493 Y196.6479
G1 X45.6554 Y196.6521
G1 X45.6614 Y196.6564
G1 X45.6674 Y196.6606
G1 X45.6734 Y196.6648
G1 X45.6794 Y196.6689
G1 X45.6855 Y196.673
G1 X45.6915 Y196.6771
G1 X45.6975 Y196.6812
G1 X45.7035 Y196.6852
G1 X45.7095 Y196.6892
G1 X45.7155 Y196.6931
G1 X45.7215 Y196.6971
G1 X45.7275 Y196.701
G1 X45.7335 Y196.7048
G1 X45.7395 Y196.7087
G1 X45.7454 Y196.7125
G1 X45.7514 Y196.7163
G1 X45.7574 Y196.72
G1 X45.7634 Y196.7238
G1 X45.7694 Y196.7275
G1 X45.7753 Y196.7311
G1 X45.7813 Y196.7348
G1 X45.7873 Y196.7384
G1 X45.7932 Y196.742
G1 X45.7992 Y196.7455
G1 X45.8051 Y196.749
G1 X45.8111 Y196.7525
G1 X45.8171 Y196.756
G1 X45.823 Y196.7594
G1 X45.829 Y196.7628
G1 X45.8349 Y196.7662
G1 X45.8409 Y196.7696
G1 X45.8468 Y196.7729
G1 X45.8527 Y196.7762
G1 X45.8587 Y196.7795
G1 X45.8646 Y196.7827
G1 X45.8706 Y196.7859
G1 X45.8765 Y196.7891
G1 X45.8824 Y196.7923
G1 X45.8884 Y196.7954
G1 X45.8943 Y196.7985
G1 X45.9002 Y196.8016
G1 X45.9061 Y196.8046
G1 X45.9121 Y196.8077
G1 X45.918 Y196.8107
G1 X45.9239 Y196.8136
G1 X45.9298 Y196.8166
G1 X45.9358 Y196.8195
G1 X45.9417 Y196.8224
G1 X45.9476 Y196.8253
G1 X45.9535 Y196.8281
G1 X45.9594 Y196.8309
G1 X45.9654 Y196.8337
G1 X45.9713 Y196.8365
G1 X45.9772 Y196.8392
G1 X45.9831 Y196.8419
G1 X45.989 Y196.8446
G1 X45.995 Y196.8473
G1 X46.0009 Y196.8499
G1 X46.0068 Y196.8525
G1 X46.0127 Y196.8551
G1 X46.0186 Y196.8577
G1 X46.0245 Y196.8602
G1 X46.0305 Y196.8627
G1 X46.0364 Y196.8652
G1 X46.0423 Y196.8677
G1 X46.0482 Y196.8701
G1 X46.0541 Y196.8725
G1 X46.0601 Y196.8749
G1 X46.066 Y196.8773
G1 X46.0719 Y196.8796
G1 X46.0778 Y196.8819
G1 X46.0838 Y196.8842
G1 X46.0897 Y196.8865
G1 X46.0956 Y196.8887
G1 X46.1016 Y196.8909
G1 X46.1075 Y196.8931
G1 X46.1135 Y196.8953
G1 X46.1194 Y196.8975
G1 X46.1253 Y196.8996
G1 X46.1313 Y196.9017
G1 X46.1372 Y196.9038
G1 X46.1432 Y196.9058
G1 X46.1491 Y196.9079
G1 X46.1551 Y196.9099
G1 X46.1611 Y196.9119
G1 X46.167 Y196.9138
G1 X46.173 Y196.9158
G1 X46.179 Y196.9177
G1 X46.1849 Y196.9196
G1 X46.1909 Y196.9214
G1 X46.1969 Y196.9233
G1 X46.2029 Y196.9251
G1 X46.2089 Y196.9269
G1 X46.2149 Y196.9287
G1 X46.2209 Y196.9305
G1 X46.2269 Y196.9322
G1 X46.2329 Y196.9339
G1 X46.2389 Y196.9356
G1 X46.2449 Y196.9373
G1 X46.2509 Y196.9389
G1 X46.257 Y196.9406
G1 X46.263 Y196.9422
G1 X46.269 Y196.9437
G1 X46.2751 Y196.9453
G1 X46.2811 Y196.9468
G1 X46.2872 Y196.9483
G1 X46.2932 Y196.9498
G1 X46.2993 Y196.9513
G1 X46.3054 Y196.9528
G1 X46.3115 Y196.9542
G1 X46.3176 Y196.9556
G1 X46.3237 Y196.957
G1 X46.3298 Y196.9583
G1 X46.3359 Y196.9597
G1 X46.342 Y196.961
G1 X46.3481 Y196.9623
G1 X46.3543 Y196.9636
G1 X46.3604 Y196.9648
G1 X46.3665 Y196.966
G1 X46.3727 Y196.9673
G1 X46.3789 Y196.9684
G1 X46.385 Y196.9696
G1 X46.3912 Y196.9708
G1 X46.3974 Y196.9719
G1 X46.4036 Y196.973
G1 X46.4098 Y196.9741
G1 X46.416 Y196.9751
G1 X46.4223 Y196.9761
G1 X46.4285 Y196.9772
G1 X46.4347 Y196.9781
G1 X46.441 Y196.9791
G1 X46.4473 Y196.9801
G1 X46.4535 Y196.981
G1 X46.4598 Y196.9819
G1 X46.4661 Y196.9828
G1 X46.4724 Y196.9836
G1 X46.4787 Y196.9845
G1 X46.4851 Y196.9853
G1 X46.4914 Y196.9861
G1 X46.4978 Y196.9869
G1 X46.5041 Y196.9876
G1 X46.5105 Y196.9884
G1 X46.5169 Y196.9891
G1 X46.5233 Y196.9898
G1 X46.5297 Y196.9904
G1 X46.5361 Y196.9911
G1 X46.5425 Y196.9917
G1 X46.5489 Y196.9923
G1 X46.5554 Y196.9929
G1 X46.5619 Y196.9934
G1 X46.5683 Y196.9939
G1 X46.5748 Y196.9945
G1 X46.5813 Y196.9949
G1 X46.5878 Y196.9954
G1 X46.5944 Y196.9959
G1 X46.6009 Y196.9963
G1 X46.6075 Y196.9967
G1 X46.614 Y196.9971
G1 X46.6206 Y196.9974
G1 X46.6272 Y196.9977
G1 X46.6338 Y196.998
G1 X46.6404 Y196.9983
G1 X46.6471 Y196.9986
G1 X46.6537 Y196.9988
G1 X46.6604 Y196.9991
G1 X46.6671 Y196.9993
G1 X46.6738 Y196.9994
G1 X46.6805 Y196.9996
G1 X46.6872 Y196.9997
G1 X46.6939 Y196.9998
G1 X46.7007 Y196.9999
G1 X46.7074 Y197.0
G1 X46.7142
G1 X46.7211
G1 X46.7307
G1 X46.7403 Y196.9999
G1 X46.7499
G1 X46.7595 Y196.9998
G1 X46.7691 Y196.9996
G1 X46.7786 Y196.9995
G1 X46.7881 Y196.9993
G1 X46.7976 Y196.999
G1 X46.8071 Y196.9988
G1 X46.8166 Y196.9985
G1 X46.8261 Y196.9982
G1 X46.8355 Y196.9978
G1 X46.8449 Y196.9975
G1 X46.8543 Y196.9971
G1 X46.8637 Y196.9966
G1 X46.873 Y196.9962
G1 X46.8824 Y196.9957
G1 X46.8917 Y196.9952
G1 X46.901 Y196.9946
G1 X46.9103 Y196.994
G1 X46.9196 Y196.9934
G1 X46.9288 Y196.9928
G1 X46.938 Y196.9921
G1 X46.9473 Y196.9914
G1 X46.9565 Y196.9907
G1 X46.9656 Y196.9899
G1 X46.9748 Y196.9892
G1 X46.9839 Y196.9883
G1 X46.9931 Y196.9875
G1 X47.0022 Y196.9866
G1 X47.0113 Y196.9857
G1 X47.0204 Y196.9848
G1 X47.0294 Y196.9839
G1 X47.0385 Y196.9829
G1 X47.0475 Y196.9819
G1 X47.0565 Y196.9808
G1 X47.0655 Y196.9798
G1 X47.0745 Y196.9787
G1 X47.0834 Y196.9775
G1 X47.0924 Y196.9764
G1 X47.1013 Y196.9752
G1 X47.1102 Y196.974
G1 X47.1191 Y196.9728
G1 X47.128 Y196.9715
G1 X47.1368 Y196.9702
G1 X47.1457 Y196.9689
G1 X47.1545 Y196.9675
G1 X47.1634 Y196.9661
G1 X47.1722 Y196.9647
G1 X47.1809 Y196.9633
G1 X47.1897 Y196.9618
G1 X47.1985 Y196.9603
G1 X47.2072 Y196.9588
G1 X47.216 Y196.9573
G1 X47.2247 Y196.9557
G1 X47.2334 Y196.9541
G1 X47.2421 Y196.9524
G1 X47.2507 Y196.9508
G1 X47.2594 Y196.9491
G1 X47.268 Y196.9474
G1 X47.2767 Y196.9456
G1 X47.2853 Y196.9439
G1 X47.2939 Y196.9421
G1 X47.3025 Y196.9402
G1 X47.3111 Y196.9384
G1 X47.3196 Y196.9365
G1 X47.3282 Y196.9346
G1 X47.3367 Y196.9326
G1 X47.3452 Y196.9307
G1 X47.3538 Y196.9287
G1 X47.3623 Y196.9266
G1 X47.3707 Y196.9246
G1 X47.3792 Y196.9225
G1 X47.3877 Y196.9204
G1 X47.3961 Y196.9183
G1 X47.4046 Y196.9161
G1 X47.413 Y196.9139
G1 X47.4214 Y196.9117
G1 X47.4298 Y196.9094
G1 X47.4382 Y196.9072
G1 X47.4466 Y196.9048
G1 X47.455 Y196.9025
G1 X47.4633 Y196.9002
G1 X47.4717 Y196.8978
G1 X47.48 Y196.8953
G1 X47.4884 Y196.8929
G1 X47.4967 Y196.8904
G1 X47.505 Y196.8879
G1 X47.5133 Y196.8854
G1 X47.5216 Y196.8828
G1 X47.5298 Y196.8802
G1 X47.5381 Y196.8776
G1 X47.5464 Y196.875
G1 X47.5546 Y196.8723
G1 X47.5629 Y196.8696
G1 X47.5711 Y196.8669
G1 X47.5793 Y196.8641
G1 X47.5875 Y196.8613
G1 X47.5957 Y196.8585
G1 X47.6039 Y196.8557
G1 X47.6121 Y196.8528
G1 X47.6203 Y196.8499
G1 X47.6284 Y196.8469
G1 X47.6366 Y196.844
G1 X47.6447 Y196.841
G1 X47.6529 Y196.838
G1 X47.661 Y196.8349
G1 X47.6691 Y196.8318
G1 X47.6772 Y196.8287
G1 X47.6854 Y196.8256
G1 X47.6935 Y196.8224
G1 X47.7016 Y196.8192
G1 X47.7096 Y196.816
G1 X47.7177 Y196.8128
G1 X47.7258 Y196.8095
G1 X47.7339 Y196.8062
G1 X47.7419 Y196.8028
G1 X47.75 Y196.7994
G1 X47.758 Y196.796
G1 X47.766 Y196.7926
G1 X47.7741 Y196.7891
G1 X47.7821 Y196.7857
G1 X47.7901 Y196.7821
G1 X47.7981 Y196.7786
G1 X47.8061 Y196.775
G1 X47.8141 Y196.7714
G1 X47.8221 Y196.7677
G1 X47.8301 Y196.7641
G1 X47.8381 Y196.7604
G1 X47.8461 Y196.7566
G1 X47.854 Y196.7529
G1 X47.862 Y196.7491
G1 X47.8699 Y196.7452
G1 X47.8779 Y196.7414
G1 X47.8858 Y196.7375
G1 X47.8938 Y196.7336
G1 X47.9017 Y196.7296
G1 X47.9097 Y196.7256
G1 X47.9176 Y196.7216
G1 X47.9255 Y196.7176
G1 X47.9334 Y196.7135
G1 X47.9413 Y196.7094
G1 X47.9492 Y196.7052
G1 X47.9571 Y196.7011
G1 X47.965 Y196.6969
G1 X47.9729 Y196.6926
G1 X47.9808 Y196.6884
G1 X47.9887 Y196.6841
G1 X47.9966 Y196.6797
G1 X48.0045 Y196.6754
G1 X48.0124 Y196.671
G1 X48.0202 Y196.6665
G1 X48.0281 Y196.6621
G1 X48.0359 Y196.6576
G1 X48.0438 Y196.6531
G1 X48.0517 Y196.6485
G1 X48.0595 Y196.6439
G1 X48.0674 Y196.6393
G1 X48.0752 Y196.6346
G1 X48.083 Y196.6299
G1 X48.0909 Y196.6252
G1 X48.0987 Y196.6205
G1 X48.1065 Y196.6157
G1 X48.1144 Y196.6108
G1 X48.1222 Y196.606
G1 X48.13 Y196.6011
G1 X48.1378 Y196.5962
G1 X48.1457 Y196.5912
G1 X48.1535 Y196.5862
G1 X48.1613 Y196.5812
G1 X48.1691 Y196.5761
G1 X48.1769 Y196.571
G1 X48.1847 Y196.5659
G1 X48.1925 Y196.5607
G1 X48.2003 Y196.5555
G1 X48.2081 Y196.5503
G1 X48.2159 Y196.545
G1 X48.2237 Y196.5397
G1 X48.2314 Y196.5344
G1 X48.2392 Y196.529
G1 X48.247 Y196.5236
G1 X48.2548 Y196.5182
G1 X48.2626 Y196.5127
G1 X48.2703 Y196.5072
G1 X48.2781 Y196.5016
G1 X48.2859 Y196.496
G1 X48.2936 Y196.4904
G1 X48.3014 Y196.4847
G1 X48.3092 Y196.479
G1 X48.3169 Y196.4733
G1 X48.3247 Y196.4676
G1 X48.3324 Y196.4618
G1 X48.3402 Y196.4559
G1 X48.3479 Y196.45
G1 X48.3557 Y196.4441
G1 X48.3634 Y196.4382
G1 X48.3712 Y196.4322
G1 X48.3789 Y196.4262
G1 X48.3867 Y196.4201
G1 X48.3944 Y196.414
G1 X48.4021 Y196.4079
G1 X48.4099 Y196.4017
G1 X48.4176 Y196.3955
G1 X48.4253 Y196.3893
G1 X48.4331 Y196.383
G1 X48.4408 Y196.3767
G1 X48.4485 Y196.3703
G1 X48.4562 Y196.3639
G1 X48.464 Y196.3575
G1 X48.4717 Y196.3511
G1 X48.4794 Y196.3445
G1 X48.4871 Y196.338
G1 X48.4948 Y196.3314
G1 X48.5025 Y196.3248
G1 X48.5102 Y196.3182
G1 X48.518 Y196.3115
G1 X48.5257 Y196.3047
G1 X48.5334 Y196.298
G1 X48.5411 Y196.2911
G1 X48.5488 Y196.2843
G1 X48.5565 Y196.2774
G1 X48.5642 Y196.2705
G1 X48.5718 Y196.2635
G1 X48.5795 Y196.2565
G1 X48.5872 Y196.2495
G1 X48.5949 Y196.2424
G1 X48.6026 Y196.2353
G1 X48.6103 Y196.2281
G1 X48.618 Y196.2209
G1 X48.6256 Y196.2137
G1 X48.6333 Y196.2064
G1 X48.641 Y196.1991
G1 X48.6487 Y196.1917
G1 X48.6563 Y196.1843
G1 X48.664 Y196.1769
G1 X48.6717 Y196.1694
G1 X48.6793 Y196.1619
G1 X48.687 Y196.1543
G1 X48.6947 Y196.1467
G1 X48.7023 Y196.1391
G1 X48.71 Y196.1314
G1 X48.7176 Y196.1237
G1 X48.7253 Y196.116
G1 X48.7329 Y196.1082
G1 X48.7406 Y196.1003
G1 X48.7482 Y196.0925
G1 X48.7558 Y196.0845
G1 X48.7635 Y196.0766
G1 X48.7711 Y196.0686
G1 X48.7787 Y196.0605
G1 X48.7864 Y196.0525
G1 X48.794 Y196.0443
G1 X48.8016 Y196.0362
G1 X48.8092 Y196.028
G1 X48.8169 Y196.0197
G1 X48.8202 Y196.0161
G2 X50.5301 Y193.107 I-6.4595 J-5.7539
